(PP_NAME=	  PP_Din)
(PP_VERSION=	  4.0)
(PP_INI_NAME=GC_US_MTORCH_4.2.ini)
(PP_INI_VERSION=  2013-04-04)
(%%INFO MACHINE= 	  Oxyfuel)
(%%INFO Material=MS Thickness=0.5 PlateLength=240.000 PlateWidth=96.000)
(%%INFO PartName=P01-00024-01=4pcs=5.2lbs)
(%%INFO PartName=P01-00029-01=4pcs=1.5lbs)
(%%INFO PartName=P01-00030-01=2pcs=4.0lbs)
(%%INFO PartName=P01-00031-01=4pcs=3.4lbs)
(%%INFO PartName=P01-00032-01=4pcs=4.1lbs)
(%%INFO PartName=P01-00033-01=4pcs=1.5lbs)
(%%INFO PartName=P01-00034-01=2pcs=0.9lbs)
(%%INFO PartName=P01-00035-01=2pcs=14.1lbs)
(%%INFO PartName=P01-00036-01=1pcs=5.1lbs)
(%%INFO PartName=P01-00037-01=1pcs=1.1lbs)
(%%INFO TotalCutLength=791.732)
(%%INFO TotalPierceCount=50)
G70
G162
G141
G237
#CS ON [V.E.START_X, V.E.START_Y, 0, 0, 0, V.E.ROTATION]
M190
G90
#CONTOUR MODE[DEV PATH_DEV=0.008 RELEVANT_PATH=0.004]
G00 X2.73483 Y-9.28689
T11
(PartName=P01-00024-01 CutLength=30.996 MarkLength=0.000 Weigth=5.2 Quantity=1)
G41
N1 M07
G261
G01 X2.46967 Y-9.55206
G03 X3.00000 Y-9.77173 I0.53033 J0.53033
G03 X3.75000 Y-9.02173 I0.00000 J0.75000
G03 X3.00000 Y-8.27173 I-0.75000 J0.00000
G03 X2.25000 Y-9.02173 I0.00000 J-0.75000
G03 X2.46967 Y-9.55206 I0.75000 J0.00000
G260
M08
G40
G00 X5.73861 Y-9.15196
G41
N2 M07
G261
G01 X5.00000 Y-9.02173
G02 X3.00000 Y-11.02173 I-2.00000 J0.00000
G02 X1.00000 Y-9.02173 I0.00000 J2.00000
G01 X1.00000 Y-1.02173
G01 X5.00000 Y-1.02173
G01 X5.00000 Y-9.02173
G260
M08
G40
G00 X6.12180 Y-23.50039
(PartName=P01-00035-01 CutLength=77.053 MarkLength=0.000 Weigth=14.1 Quantity=1)
G41
N3 M07
G261
G01 X6.41149 Y-23.73852
G01 X7.11346 Y-22.88454
G03 X7.01600 Y-22.72314 I-0.07726 J0.06347
G01 X6.08566 Y-22.91459
G02 X5.96561 Y-22.81804 I-0.02010 J0.09793
G01 X5.94560 Y-21.43340
G03 X5.75161 Y-21.40074 I-0.09998 J-0.00143
G01 X5.13672 Y-23.09672
G02 X5.06620 Y-23.15984 I-0.09397 J0.03403
G01 X3.94138 Y-23.43092
G03 X3.88400 Y-23.58704 I0.02343 J-0.09721
G01 X4.58421 Y-24.54753
G02 X4.59781 Y-24.63954 I-0.08083 J-0.05895
G01 X4.00603 Y-26.32827
G03 X4.17670 Y-26.42594 I0.09437 J-0.03305
G01 X5.07340 Y-25.36711
G02 X5.22861 Y-25.37024 I0.07633 J-0.06466
G01 X5.80977 Y-26.11506
G03 X5.98861 Y-26.05354 I0.07884 J0.06152
G01 X5.98861 Y-24.28874
G02 X6.01141 Y-24.22524 I0.10002 J-0.00007
G01 X6.41149 Y-23.73852
G01 X6.44324 Y-23.69989
G03 X6.42949 Y-23.55914 I-0.07725 J0.06350
G260
M08
G40
G00 X1.00000 Y-32.88810
G41
N4 M07
G261
G01 X1.73861 Y-33.01834
G01 X1.73861 Y-14.67014
G02 X1.93200 Y-13.81194 I2.00017 J0.00015
G01 X2.38375 Y-12.86113
G02 X4.19031 Y-11.71924 I1.80656 J-0.85811
G01 X4.73861 Y-11.71924
G01 X4.73861 Y-12.21924
G01 X4.23861 Y-12.21924
G01 X4.23861 Y-17.84424
G01 X8.23861 Y-17.84424
G01 X8.23861 Y-29.84424
G01 X4.23861 Y-29.84424
G01 X4.23861 Y-35.46924
G01 X4.73861 Y-35.46924
G01 X4.73861 Y-35.96924
G01 X4.19031 Y-35.96924
G02 X2.38370 Y-34.82734 I-0.00001 J2.00004
G01 X1.93205 Y-33.87645
G02 X1.73861 Y-33.01834 I1.80656 J0.85811
G260
M08
G40
G00 X5.89525 Y-48.81677
(PartName=P01-00035-01 CutLength=77.053 MarkLength=0.000 Weigth=14.1 Quantity=1)
G41
N5 M07
G261
G01 X6.18494 Y-49.05489
G01 X7.11346 Y-47.92531
G03 X7.01600 Y-47.76391 I-0.07726 J0.06347
G01 X6.08566 Y-47.95536
G02 X5.96561 Y-47.85881 I-0.02010 J0.09793
G01 X5.94560 Y-46.47417
G03 X5.75161 Y-46.44151 I-0.09999 J-0.00143
G01 X5.13672 Y-48.13749
G02 X5.06620 Y-48.20061 I-0.09397 J0.03403
G01 X3.94138 Y-48.47169
G03 X3.88400 Y-48.62781 I0.02343 J-0.09721
G01 X4.58421 Y-49.58830
G02 X4.59781 Y-49.68031 I-0.08083 J-0.05895
G01 X4.00603 Y-51.36904
G03 X4.17670 Y-51.46671 I0.09437 J-0.03305
G01 X5.07339 Y-50.40788
G02 X5.22861 Y-50.41101 I0.07634 J-0.06466
G01 X5.80977 Y-51.15583
G03 X5.98861 Y-51.09431 I0.07884 J0.06152
G01 X5.98861 Y-49.32951
G02 X6.01141 Y-49.26601 I0.10002 J-0.00007
G01 X6.18494 Y-49.05489
G01 X6.21669 Y-49.01627
G03 X6.20294 Y-48.87552 I-0.07725 J0.06350
G260
M08
G40
G00 X5.48861 Y-61.01001
G41
N6 M07
G261
G01 X4.73861 Y-61.01001
G01 X4.19031 Y-61.01001
G02 X2.38370 Y-59.86811 I-0.00001 J2.00004
G01 X1.93205 Y-58.91722
G02 X1.73861 Y-58.05911 I1.80656 J0.85811
G01 X1.73861 Y-39.71091
G02 X1.93200 Y-38.85271 I2.00017 J0.00015
G01 X2.38375 Y-37.90189
G02 X4.19031 Y-36.76001 I1.80656 J-0.85811
G01 X4.73861 Y-36.76001
G01 X4.73861 Y-37.26001
G01 X4.23861 Y-37.26001
G01 X4.23861 Y-42.88501
G01 X8.23861 Y-42.88501
G01 X8.23861 Y-54.88501
G01 X4.23861 Y-54.88501
G01 X4.23861 Y-60.51001
G01 X4.73861 Y-60.51001
G01 X4.73861 Y-61.01001
G03 X4.81861 Y-61.09001 I0.08000 J0.00000
G260
M08
G40
G00 X4.77319 Y-73.80013
(PartName=P01-00036-01 CutLength=30.000 MarkLength=0.000 Weigth=5.1 Quantity=1)
G41
N7 M07
G261
G01 X4.02319 Y-73.80013
G01 X1.02319 Y-73.80013
G01 X1.02319 Y-61.80013
G01 X4.02319 Y-61.80013
G01 X4.02319 Y-73.80013
G03 X4.10319 Y-73.88013 I0.08000 J0.00000
G260
M08
G40
G00 X3.74996 Y-76.38278
(PartName=P01-00032-01 CutLength=30.351 MarkLength=0.000 Weigth=4.1 Quantity=1)
G41
N8 M07
G261
G01 X3.48480 Y-76.11762
G03 X3.26513 Y-76.64795 I0.53033 J-0.53033
G03 X4.01513 Y-77.39795 I0.75000 J0.00000
G03 X4.76513 Y-76.64795 I0.00000 J0.75000
G03 X4.01513 Y-75.89795 I-0.75000 J0.00000
G03 X3.48480 Y-76.11762 I-0.00000 J-0.75000
G260
M08
G40
G00 X1.01513 Y-85.39795
G41
N9 M07
G261
G01 X1.01513 Y-84.64795
G01 X1.01513 Y-74.64795
G01 X4.01512 Y-74.64795
G02 X5.67133 Y-77.76905 I-0.00002 J-1.99999
G01 X1.01512 Y-84.64795
G03 X1.03867 Y-84.77015 I0.07288 J-0.04933
G260
M08
G40
G00 X3.28227 Y-87.74881
(PartName=P01-00032-01 CutLength=30.351 MarkLength=0.000 Weigth=4.1 Quantity=1)
G41
N10 M07
G261
G01 X3.54743 Y-88.01397
G03 X3.76710 Y-87.48364 I-0.53033 J0.53033
G03 X3.01710 Y-86.73364 I-0.75000 J0.00000
G03 X2.26710 Y-87.48364 I0.00000 J-0.75000
G03 X3.01710 Y-88.23364 I0.75000 J-0.00000
G03 X3.54743 Y-88.01397 I-0.00000 J0.75000
G260
M08
G40
G00 X6.01710 Y-78.73364
G41
N11 M07
G261
G01 X6.01710 Y-79.48364
G01 X6.01710 Y-89.48364
G01 X3.01710 Y-89.48364
G02 X1.36090 Y-86.36254 I0.00003 J1.99999
G01 X6.01710 Y-79.48364
G03 X5.99356 Y-79.36144 I-0.07288 J0.04933
G260
M08
G40
G00 X7.52706 Y-63.51267
(PartName=P01-00032-01 CutLength=30.351 MarkLength=0.000 Weigth=4.1 Quantity=1)
G41
N12 M07
G261
G01 X7.26189 Y-63.24750
G03 X7.04222 Y-63.77783 I0.53033 J-0.53033
G03 X7.79222 Y-64.52783 I0.75000 J0.00000
G03 X8.54222 Y-63.77783 I0.00000 J0.75000
G03 X7.79222 Y-63.02783 I-0.75000 J0.00000
G03 X7.26189 Y-63.24750 I-0.00000 J-0.75000
G260
M08
G40
G00 X4.79222 Y-72.52783
G41
N13 M07
G261
G01 X4.79222 Y-71.77783
G01 X4.79222 Y-61.77783
G01 X7.79223 Y-61.77783
G02 X9.44843 Y-64.89893 I-0.00003 J-1.99999
G01 X4.79222 Y-71.77783
G03 X4.81577 Y-71.90004 I0.07288 J-0.04933
G260
M08
G40
G00 X8.27315 Y-32.36325
(PartName=P01-00032-01 CutLength=30.351 MarkLength=0.000 Weigth=4.1 Quantity=1)
G41
N14 M07
G261
G01 X8.00799 Y-32.09809
G03 X7.78832 Y-32.62842 I0.53033 J-0.53033
G03 X8.53832 Y-33.37842 I0.75000 J0.00000
G03 X9.28832 Y-32.62842 I0.00000 J0.75000
G03 X8.53832 Y-31.87842 I-0.75000 J0.00000
G03 X8.00799 Y-32.09809 I-0.00000 J-0.75000
G260
M08
G40
G00 X5.53832 Y-41.37842
G41
N15 M07
G261
G01 X5.53832 Y-40.62842
G01 X5.53832 Y-30.62842
G01 X8.53832 Y-30.62842
G02 X10.19452 Y-33.74952 I-0.00002 J-1.99999
G01 X5.53832 Y-40.62842
G03 X5.56187 Y-40.75062 I0.07288 J-0.04933
G260
M08
G40
G00 X6.74270 Y-13.83247
(PartName=P01-00031-01 CutLength=26.370 MarkLength=0.000 Weigth=3.4 Quantity=1)
G41
N16 M07
G261
G01 X7.00786 Y-14.09764
G03 X7.15431 Y-13.74409 I-0.35355 J0.35355
G03 X6.65431 Y-13.24409 I-0.50000 J0.00000
G03 X6.15431 Y-13.74409 I0.00000 J-0.50000
G03 X6.65431 Y-14.24409 I0.50000 J0.00000
G03 X7.00786 Y-14.09764 I-0.00000 J0.50000
G260
M08
G40
G00 X9.65431 Y-5.66309
G41
N17 M07
G261
G01 X9.65431 Y-6.41309
G01 X9.65431 Y-15.36909
G01 X6.65431 Y-15.36909
G02 X5.30861 Y-12.83319 I0.00001 J1.62501
G01 X9.65431 Y-6.41308
G03 X9.63076 Y-6.29088 I-0.07287 J0.04933
G260
M08
G40
G00 X7.25564 Y-73.47334
(PartName=P01-00031-01 CutLength=26.370 MarkLength=0.000 Weigth=3.4 Quantity=1)
G41
N18 M07
G261
G01 X7.52080 Y-73.73851
G03 X7.66725 Y-73.38496 I-0.35355 J0.35355
G03 X7.16725 Y-72.88496 I-0.50000 J0.00000
G03 X6.66725 Y-73.38496 I0.00000 J-0.50000
G03 X7.16725 Y-73.88496 I0.50000 J0.00000
G03 X7.52080 Y-73.73851 I0.00000 J0.50000
G260
M08
G40
G00 X10.91725 Y-75.00996
G41
N19 M07
G261
G01 X10.16725 Y-75.00996
G01 X7.16725 Y-75.00996
G02 X5.82155 Y-72.47406 I0.00000 J1.62501
G01 X10.16725 Y-66.05396
G01 X10.16725 Y-75.00996
G03 X10.24725 Y-75.08996 I0.08000 J0.00000
G260
M08
G40
G00 X9.70896 Y-77.36845
(PartName=P01-00031-01 CutLength=26.370 MarkLength=0.000 Weigth=3.4 Quantity=1)
G41
N20 M07
G261
G01 X9.44380 Y-77.10329
G03 X9.29735 Y-77.45684 I0.35355 J-0.35355
G03 X9.79735 Y-77.95684 I0.50000 J0.00000
G03 X10.29735 Y-77.45684 I0.00000 J0.50000
G03 X9.79735 Y-76.95684 I-0.50000 J0.00000
G03 X9.44380 Y-77.10329 I-0.00000 J-0.50000
G260
M08
G40
G00 X6.79735 Y-85.53784
G41
N21 M07
G261
G01 X6.79735 Y-84.78784
G01 X6.79735 Y-75.83184
G01 X9.79736 Y-75.83184
G02 X11.14305 Y-78.36774 I-0.00001 J-1.62501
G01 X6.79735 Y-84.78784
G03 X6.82090 Y-84.91004 I0.07287 J-0.04933
G260
M08
G40
G00 X7.55250 Y-56.90861
(PartName=P01-00029-01 CutLength=16.827 MarkLength=0.000 Weigth=1.5 Quantity=1)
G41
N22 M07
G261
G01 X7.40335 Y-57.25267
G03 X7.79195 Y-57.25903 I0.20198 J0.46590
G03 X8.07758 Y-56.60014 I-0.18662 J0.47226
G03 X7.41870 Y-56.31450 I-0.47226 J-0.18662
G03 X7.13306 Y-56.97339 I0.18662 J-0.47226
G03 X7.40335 Y-57.25267 I0.47226 J0.18662
G260
M08
G40
G00 X7.03160 Y-60.77685
G41
N23 M07
G261
G01 X6.75596 Y-60.07934
G01 X5.01025 Y-55.66176
G01 X7.60532 Y-55.66176
G02 X8.72921 Y-56.83746 I0.00003 J-1.12500
G01 X8.62329 Y-59.18258
G02 X8.46542 Y-59.40381 I-0.24975 J0.01128
G01 X6.75596 Y-60.07934
G03 X6.71096 Y-60.18315 I0.02940 J-0.07440
G260
M08
G40
G00 X11.29202 Y-37.89450
(PartName=P01-00024-01 CutLength=30.996 MarkLength=0.000 Weigth=5.2 Quantity=1)
G41
N24 M07
G261
G01 X11.55718 Y-37.62934
G03 X11.02685 Y-37.40967 I-0.53033 J-0.53033
G03 X10.27685 Y-38.15967 I0.00000 J-0.75000
G03 X11.02685 Y-38.90967 I0.75000 J0.00000
G03 X11.77685 Y-38.15967 I0.00000 J0.75000
G03 X11.55718 Y-37.62934 I-0.75000 J0.00000
G260
M08
G40
G00 X13.77685 Y-46.15967
G41
N25 M07
G261
G01 X13.02685 Y-46.15967
G01 X9.02685 Y-46.15967
G01 X9.02685 Y-38.15967
G02 X11.02685 Y-36.15967 I2.00000 J0.00000
G02 X13.02685 Y-38.15967 I0.00000 J-2.00000
G01 X13.02685 Y-46.15967
G03 X13.10685 Y-46.23967 I0.08000 J0.00000
G260
M08
G40
G00 X8.29859 Y-2.25724
(PartName=P01-00029-01 CutLength=16.827 MarkLength=0.000 Weigth=1.5 Quantity=1)
G41
N26 M07
G261
G01 X8.14944 Y-2.60130
G03 X8.53804 Y-2.60766 I0.20198 J0.46590
G03 X8.82368 Y-1.94877 I-0.18662 J0.47226
G03 X8.16479 Y-1.66313 I-0.47226 J-0.18662
G03 X7.87915 Y-2.32202 I0.18662 J-0.47226
G03 X8.14944 Y-2.60130 I0.47226 J0.18662
G260
M08
G40
G00 X7.77769 Y-6.12549
G41
N27 M07
G261
G01 X7.50205 Y-5.42798
G01 X5.75635 Y-1.01039
G01 X8.35142 Y-1.01039
G02 X9.47530 Y-2.18610 I0.00003 J-1.12500
G01 X9.36938 Y-4.53121
G02 X9.21152 Y-4.75244 I-0.24975 J0.01128
G01 X7.50205 Y-5.42798
G03 X7.45705 Y-5.53178 I0.02940 J-0.07440
G260
M08
G40
G00 X10.75534 Y-24.44192
(PartName=P01-00024-01 CutLength=30.996 MarkLength=0.000 Weigth=5.2 Quantity=1)
G41
N28 M07
G261
G01 X10.49018 Y-24.70709
G03 X11.02051 Y-24.92676 I0.53033 J0.53033
G03 X11.77051 Y-24.17676 I0.00000 J0.75000
G03 X11.02051 Y-23.42676 I-0.75000 J0.00000
G03 X10.27051 Y-24.17676 I-0.00000 J-0.75000
G03 X10.49018 Y-24.70709 I0.75000 J-0.00000
G260
M08
G40
G00 X13.75911 Y-24.30699
G41
N29 M07
G261
G01 X13.02051 Y-24.17676
G02 X11.02051 Y-26.17676 I-2.00000 J0.00000
G02 X9.02051 Y-24.17676 I0.00000 J2.00000
G01 X9.02051 Y-16.17676
G01 X13.02051 Y-16.17676
G01 X13.02051 Y-24.17676
G260
M08
G40
G00 X10.84861 Y-55.21829
(PartName=P01-00024-01 CutLength=30.996 MarkLength=0.000 Weigth=5.2 Quantity=1)
G41
N30 M07
G261
G01 X10.58344 Y-55.48346
G03 X11.11377 Y-55.70313 I0.53033 J0.53033
G03 X11.86377 Y-54.95313 I0.00000 J0.75000
G03 X11.11377 Y-54.20313 I-0.75000 J0.00000
G03 X10.36377 Y-54.95313 I-0.00000 J-0.75000
G03 X10.58344 Y-55.48346 I0.75000 J0.00000
G260
M08
G40
G00 X13.85237 Y-53.60330
G41
N31 M07
G261
G01 X13.11377 Y-53.47307
G01 X13.11377 Y-54.95313
G02 X11.63226 Y-56.88475 I-2.00000 J0.00000
G02 X9.51843 Y-56.15932 I-0.51849 J1.93162
G02 X9.11377 Y-54.95313 I1.59534 J1.20619
G01 X9.11377 Y-46.95313
G01 X13.11377 Y-46.95313
G01 X13.11377 Y-53.47307
G01 X13.11377 Y-53.57307
G03 X13.21377 Y-53.67307 I0.10000 J0.00000
G260
M08
G40
G00 X11.79591 Y-61.01212
(PartName=P01-00029-01 CutLength=16.827 MarkLength=0.000 Weigth=1.5 Quantity=1)
G41
N32 M07
G261
G01 X11.64675 Y-61.35618
G03 X12.03535 Y-61.36254 I0.20198 J0.46590
G03 X12.32099 Y-60.70365 I-0.18662 J0.47226
G03 X11.66210 Y-60.41802 I-0.47226 J-0.18662
G03 X11.37647 Y-61.07690 I0.18662 J-0.47226
G03 X11.64675 Y-61.35618 I0.47226 J0.18662
G260
M08
G40
G00 X11.27500 Y-64.88037
G41
N33 M07
G261
G01 X10.99937 Y-64.18286
G01 X9.25366 Y-59.76528
G01 X11.84873 Y-59.76528
G02 X12.97261 Y-60.94098 I0.00003 J-1.12500
G01 X12.86670 Y-63.28610
G02 X12.70883 Y-63.50733 I-0.24975 J0.01128
G01 X10.99937 Y-64.18286
G03 X10.95437 Y-64.28666 I0.02940 J-0.07440
G260
M08
G40
G00 X11.93580 Y-28.18400
(PartName=P01-00029-01 CutLength=16.827 MarkLength=0.000 Weigth=1.5 Quantity=1)
G41
N34 M07
G261
G01 X11.78665 Y-28.52806
G03 X12.17525 Y-28.53442 I0.20198 J0.46590
G03 X12.46088 Y-27.87553 I-0.18662 J0.47226
G03 X11.80200 Y-27.58989 I-0.47226 J-0.18662
G03 X11.51636 Y-28.24878 I0.18662 J-0.47226
G03 X11.78665 Y-28.52806 I0.47226 J0.18662
G260
M08
G40
G00 X11.41490 Y-32.05225
G41
N35 M07
G261
G01 X11.13926 Y-31.35473
G01 X9.39356 Y-26.93715
G01 X11.98862 Y-26.93715
G02 X13.11251 Y-28.11285 I0.00003 J-1.12500
G01 X13.00659 Y-30.45797
G02 X12.84872 Y-30.67920 I-0.24975 J0.01128
G01 X11.13926 Y-31.35473
G03 X11.09426 Y-31.45854 I0.02940 J-0.07440
G260
M08
G40
G00 X15.96460 Y-7.16463
(PartName=P01-00030-01 CutLength=23.770 MarkLength=0.000 Weigth=4.0 Quantity=1)
G41
N36 M07
G261
G01 X15.21460 Y-7.16463
G01 X10.46460 Y-7.16463
G01 X10.46460 Y-1.03963
G01 X11.33960 Y-1.03963
G01 X11.33960 Y-1.54463
G01 X11.84460 Y-1.54463
G01 X11.84460 Y-1.03963
G01 X13.83460 Y-1.03963
G01 X13.83460 Y-1.54463
G01 X14.33960 Y-1.54463
G01 X14.33960 Y-1.03963
G01 X15.21460 Y-1.03963
G01 X15.21460 Y-7.16463
G03 X15.29460 Y-7.24463 I0.08000 J-0.00000
G260
M08
G40
G00 X13.30664 Y-11.08162
(PartName=P01-00034-01 CutLength=10.500 MarkLength=0.000 Weigth=0.9 Quantity=1)
G41
N37 M07
G261
G01 X12.55664 Y-11.08162
G01 X10.43164 Y-11.08162
G01 X10.43164 Y-7.95662
G01 X12.55664 Y-7.95662
G01 X12.55664 Y-11.08162
G03 X12.63664 Y-11.16162 I0.08000 J-0.00000
G260
M08
G40
G00 X13.31987 Y-67.15657
(PartName=P01-00033-01 CutLength=17.357 MarkLength=0.000 Weigth=1.5 Quantity=1)
G41
N38 M07
G261
G01 X13.69487 Y-67.15657
G03 X13.47154 Y-66.61741 I-0.76250 J0.00000
G03 X12.39321 Y-66.61741 I-0.53917 J-0.53917
G03 X12.39321 Y-67.69574 I0.53917 J-0.53917
G03 X13.47154 Y-67.69574 I0.53917 J0.53917
G03 X13.69487 Y-67.15657 I-0.53917 J0.53917
G260
M08
G40
G00 X13.06261 Y-64.41797
G41
N39 M07
G261
G01 X12.93237 Y-65.15657
G02 X14.34659 Y-65.74236 I-0.00000 J-2.00000
G02 X14.34659 Y-68.57079 I-1.41421 J-1.41421
G02 X11.51816 Y-68.57079 I-1.41421 J1.41421
G02 X11.51816 Y-65.74236 I1.41421 J1.41421
G02 X12.93237 Y-65.15657 I1.41421 J-1.41421
G260
M08
G40
G00 X12.55122 Y-71.93424
(PartName=P01-00033-01 CutLength=17.357 MarkLength=0.000 Weigth=1.5 Quantity=1)
G41
N40 M07
G261
G01 X12.17622 Y-71.93424
G03 X12.39955 Y-72.47341 I0.76250 J0.00000
G03 X13.47789 Y-72.47341 I0.53917 J0.53917
G03 X13.47789 Y-71.39508 I-0.53917 J0.53917
G03 X12.39955 Y-71.39508 I-0.53917 J-0.53917
G03 X12.17622 Y-71.93424 I0.53917 J-0.53917
G260
M08
G40
G00 X12.80848 Y-74.67285
G41
N41 M07
G261
G01 X12.93872 Y-73.93424
G02 X11.52451 Y-73.34846 I-0.00000 J2.00000
G02 X11.52451 Y-70.52003 I1.41421 J1.41421
G02 X14.35293 Y-70.52003 I1.41421 J-1.41421
G02 X14.35293 Y-73.34846 I-1.41421 J-1.41421
G02 X12.93872 Y-73.93424 I-1.41421 J1.41421
G260
M08
G40
G00 X13.78618 Y-80.07332
(PartName=P01-00033-01 CutLength=17.357 MarkLength=0.000 Weigth=1.5 Quantity=1)
G41
N42 M07
G261
G01 X14.16118 Y-80.07332
G03 X13.93785 Y-79.53415 I-0.76250 J0.00000
G03 X12.85951 Y-79.53415 I-0.53917 J-0.53917
G03 X12.85951 Y-80.61249 I0.53917 J-0.53917
G03 X13.93785 Y-80.61249 I0.53917 J0.53917
G03 X14.16118 Y-80.07332 I-0.53917 J0.53917
G260
M08
G40
G00 X13.52892 Y-77.33472
G41
N43 M07
G261
G01 X13.39868 Y-78.07332
G02 X14.81289 Y-78.65911 I-0.00000 J-2.00000
G02 X14.81289 Y-81.48754 I-1.41421 J-1.41421
G02 X11.98447 Y-81.48754 I-1.41421 J1.41421
G02 X11.98447 Y-78.65911 I1.41421 J1.41421
G02 X13.39868 Y-78.07332 I1.41421 J-1.41421
G260
M08
G40
G00 X9.39356 Y-82.40422
(PartName=P01-00037-01 CutLength=18.963 MarkLength=0.000 Weigth=1.1 Quantity=1)
G41
N44 M07
G261
G01 X10.14356 Y-82.40422
G01 X10.61856 Y-82.40422
G02 X10.81856 Y-82.60422 I-0.00000 J-0.20000
G01 X10.81856 Y-85.20422
G03 X11.01856 Y-85.40422 I0.20000 J0.00000
G03 X11.21856 Y-85.20422 I-0.00000 J0.20000
G01 X11.21856 Y-82.60422
G02 X11.41856 Y-82.40422 I0.20000 J0.00000
G01 X11.69356 Y-82.40422
G02 X11.89356 Y-82.60422 I-0.00000 J-0.20000
G01 X11.89356 Y-87.15422
G02 X11.64356 Y-87.40422 I-0.25000 J0.00000
G01 X10.14356 Y-87.40422
G01 X10.14356 Y-82.40422
G03 X10.06356 Y-82.32422 I-0.08000 J0.00000
G260
M08
G40
G00 X13.87944 Y-33.95540
(PartName=P01-00033-01 CutLength=17.357 MarkLength=0.000 Weigth=1.5 Quantity=1)
G41
N45 M07
G261
G01 X14.25444 Y-33.95540
G03 X14.03111 Y-33.41623 I-0.76250 J0.00000
G03 X12.95278 Y-33.41623 I-0.53917 J-0.53917
G03 X12.95278 Y-34.49457 I0.53917 J-0.53917
G03 X14.03111 Y-34.49457 I0.53917 J0.53917
G03 X14.25444 Y-33.95540 I-0.53917 J0.53917
G260
M08
G40
G00 X13.62218 Y-31.21680
G41
N46 M07
G261
G01 X13.49194 Y-31.95540
G02 X14.90616 Y-32.54119 I0.00000 J-2.00000
G02 X14.90616 Y-35.36962 I-1.41421 J-1.41421
G02 X12.07773 Y-35.36962 I-1.41421 J1.41421
G02 X12.07773 Y-32.54119 I1.41421 J1.41421
G02 X13.49194 Y-31.95540 I1.41421 J-1.41421
G260
M08
G40
G00 X6.46291 Y-93.38472
(PartName=P01-00031-01 CutLength=26.370 MarkLength=0.000 Weigth=3.4 Quantity=1)
G41
N47 M07
G261
G01 X6.72808 Y-93.64988
G03 X6.87452 Y-93.29633 I-0.35355 J0.35355
G03 X6.37452 Y-92.79633 I-0.50000 J0.00000
G03 X5.87452 Y-93.29633 I0.00000 J-0.50000
G03 X6.37452 Y-93.79633 I0.50000 J0.00000
G03 X6.72808 Y-93.64988 I0.00000 J0.50000
G260
M08
G40
G00 X9.37452 Y-85.21533
G41
N48 M07
G261
G01 X9.37452 Y-85.96533
G01 X9.37452 Y-94.92133
G01 X6.37452 Y-94.92133
G02 X5.02882 Y-92.38543 I0.00000 J1.62501
G01 X9.37452 Y-85.96533
G03 X9.35098 Y-85.84313 I-0.07287 J0.04933
G260
M08
G40
G00 X3.88721 Y-93.38509
(PartName=P01-00034-01 CutLength=10.500 MarkLength=0.000 Weigth=0.9 Quantity=1)
G41
N49 M07
G261
G01 X3.13721 Y-93.38509
G01 X1.01221 Y-93.38509
G01 X1.01221 Y-90.26009
G01 X3.13721 Y-90.26009
G01 X3.13721 Y-93.38509
G03 X3.21721 Y-93.46509 I0.08000 J0.00000
G260
M08
G40
G00 X15.68481 Y-94.36433
(PartName=P01-00030-01 CutLength=23.770 MarkLength=0.000 Weigth=4.0 Quantity=1)
G41
N50 M07
G261
G01 X14.93481 Y-94.36433
G01 X10.18481 Y-94.36433
G01 X10.18481 Y-88.23933
G01 X11.05981 Y-88.23933
G01 X11.05981 Y-88.74433
G01 X11.56481 Y-88.74433
G01 X11.56481 Y-88.23933
G01 X13.55481 Y-88.23933
G01 X13.55481 Y-88.74433
G01 X14.05981 Y-88.74433
G01 X14.05981 Y-88.23933
G01 X14.93481 Y-88.23933
G01 X14.93481 Y-94.36433
G03 X15.01481 Y-94.44433 I0.08000 J0.00000
G260
M08
G40
M128
M125
G91
G0 X0 Y0
M64
T0
M65
#CS OFF
M30
