(PP_NAME=PP_Din)
(PP_VERSION=	4.0)
(PP_INI_NAME=GC_US_PLASMA_4.2.ini)
(PP_INI_VERSION=2013-04-04)
(%%INFO MACHINE=HPRXD MS130)
(%%INFO Material=MS Thickness=0.188 PlateLength=240.000 PlateWidth=96.000)
(%%INFO PartName=P01-00047-01=4pcs=33.2lbs)
(%%INFO PartName=P01-00048-01=2pcs=53.5lbs)
(%%INFO PartName=P01-00049-01=4pcs=15.0lbs)
(%%INFO PartName=P01-00050-01=4pcs=5.0lbs)
(%%INFO PartName=P01-00051-01=4pcs=1.0lbs)
(%%INFO PartName=P01-00052-01=2pcs=96.7lbs)
(%%INFO PartName=P01-00053-01=4pcs=0.2lbs)
(%%INFO PartName=P01-00055-01=4pcs=0.5lbs)
(%%INFO PartName=P01-00056-01=2pcs=3.2lbs)
(%%INFO PartName=P01-00057-01=2pcs=21.9lbs)
(%%INFO PartName=P01-00058-01=2pcs=20.6lbs)
(%%INFO PartName=P01-00059-01=4pcs=1.4lbs)
(%%INFO PartName=P01-00060-01=2pcs=7.2lbs)
(%%INFO PartName=P01-00061-01=2pcs=26.4lbs)
(%%INFO PartName=P01-00062-01=2pcs=26.3lbs)
(%%INFO TotalCutLength=5393.295)
(%%INFO TotalPierceCount=124)
G70
G162
G141
G237
#CS ON [V.E.START_X, V.E.START_Y, 0, 0, 0, V.E.ROTATION]
M190
G90
#CONTOUR MODE[DEV PATH_DEV=0.008 RELEVANT_PATH=0.004]
(PlanHeaderCommand)
G00 X4.20614 Y-28.53988
T21
(PartName=P01-00060-01 CutLength=59.227 MarkLength=0.000 Weigth=7.2 Quantity=1)
G41
N1 M07
G261
G01 X4.20614 Y-28.40788
G01 X4.20614 Y-4.40788
G01 X9.81984 Y-4.40788
G01 X9.81984 Y-28.40788
G01 X4.20614 Y-28.40788
G01 X4.02614 Y-28.40788
G260
M08
G40
G00 X13.34126 Y-27.85716
(PartName=P01-00053-01 CutLength=48.375 MarkLength=0.000 Weigth=0.2 Quantity=1)
G41
N2 M07
G261
G01 X13.34126 Y-27.72516
G01 X13.34126 Y-3.72516
G01 X13.52876 Y-3.72516
G01 X13.52876 Y-27.72516
G01 X13.34126 Y-27.72516
G01 X13.16126 Y-27.72516
G260
M08
G40
G00 X10.15607 Y-28.79809
(PartName=P01-00056-01 CutLength=52.974 MarkLength=0.000 Weigth=3.2 Quantity=1)
G41
N3 M07
G261
G01 X10.15607 Y-28.66609
G01 X10.15607 Y-4.66609
G01 X12.64307 Y-4.66609
G01 X12.64307 Y-28.66609
G01 X10.15607 Y-28.66609
G01 X9.97607 Y-28.66609
G260
M08
G40
G00 X14.03713 Y-28.16103
(PartName=P01-00053-01 CutLength=48.375 MarkLength=0.000 Weigth=0.2 Quantity=1)
G41
N4 M07
G261
G01 X14.03713 Y-28.02903
G01 X14.03713 Y-4.02903
G01 X14.22463 Y-4.02903
G01 X14.22463 Y-28.02903
G01 X14.03713 Y-28.02903
G01 X13.85713 Y-28.02903
G260
M08
G40
G00 X16.38682 Y-25.95376
(PartName=P01-00051-01 CutLength=41.250 MarkLength=0.000 Weigth=1.0 Quantity=1)
G41
N5 M07
G261
G01 X16.38682 Y-25.82176
G01 X16.38682 Y-6.19676
G01 X17.38682 Y-6.19676
G01 X17.38682 Y-25.82176
G01 X16.38682 Y-25.82176
G01 X16.20682 Y-25.82176
G260
M08
G40
G00 X14.80699 Y-25.64159
(PartName=P01-00051-01 CutLength=41.250 MarkLength=0.000 Weigth=1.0 Quantity=1)
G41
N6 M07
G261
G01 X14.80699 Y-25.50959
G01 X14.80699 Y-5.88459
G01 X15.80699 Y-5.88459
G01 X15.80699 Y-25.50959
G01 X14.80699 Y-25.50959
G01 X14.62699 Y-25.50959
G260
M08
G40
G00 X4.52758 Y-85.14511
(PartName=P01-00060-01 CutLength=59.227 MarkLength=0.000 Weigth=7.2 Quantity=1)
G41
N7 M07
G261
G01 X4.52758 Y-85.01311
G01 X4.52758 Y-61.01311
G01 X10.14128 Y-61.01311
G01 X10.14128 Y-85.01311
G01 X4.52758 Y-85.01311
G01 X4.34758 Y-85.01311
G260
M08
G40
G00 X13.66271 Y-84.46239
(PartName=P01-00053-01 CutLength=48.375 MarkLength=0.000 Weigth=0.2 Quantity=1)
G41
N8 M07
G261
G01 X13.66271 Y-84.33039
G01 X13.66271 Y-60.33039
G01 X13.85021 Y-60.33039
G01 X13.85021 Y-84.33039
G01 X13.66271 Y-84.33039
G01 X13.48271 Y-84.33039
G260
M08
G40
G00 X10.47751 Y-85.40333
(PartName=P01-00056-01 CutLength=52.974 MarkLength=0.000 Weigth=3.2 Quantity=1)
G41
N9 M07
G261
G01 X10.47751 Y-85.27133
G01 X10.47751 Y-61.27133
G01 X12.96451 Y-61.27133
G01 X12.96451 Y-85.27133
G01 X10.47751 Y-85.27133
G01 X10.29751 Y-85.27133
G260
M08
G40
G00 X14.35858 Y-84.76626
(PartName=P01-00053-01 CutLength=48.375 MarkLength=0.000 Weigth=0.2 Quantity=1)
G41
N10 M07
G261
G01 X14.35858 Y-84.63426
G01 X14.35858 Y-60.63426
G01 X14.54608 Y-60.63426
G01 X14.54608 Y-84.63426
G01 X14.35858 Y-84.63426
G01 X14.17858 Y-84.63426
G260
M08
G40
G00 X16.70827 Y-82.55900
(PartName=P01-00051-01 CutLength=41.250 MarkLength=0.000 Weigth=1.0 Quantity=1)
G41
N11 M07
G261
G01 X16.70827 Y-82.42700
G01 X16.70827 Y-62.80200
G01 X17.70827 Y-62.80200
G01 X17.70827 Y-82.42700
G01 X16.70827 Y-82.42700
G01 X16.52827 Y-82.42700
G260
M08
G40
G00 X15.12844 Y-82.24682
(PartName=P01-00051-01 CutLength=41.250 MarkLength=0.000 Weigth=1.0 Quantity=1)
G41
N12 M07
G261
G01 X15.12844 Y-82.11482
G01 X15.12844 Y-62.48982
G01 X16.12844 Y-62.48982
G01 X16.12844 Y-82.11482
G01 X15.12844 Y-82.11482
G01 X14.94844 Y-82.11482
G260
M08
G40
G00 X33.62703 Y-9.24919
(PartName=P01-00059-01 CutLength=47.866 MarkLength=0.000 Weigth=1.4 Quantity=1)
G41
N13 M07
G261
G01 X33.54866 Y-9.35541
G03 X25.40943 Y-26.20442 I40.78735 J-30.09351
G01 X25.28671 Y-26.18083
G02 X33.54863 Y-4.11122 I69.04940 J-13.26786
G01 X33.54866 Y-9.35541
G01 X33.54866 Y-9.53541
G260
M08
G40
G00 X29.86987 Y-26.71823
(PartName=P01-00055-01 CutLength=32.913 MarkLength=0.000 Weigth=0.5 Quantity=1)
G41
N14 M07
G261
G01 X29.94210 Y-26.60775
G03 X36.31428 Y-13.76939 I-50.79351 J33.21137
G01 X36.43393 Y-13.80570
G02 X29.94208 Y-28.72339 I-67.28504 J20.40952
G01 X29.94211 Y-26.60775
G01 X29.94211 Y-26.42775
G260
M08
G40
G00 X28.31453 Y-21.92923
(PartName=P01-00059-01 CutLength=47.866 MarkLength=0.000 Weigth=1.4 Quantity=1)
G41
N15 M07
G261
G01 X28.39290 Y-21.82301
G03 X36.53213 Y-4.97400 I-40.78735 J30.09351
G01 X36.65484 Y-4.99759
G02 X28.39293 Y-27.06720 I-69.04940 J13.26786
G01 X28.39290 Y-21.82301
G01 X28.39290 Y-21.64301
G260
M08
G40
G00 X38.50008 Y-15.95329
(PartName=P01-00055-01 CutLength=32.913 MarkLength=0.000 Weigth=0.5 Quantity=1)
G41
N16 M07
G261
G01 X38.42785 Y-16.06377
G03 X32.05567 Y-28.90213 I50.79351 J-33.21137
G01 X31.93602 Y-28.86583
G02 X38.42787 Y-13.94813 I67.28504 J-20.40952
G01 X38.42784 Y-16.06377
G01 X38.42784 Y-16.24377
G260
M08
G40
G00 X33.78234 Y-65.78953
(PartName=P01-00059-01 CutLength=47.866 MarkLength=0.000 Weigth=1.4 Quantity=1)
G41
N17 M07
G261
G01 X33.70397 Y-65.89575
G03 X25.56474 Y-82.74476 I40.78734 J-30.09350
G01 X25.44203 Y-82.72117
G02 X33.70394 Y-60.65156 I69.04940 J-13.26788
G01 X33.70398 Y-65.89575
G01 X33.70398 Y-66.07575
G260
M08
G40
G00 X30.02519 Y-83.25857
(PartName=P01-00055-01 CutLength=32.913 MarkLength=0.000 Weigth=0.5 Quantity=1)
G41
N18 M07
G261
G01 X30.09742 Y-83.14809
G03 X36.46960 Y-70.30973 I-50.79351 J33.21135
G01 X36.58924 Y-70.34604
G02 X30.09740 Y-85.26373 I-67.28502 J20.40952
G01 X30.09742 Y-83.14809
G01 X30.09743 Y-82.96809
G260
M08
G40
G00 X28.46984 Y-78.46957
(PartName=P01-00059-01 CutLength=47.866 MarkLength=0.000 Weigth=1.4 Quantity=1)
G41
N19 M07
G261
G01 X28.54821 Y-78.36335
G03 X36.68744 Y-61.51434 I-40.78735 J30.09351
G01 X36.81016 Y-61.53793
G02 X28.54824 Y-83.60754 I-69.04940 J13.26788
G01 X28.54821 Y-78.36335
G01 X28.54821 Y-78.18335
G260
M08
G40
G00 X38.65540 Y-72.49363
(PartName=P01-00055-01 CutLength=32.913 MarkLength=0.000 Weigth=0.5 Quantity=1)
G41
N20 M07
G261
G01 X38.58316 Y-72.60411
G03 X32.21098 Y-85.44247 I50.79351 J-33.21135
G01 X32.09134 Y-85.40616
G02 X38.58318 Y-70.48847 I67.28502 J-20.40952
G01 X38.58316 Y-72.60411
G01 X38.58316 Y-72.78411
G260
M08
G40
G00 X56.17994 Y-27.77185
(PartName=P01-00050-01 CutLength=85.597 MarkLength=0.000 Weigth=5.0 Quantity=1)
G41
N21 M07
G261
G01 X56.17994 Y-27.63985
G03 X54.67994 Y-29.13985 I0.00000 J-1.50000
G01 X54.67994 Y-41.13985
G03 X56.17994 Y-42.63985 I1.50000 J0.00000
G03 X57.67994 Y-41.13985 I0.00000 J1.50000
G01 X57.67994 Y-29.13985
G03 X56.17994 Y-27.63985 I-1.50000 J-0.00000
G03 X56.07994 Y-27.73985 I0.00000 J-0.10000
G260
M08
G40
G00 X53.77328 Y-45.04569
G41
N22 M07
G261
G01 X53.67994 Y-44.95235
G01 X52.67994 Y-43.95235
G01 X52.67994 Y-39.13985
G01 X52.54244 Y-39.13985
G01 X52.49244 Y-39.08985
G01 X52.49244 Y-38.18985
G01 X52.54244 Y-38.13985
G01 X52.67994 Y-38.13985
G01 X52.67994 Y-32.13985
G01 X52.54244 Y-32.13985
G01 X52.49244 Y-32.08985
G01 X52.49244 Y-31.18985
G01 X52.54244 Y-31.13985
G01 X52.67994 Y-31.13985
G01 X52.67994 Y-26.32735
G01 X53.67994 Y-25.32735
G01 X55.67994 Y-25.32735
G01 X55.67994 Y-25.18985
G01 X55.72994 Y-25.13985
G01 X56.62994 Y-25.13985
G01 X56.67994 Y-25.18985
G01 X56.67994 Y-25.32735
G01 X58.67994 Y-25.32735
G01 X59.67994 Y-26.32735
G01 X59.67994 Y-43.95235
G01 X58.67994 Y-44.95235
G01 X56.67994 Y-44.95235
G01 X56.67994 Y-45.08985
G01 X56.62994 Y-45.13985
G01 X55.72994 Y-45.13985
G01 X55.67994 Y-45.08985
G01 X55.67994 Y-44.95235
G01 X53.67994 Y-44.95235
G01 X53.49994 Y-44.95235
G260
M08
G40
G00 X57.68225 Y-65.60578
(PartName=P01-00050-01 CutLength=85.597 MarkLength=0.000 Weigth=5.0 Quantity=1)
G41
N23 M07
G261
G01 X57.68225 Y-65.73778
G03 X59.18225 Y-64.23778 I0.00000 J1.50000
G01 X59.18225 Y-52.23778
G03 X57.68225 Y-50.73778 I-1.50000 J0.00000
G03 X56.18225 Y-52.23778 I-0.00000 J-1.50000
G01 X56.18225 Y-64.23778
G03 X57.68225 Y-65.73778 I1.50000 J0.00000
G03 X57.78225 Y-65.63778 I0.00000 J0.10000
G260
M08
G40
G00 X55.27559 Y-68.14362
G41
N24 M07
G261
G01 X55.18225 Y-68.05028
G01 X54.18225 Y-67.05028
G01 X54.18225 Y-49.42528
G01 X55.18225 Y-48.42528
G01 X57.18225 Y-48.42528
G01 X57.18225 Y-48.28778
G01 X57.23225 Y-48.23778
G01 X58.13225 Y-48.23778
G01 X58.18225 Y-48.28778
G01 X58.18225 Y-48.42528
G01 X60.18225 Y-48.42528
G01 X61.18225 Y-49.42528
G01 X61.18225 Y-54.23778
G01 X61.31975 Y-54.23778
G01 X61.36975 Y-54.28778
G01 X61.36975 Y-55.18778
G01 X61.31975 Y-55.23778
G01 X61.18225 Y-55.23778
G01 X61.18225 Y-61.23778
G01 X61.31975 Y-61.23778
G01 X61.36975 Y-61.28778
G01 X61.36975 Y-62.18778
G01 X61.31975 Y-62.23778
G01 X61.18225 Y-62.23778
G01 X61.18225 Y-67.05028
G01 X60.18225 Y-68.05028
G01 X58.18225 Y-68.05028
G01 X58.18225 Y-68.18778
G01 X58.13225 Y-68.23778
G01 X57.23225 Y-68.23778
G01 X57.18225 Y-68.18778
G01 X57.18225 Y-68.05028
G01 X55.18225 Y-68.05028
G01 X55.00225 Y-68.05028
G260
M08
G40
G00 X85.82685 Y-27.18615
(PartName=P01-00050-01 CutLength=85.597 MarkLength=0.000 Weigth=5.0 Quantity=1)
G41
N25 M07
G261
G01 X85.82685 Y-27.05415
G03 X84.32685 Y-28.55415 I0.00000 J-1.50000
G01 X84.32685 Y-40.55415
G03 X85.82685 Y-42.05415 I1.50000 J0.00000
G03 X87.32685 Y-40.55415 I0.00000 J1.50000
G01 X87.32685 Y-28.55415
G03 X85.82685 Y-27.05415 I-1.50000 J0.00000
G03 X85.72685 Y-27.15415 I-0.00000 J-0.10000
G260
M08
G40
G00 X83.42019 Y-44.45998
G41
N26 M07
G261
G01 X83.32685 Y-44.36665
G01 X82.32685 Y-43.36665
G01 X82.32685 Y-38.55415
G01 X82.18935 Y-38.55415
G01 X82.13935 Y-38.50415
G01 X82.13935 Y-37.60415
G01 X82.18935 Y-37.55415
G01 X82.32685 Y-37.55415
G01 X82.32685 Y-31.55415
G01 X82.18935 Y-31.55415
G01 X82.13935 Y-31.50415
G01 X82.13935 Y-30.60415
G01 X82.18935 Y-30.55415
G01 X82.32685 Y-30.55415
G01 X82.32685 Y-25.74165
G01 X83.32685 Y-24.74165
G01 X85.32685 Y-24.74165
G01 X85.32685 Y-24.60415
G01 X85.37685 Y-24.55415
G01 X86.27685 Y-24.55415
G01 X86.32685 Y-24.60415
G01 X86.32685 Y-24.74165
G01 X88.32685 Y-24.74165
G01 X89.32685 Y-25.74165
G01 X89.32685 Y-43.36665
G01 X88.32685 Y-44.36665
G01 X86.32685 Y-44.36665
G01 X86.32685 Y-44.50415
G01 X86.27685 Y-44.55415
G01 X85.37685 Y-44.55415
G01 X85.32685 Y-44.50415
G01 X85.32685 Y-44.36665
G01 X83.32685 Y-44.36665
G01 X83.14685 Y-44.36665
G260
M08
G40
G00 X87.03631 Y-65.16650
(PartName=P01-00050-01 CutLength=85.597 MarkLength=0.000 Weigth=5.0 Quantity=1)
G41
N27 M07
G261
G01 X87.03631 Y-65.29850
G03 X88.53631 Y-63.79850 I0.00000 J1.50000
G01 X88.53631 Y-51.79850
G03 X87.03631 Y-50.29850 I-1.50000 J-0.00000
G03 X85.53631 Y-51.79850 I0.00000 J-1.50000
G01 X85.53631 Y-63.79850
G03 X87.03631 Y-65.29850 I1.50000 J0.00000
G03 X87.13631 Y-65.19850 I0.00000 J0.10000
G260
M08
G40
G00 X84.62965 Y-67.70434
G41
N28 M07
G261
G01 X84.53631 Y-67.61100
G01 X83.53631 Y-66.61100
G01 X83.53631 Y-48.98600
G01 X84.53631 Y-47.98600
G01 X86.53631 Y-47.98600
G01 X86.53631 Y-47.84850
G01 X86.58631 Y-47.79850
G01 X87.48631 Y-47.79850
G01 X87.53631 Y-47.84850
G01 X87.53631 Y-47.98600
G01 X89.53631 Y-47.98600
G01 X90.53631 Y-48.98600
G01 X90.53631 Y-53.79850
G01 X90.67381 Y-53.79850
G01 X90.72381 Y-53.84850
G01 X90.72381 Y-54.74850
G01 X90.67381 Y-54.79850
G01 X90.53631 Y-54.79850
G01 X90.53631 Y-60.79850
G01 X90.67381 Y-60.79850
G01 X90.72381 Y-60.84850
G01 X90.72381 Y-61.74850
G01 X90.67381 Y-61.79850
G01 X90.53631 Y-61.79850
G01 X90.53631 Y-66.61100
G01 X89.53631 Y-67.61100
G01 X87.53631 Y-67.61100
G01 X87.53631 Y-67.74850
G01 X87.48631 Y-67.79850
G01 X86.58631 Y-67.79850
G01 X86.53631 Y-67.74850
G01 X86.53631 Y-67.61100
G01 X84.53631 Y-67.61100
G01 X84.35631 Y-67.61100
G260
M08
G40
G00 X0.94661 Y-85.10081
T22
(PartName=P01-00048-01 CutLength=436.662 MarkLength=0.000 Weigth=53.5 Quantity=1)
G41
N29 M07
G261
G01 X0.94661 Y-84.96881
M50
G01 X0.82787 Y-84.96881
G01 X0.82787 Y-86.01881
G01 X1.06537 Y-86.01881
G01 X1.06537 Y-84.96881
G01 X0.94661 Y-84.96881
M06
G03 X0.84661 Y-85.06881 I-0.00000 J-0.10000
G260
M08
G40
M51
G00 X7.74587 Y-56.57586
G41
N30 M07
G261
G01 X7.87787 Y-56.57586
M50
G01 X7.87787 Y-56.45711
G01 X6.82787 Y-56.45711
G01 X6.82787 Y-56.69461
G01 X7.87787 Y-56.69461
G01 X7.87787 Y-56.57586
M06
G03 X7.77787 Y-56.47586 I-0.10000 J0.00000
G260
M08
G40
M51
G00 X0.94661 Y-44.24111
G41
N31 M07
G261
G01 X0.94661 Y-44.10911
M50
G01 X0.82787 Y-44.10911
G01 X0.82787 Y-45.15911
G01 X1.06537 Y-45.15911
G01 X1.06537 Y-44.10911
G01 X0.94661 Y-44.10911
M06
G03 X0.84661 Y-44.20911 I0.00000 J-0.10000
G260
M08
G40
M51
G00 X3.60987 Y-18.83405
T21
G41
N32 M07
G261
G01 X3.47787 Y-18.83405
G01 X3.47787 Y-27.43241
G03 X5.47787 Y-29.43241 I2.00000 J0.00000
G01 X16.22787 Y-29.43241
G03 X18.22787 Y-27.43241 I0.00000 J2.00000
G01 X18.22787 Y-5.27431
G03 X16.22787 Y-3.27431 I-2.00000 J0.00000
G01 X5.47787 Y-3.27431
G03 X3.47787 Y-5.27431 I0.00000 J-2.00000
G01 X3.47787 Y-18.83405
G03 X3.57787 Y-18.93405 I0.10000 J0.00000
G260
M08
G40
G00 X0.94661 Y-4.16731
T22
G41
N33 M07
G261
G01 X0.94661 Y-4.29931
M50
G01 X1.06537 Y-4.29931
G01 X1.06537 Y-3.24931
G01 X0.82787 Y-3.24931
G01 X0.82787 Y-4.29931
G01 X0.94661 Y-4.29931
M06
G03 X1.04661 Y-4.19931 I-0.00000 J0.10000
G260
M08
G40
M51
G00 X20.75911 Y-4.16731
G41
N34 M07
G261
G01 X20.75911 Y-4.29931
M50
G01 X20.87787 Y-4.29931
G01 X20.87787 Y-3.24931
G01 X20.64037 Y-3.24931
G01 X20.64037 Y-4.29931
G01 X20.75911 Y-4.29931
M06
G03 X20.85911 Y-4.19931 I-0.00000 J0.10000
G260
M08
G40
M51
G00 X7.74587 Y-32.69236
G41
N35 M07
G261
G01 X7.87787 Y-32.69236
M50
G01 X7.87787 Y-32.57361
G01 X6.82787 Y-32.57361
G01 X6.82787 Y-32.81111
G01 X7.87787 Y-32.81111
G01 X7.87787 Y-32.69236
M06
G03 X7.77787 Y-32.59236 I-0.10000 J0.00000
G260
M08
G40
M51
G00 X13.95987 Y-32.69236
G41
N36 M07
G261
G01 X13.82787 Y-32.69236
M50
G01 X13.82787 Y-32.81111
G01 X14.87787 Y-32.81111
G01 X14.87787 Y-32.57361
G01 X13.82787 Y-32.57361
G01 X13.82787 Y-32.69236
M06
G03 X13.92787 Y-32.79236 I0.10000 J0.00000
G260
M08
G40
M51
G00 X20.75911 Y-44.24111
G41
N37 M07
G261
G01 X20.75911 Y-44.10911
M50
G01 X20.64037 Y-44.10911
G01 X20.64037 Y-45.15911
G01 X20.87787 Y-45.15911
G01 X20.87787 Y-44.10911
G01 X20.75911 Y-44.10911
M06
G03 X20.65911 Y-44.20911 I0.00000 J-0.10000
G260
M08
G40
M51
G00 X18.09587 Y-44.63411
T21
G41
N38 M07
G261
G01 X18.22787 Y-44.63411
G03 X15.72787 Y-42.13411 I-2.50000 J0.00000
G01 X5.97787 Y-42.13411
G03 X3.47787 Y-44.63411 I0.00000 J-2.50000
G03 X5.97787 Y-47.13411 I2.50000 J0.00000
G01 X15.72787 Y-47.13411
G03 X18.22787 Y-44.63411 I-0.00000 J2.50000
G03 X18.12787 Y-44.53411 I-0.10000 J0.00000
G260
M08
G40
G00 X13.95987 Y-56.57586
T22
G41
N39 M07
G261
G01 X13.82787 Y-56.57586
M50
G01 X13.82787 Y-56.69461
G01 X14.87787 Y-56.69461
G01 X14.87787 Y-56.45711
G01 X13.82787 Y-56.45711
G01 X13.82787 Y-56.57586
M06
G03 X13.92787 Y-56.67586 I0.10000 J0.00000
G260
M08
G40
M51
G00 X17.54874 Y-60.51494
T21
G41
N40 M07
G261
G01 X17.64208 Y-60.42160
G03 X16.22787 Y-59.83581 I-1.41421 J-1.41421
G01 X5.47787 Y-59.83581
G03 X3.47787 Y-61.83581 I0.00000 J-2.00000
G01 X3.47787 Y-83.99381
G03 X5.47787 Y-85.99381 I2.00000 J0.00000
G01 X16.22787 Y-85.99381
G03 X18.22787 Y-83.99381 I-0.00000 J2.00000
G01 X18.22787 Y-61.83582
G03 X17.64208 Y-60.42160 I-2.00000 J-0.00000
G03 X17.50066 Y-60.42160 I-0.07071 J-0.07071
G260
M08
G40
G00 X20.75911 Y-85.10081
T22
G41
N41 M07
G261
G01 X20.75911 Y-84.96881
M50
G01 X20.64037 Y-84.96881
G01 X20.64037 Y-86.01881
G01 X20.87787 Y-86.01881
G01 X20.87787 Y-84.96881
G01 X20.75911 Y-84.96881
M06
G03 X20.65911 Y-85.06881 I0.00000 J-0.10000
G260
M08
G40
M51
G00 X0.47787 Y-89.12581
T21
G41
N42 M07
G261
G01 X0.47787 Y-88.99381
G01 X0.47787 Y-0.27431
G01 X21.22787 Y-0.27431
G01 X21.22787 Y-88.99381
G01 X0.47787 Y-88.99381
G01 X0.29787 Y-88.99381
G260
M08
G40
G00 X25.22877 Y-29.06546
(PartName=P01-00048-01 CutLength=436.662 MarkLength=0.000 Weigth=53.5 Quantity=1)
G41
N43 M07
G261
G01 X25.13543 Y-29.15880
G03 X26.54964 Y-29.74459 I1.41421 J1.41421
G01 X37.29964 Y-29.74459
G03 X39.29964 Y-27.74459 I0.00000 J2.00000
G01 X39.29964 Y-5.58649
G03 X37.29964 Y-3.58649 I-2.00000 J0.00000
G01 X26.54964 Y-3.58649
G03 X24.54964 Y-5.58649 I-0.00000 J-2.00000
G01 X24.54964 Y-27.74458
G03 X25.13543 Y-29.15880 I2.00000 J-0.00000
G03 X25.27685 Y-29.15880 I0.07071 J0.07071
G260
M08
G40
G00 X28.81764 Y-33.00454
T22
G41
N44 M07
G261
G01 X28.94964 Y-33.00454
M50
G01 X28.94964 Y-32.88579
G01 X27.89964 Y-32.88579
G01 X27.89964 Y-33.12329
G01 X28.94964 Y-33.12329
G01 X28.94964 Y-33.00454
M06
G03 X28.84964 Y-32.90454 I-0.10000 J0.00000
G260
M08
G40
M51
G00 X35.03164 Y-33.00454
G41
N45 M07
G261
G01 X34.89964 Y-33.00454
M50
G01 X34.89964 Y-33.12329
G01 X35.94964 Y-33.12329
G01 X35.94964 Y-32.88579
G01 X34.89964 Y-32.88579
G01 X34.89964 Y-33.00454
M06
G03 X34.99964 Y-33.10454 I0.10000 J0.00000
G260
M08
G40
M51
G00 X41.83089 Y-44.55329
G41
N46 M07
G261
G01 X41.83089 Y-44.42129
M50
G01 X41.71214 Y-44.42129
G01 X41.71214 Y-45.47129
G01 X41.94964 Y-45.47129
G01 X41.94964 Y-44.42129
G01 X41.83089 Y-44.42129
M06
G03 X41.73089 Y-44.52129 I0.00000 J-0.10000
G260
M08
G40
M51
G00 X39.16764 Y-44.94629
T21
G41
N47 M07
G261
G01 X39.29964 Y-44.94629
G03 X36.79964 Y-42.44629 I-2.50000 J0.00000
G01 X27.04964 Y-42.44629
G03 X24.54964 Y-44.94629 I0.00000 J-2.50000
G03 X27.04964 Y-47.44629 I2.50000 J0.00000
G01 X36.79964 Y-47.44629
G03 X39.29964 Y-44.94629 I-0.00000 J2.50000
G03 X39.19964 Y-44.84629 I-0.10000 J-0.00000
G260
M08
G40
G00 X38.62052 Y-60.82711
G41
N48 M07
G261
G01 X38.71386 Y-60.73377
G03 X37.29964 Y-60.14799 I-1.41421 J-1.41421
G01 X26.54964 Y-60.14799
G03 X24.54964 Y-62.14799 I-0.00000 J-2.00000
G01 X24.54964 Y-84.30599
G03 X26.54964 Y-86.30599 I2.00000 J0.00000
G01 X37.29964 Y-86.30599
G03 X39.29964 Y-84.30599 I-0.00000 J2.00000
G01 X39.29964 Y-62.14799
G03 X38.71386 Y-60.73377 I-2.00000 J0.00000
G03 X38.57243 Y-60.73377 I-0.07071 J-0.07071
G260
M08
G40
G00 X35.03164 Y-56.88804
T22
G41
N49 M07
G261
G01 X34.89964 Y-56.88804
M50
G01 X34.89964 Y-57.00679
G01 X35.94964 Y-57.00679
G01 X35.94964 Y-56.76929
G01 X34.89964 Y-56.76929
G01 X34.89964 Y-56.88804
M06
G03 X34.99964 Y-56.98804 I0.10000 J0.00000
G260
M08
G40
M51
G00 X28.81764 Y-56.88804
G41
N50 M07
G261
G01 X28.94964 Y-56.88804
M50
G01 X28.94964 Y-56.76929
G01 X27.89964 Y-56.76929
G01 X27.89964 Y-57.00679
G01 X28.94964 Y-57.00679
G01 X28.94964 Y-56.88804
M06
G03 X28.84964 Y-56.78804 I-0.10000 J0.00000
G260
M08
G40
M51
G00 X22.01839 Y-44.55329
G41
N51 M07
G261
G01 X22.01839 Y-44.42129
M50
G01 X21.89964 Y-44.42129
G01 X21.89964 Y-45.47129
G01 X22.13714 Y-45.47129
G01 X22.13714 Y-44.42129
G01 X22.01839 Y-44.42129
M06
G03 X21.91839 Y-44.52129 I0.00000 J-0.10000
G260
M08
G40
M51
G00 X22.01839 Y-4.47949
G41
N52 M07
G261
G01 X22.01839 Y-4.61149
M50
G01 X22.13714 Y-4.61149
G01 X22.13714 Y-3.56149
G01 X21.89964 Y-3.56149
G01 X21.89964 Y-4.61149
G01 X22.01839 Y-4.61149
M06
G03 X22.11839 Y-4.51149 I0.00000 J0.10000
G260
M08
G40
M51
G00 X41.83089 Y-4.47949
G41
N53 M07
G261
G01 X41.83089 Y-4.61149
M50
G01 X41.94964 Y-4.61149
G01 X41.94964 Y-3.56149
G01 X41.71214 Y-3.56149
G01 X41.71214 Y-4.61149
G01 X41.83089 Y-4.61149
M06
G03 X41.93089 Y-4.51149 I0.00000 J0.10000
G260
M08
G40
M51
G00 X41.83089 Y-85.41299
G41
N54 M07
G261
G01 X41.83089 Y-85.28099
M50
G01 X41.71214 Y-85.28099
G01 X41.71214 Y-86.33099
G01 X41.94964 Y-86.33099
G01 X41.94964 Y-85.28099
G01 X41.83089 Y-85.28099
M06
G03 X41.73089 Y-85.38099 I0.00000 J-0.10000
G260
M08
G40
M51
G00 X22.01839 Y-85.41299
G41
N55 M07
G261
G01 X22.01839 Y-85.28099
M50
G01 X21.89964 Y-85.28099
G01 X21.89964 Y-86.33099
G01 X22.13714 Y-86.33099
G01 X22.13714 Y-85.28099
G01 X22.01839 Y-85.28099
M06
G03 X21.91839 Y-85.38099 I-0.00000 J-0.10000
G260
M08
G40
M51
G00 X21.54964 Y-89.43799
T21
G41
N56 M07
G261
G01 X21.54964 Y-89.30599
G01 X21.54964 Y-0.58649
G01 X42.29964 Y-0.58649
G01 X42.29964 Y-89.30599
G01 X21.54964 Y-89.30599
G01 X21.36964 Y-89.30599
G260
M08
G40
G00 X54.32606 Y-6.30911
T22
(PartName=P01-00047-01 CutLength=313.995 MarkLength=0.000 Weigth=33.2 Quantity=1)
G41
N57 M07
G261
G01 X54.20644 Y-6.25330
M50
G01 X54.15624 Y-6.36090
G01 X55.10784 Y-6.80470
G01 X55.20824 Y-6.58940
G01 X54.25664 Y-6.14570
G01 X54.20644 Y-6.25330
M06
G03 X54.25478 Y-6.38620 I0.09062 J-0.04228
G260
M08
G40
M51
G00 X46.79932 Y-2.79929
G41
N58 M07
G261
G01 X46.91894 Y-2.85510
M50
G01 X46.96914 Y-2.74750
G01 X46.01754 Y-2.30370
G01 X45.91714 Y-2.51900
G01 X46.86874 Y-2.96270
G01 X46.91894 Y-2.85510
M06
G03 X46.87060 Y-2.72220 I-0.09062 J0.04228
G260
M08
G40
M51
G00 X46.58354 Y-27.27600
T21
G41
N59 M07
G261
G01 X46.58354 Y-27.40800
G01 X46.62994 Y-27.40800
G03 X47.40658 Y-26.80005 I0.00002 J0.80002
G02 X53.16249 Y-11.24643 I72.01795 J-17.80974
G03 X52.22134 Y-8.53440 I-1.78635 J0.89941
G01 X48.58238 Y-6.83748
G03 X45.73714 Y-8.65010 I-0.84524 J-1.81262
G01 X45.73714 Y-26.60800
G03 X46.53714 Y-27.40800 I0.80000 J0.00000
G01 X46.58354 Y-27.40800
G03 X46.68354 Y-27.30800 I0.00000 J0.10000
G260
M08
G40
G00 X45.84414 Y-32.66795
T22
G41
N60 M07
G261
G01 X45.71214 Y-32.66795
M50
G01 X45.71214 Y-32.78670
G01 X46.76214 Y-32.78670
G01 X46.76214 Y-32.54920
G01 X45.71214 Y-32.54920
G01 X45.71214 Y-32.66795
M06
G03 X45.81214 Y-32.76795 I0.10000 J-0.00000
G260
M08
G40
M51
G00 X46.63014 Y-56.55145
G41
N61 M07
G261
G01 X46.76214 Y-56.55145
M50
G01 X46.76214 Y-56.43270
G01 X45.71214 Y-56.43270
G01 X45.71214 Y-56.67020
G01 X46.76214 Y-56.67020
G01 X46.76214 Y-56.55145
M06
G03 X46.66214 Y-56.45145 I-0.10000 J0.00000
G260
M08
G40
M51
G00 X46.58354 Y-61.94340
T21
G41
N62 M07
G261
G01 X46.58354 Y-61.81140
G01 X46.53714 Y-61.81140
G03 X45.73714 Y-62.61140 I0.00000 J-0.80000
G01 X45.73714 Y-80.56930
G03 X48.58234 Y-82.38190 I1.99998 J-0.00001
G01 X52.22138 Y-80.68502
G03 X53.16247 Y-77.97299 I-0.84523 J1.81260
G02 X47.40655 Y-62.41935 I66.26212 J33.36343
G03 X46.62994 Y-61.81140 I-0.77661 J-0.19205
G01 X46.58354 Y-61.81140
G03 X46.48354 Y-61.91140 I0.00000 J-0.10000
G260
M08
G40
G00 X54.32606 Y-82.91029
T22
G41
N63 M07
G261
G01 X54.20644 Y-82.96610
M50
G01 X54.25664 Y-83.07370
G01 X55.20824 Y-82.63000
G01 X55.10784 Y-82.41470
G01 X54.15624 Y-82.85850
G01 X54.20644 Y-82.96610
M06
G03 X54.33934 Y-83.01444 I0.09062 J0.04228
G260
M08
G40
M51
G00 X46.79932 Y-86.42011
G41
N64 M07
G261
G01 X46.91894 Y-86.36430
M50
G01 X46.86874 Y-86.25670
G01 X45.91714 Y-86.70040
G01 X46.01754 Y-86.91570
G01 X46.96914 Y-86.47190
G01 X46.91894 Y-86.36430
M06
G03 X46.78604 Y-86.31596 I-0.09062 J-0.04228
G260
M08
G40
M51
G00 X42.73714 Y-89.10140
T21
G41
N65 M07
G261
G01 X42.73714 Y-88.96940
G01 X42.73714 Y-85.96940
G01 X42.59964 Y-85.96940
G01 X42.54964 Y-85.91940
G01 X42.54964 Y-85.01940
G01 X42.59964 Y-84.96940
G01 X42.73714 Y-84.96940
G01 X42.73714 Y-45.10970
G01 X42.59964 Y-45.10970
G01 X42.54964 Y-45.05970
G01 X42.54964 Y-44.15970
G01 X42.59964 Y-44.10970
G01 X42.73714 Y-44.10970
G01 X42.73714 Y-4.25000
G01 X42.59964 Y-4.25000
G01 X42.54964 Y-4.20000
G01 X42.54964 Y-3.30000
G01 X42.59964 Y-3.25000
G01 X42.73714 Y-3.25000
G01 X42.73714 Y-0.25000
G01 X58.57574 Y-7.63560
G01 X58.57574 Y-8.63563
G03 X58.57574 Y-80.58380 I60.84893 J-35.97408
G01 X58.57574 Y-81.58380
G01 X42.73714 Y-88.96940
G01 X42.57401 Y-89.04547
G260
M08
G40
G00 X60.17980 Y-89.54433
T22
(PartName=P01-00047-01 CutLength=313.995 MarkLength=0.000 Weigth=33.2 Quantity=1)
G41
N66 M07
G261
G01 X60.29942 Y-89.60013
M50
G01 X60.34962 Y-89.49254
G01 X59.39802 Y-89.04873
G01 X59.29762 Y-89.26404
G01 X60.24922 Y-89.70773
G01 X60.29942 Y-89.60013
M06
G03 X60.25107 Y-89.46723 I-0.09062 J0.04228
G260
M08
G40
M51
G00 X67.70654 Y-93.05414
G41
N67 M07
G261
G01 X67.58692 Y-92.99833
M50
G01 X67.53672 Y-93.10593
G01 X68.48832 Y-93.54973
G01 X68.58872 Y-93.33443
G01 X67.63712 Y-92.89073
G01 X67.58692 Y-92.99833
M06
G03 X67.63526 Y-93.13124 I0.09062 J-0.04228
G260
M08
G40
M51
G00 X67.92232 Y-68.57743
T21
G41
N68 M07
G261
G01 X67.92232 Y-68.44543
G01 X67.87592 Y-68.44543
G03 X67.09928 Y-69.05338 I-0.00002 J-0.80002
G02 X61.34337 Y-84.60700 I-72.01795 J17.80973
G03 X62.28452 Y-87.31904 I1.78635 J-0.89941
G01 X65.92348 Y-89.01595
G03 X68.76872 Y-87.20333 I0.84524 J1.81262
G01 X68.76872 Y-69.24543
G03 X67.96872 Y-68.44543 I-0.80000 J0.00000
G01 X67.92232 Y-68.44543
G03 X67.82232 Y-68.54543 I0.00000 J-0.10000
G260
M08
G40
G00 X68.66172 Y-63.18548
T22
G41
N69 M07
G261
G01 X68.79372 Y-63.18548
M50
G01 X68.79372 Y-63.06673
G01 X67.74372 Y-63.06673
G01 X67.74372 Y-63.30423
G01 X68.79372 Y-63.30423
G01 X68.79372 Y-63.18548
M06
G03 X68.69372 Y-63.08548 I-0.10000 J-0.00000
G260
M08
G40
M51
G00 X67.87572 Y-39.30198
G41
N70 M07
G261
G01 X67.74372 Y-39.30198
M50
G01 X67.74372 Y-39.42073
G01 X68.79372 Y-39.42073
G01 X68.79372 Y-39.18323
G01 X67.74372 Y-39.18323
G01 X67.74372 Y-39.30198
M06
G03 X67.84372 Y-39.40198 I0.10000 J0.00000
G260
M08
G40
M51
G00 X67.92232 Y-33.91004
T21
G41
N71 M07
G261
G01 X67.92232 Y-34.04204
G01 X67.96872 Y-34.04204
G03 X68.76872 Y-33.24204 I-0.00000 J0.80000
G01 X68.76872 Y-15.28413
G03 X65.92352 Y-13.47154 I-1.99998 J0.00000
G01 X62.28448 Y-15.16841
G03 X61.34339 Y-17.88044 I0.84524 J-1.81259
G02 X67.09931 Y-33.43409 I-66.26214 J-33.36341
G03 X67.87592 Y-34.04204 I0.77661 J0.19205
G01 X67.92232 Y-34.04204
G03 X68.02232 Y-33.94204 I0.00000 J0.10000
G260
M08
G40
G00 X60.17980 Y-12.94314
T22
G41
N72 M07
G261
G01 X60.29942 Y-12.88733
M50
G01 X60.24922 Y-12.77973
G01 X59.29762 Y-13.22343
G01 X59.39802 Y-13.43873
G01 X60.34962 Y-12.99493
G01 X60.29942 Y-12.88733
M06
G03 X60.16652 Y-12.83899 I-0.09062 J-0.04228
G260
M08
G40
M51
G00 X67.70654 Y-9.43333
G41
N73 M07
G261
G01 X67.58692 Y-9.48913
M50
G01 X67.63712 Y-9.59673
G01 X68.58872 Y-9.15304
G01 X68.48832 Y-8.93773
G01 X67.53672 Y-9.38154
G01 X67.58692 Y-9.48913
M06
G03 X67.71982 Y-9.53748 I0.09062 J0.04228
G260
M08
G40
M51
G00 X55.93012 Y-88.34983
T21
G41
N74 M07
G261
G01 X55.93012 Y-88.21783
G01 X55.93012 Y-87.21780
G03 X55.93012 Y-15.26963 I-60.84893 J35.97408
G01 X55.93012 Y-14.26963
G01 X71.76872 Y-6.88404
G01 X71.76872 Y-9.88404
G01 X71.90622 Y-9.88404
G01 X71.95622 Y-9.93404
G01 X71.95622 Y-10.83404
G01 X71.90622 Y-10.88404
G01 X71.76872 Y-10.88404
G01 X71.76872 Y-50.74373
G01 X71.90622 Y-50.74373
G01 X71.95622 Y-50.79373
G01 X71.95622 Y-51.69373
G01 X71.90622 Y-51.74373
G01 X71.76872 Y-51.74373
G01 X71.76872 Y-91.60343
G01 X71.90622 Y-91.60343
G01 X71.95622 Y-91.65343
G01 X71.95622 Y-92.55343
G01 X71.90622 Y-92.60343
G01 X71.76872 Y-92.60343
G01 X71.76872 Y-95.60343
G01 X55.93012 Y-88.21783
G01 X55.76698 Y-88.14176
G260
M08
G40
G00 X83.82655 Y-6.30911
T22
(PartName=P01-00047-01 CutLength=313.995 MarkLength=0.000 Weigth=33.2 Quantity=1)
G41
N75 M07
G261
G01 X83.70693 Y-6.25330
M50
G01 X83.65673 Y-6.36090
G01 X84.60833 Y-6.80470
G01 X84.70873 Y-6.58940
G01 X83.75713 Y-6.14570
G01 X83.70693 Y-6.25330
M06
G03 X83.75527 Y-6.38620 I0.09062 J-0.04228
G260
M08
G40
M51
G00 X76.29981 Y-2.79929
G41
N76 M07
G261
G01 X76.41943 Y-2.85510
M50
G01 X76.46963 Y-2.74750
G01 X75.51803 Y-2.30370
G01 X75.41763 Y-2.51900
G01 X76.36923 Y-2.96270
G01 X76.41943 Y-2.85510
M06
G03 X76.37109 Y-2.72220 I-0.09062 J0.04228
G260
M08
G40
M51
G00 X76.08403 Y-27.27600
T21
G41
N77 M07
G261
G01 X76.08403 Y-27.40800
G01 X76.13043 Y-27.40800
G03 X76.90707 Y-26.80005 I0.00002 J0.80002
G02 X82.66297 Y-11.24643 I72.01795 J-17.80974
G03 X81.72183 Y-8.53440 I-1.78635 J0.89941
G01 X78.08287 Y-6.83748
G03 X75.23763 Y-8.65010 I-0.84524 J-1.81262
G01 X75.23763 Y-26.60800
G03 X76.03763 Y-27.40800 I0.80000 J0.00000
G01 X76.08403 Y-27.40800
G03 X76.18403 Y-27.30800 I0.00000 J0.10000
G260
M08
G40
G00 X75.34463 Y-32.66795
T22
G41
N78 M07
G261
G01 X75.21263 Y-32.66795
M50
G01 X75.21263 Y-32.78670
G01 X76.26263 Y-32.78670
G01 X76.26263 Y-32.54920
G01 X75.21263 Y-32.54920
G01 X75.21263 Y-32.66795
M06
G03 X75.31263 Y-32.76795 I0.10000 J-0.00000
G260
M08
G40
M51
G00 X76.13063 Y-56.55145
G41
N79 M07
G261
G01 X76.26263 Y-56.55145
M50
G01 X76.26263 Y-56.43270
G01 X75.21263 Y-56.43270
G01 X75.21263 Y-56.67020
G01 X76.26263 Y-56.67020
G01 X76.26263 Y-56.55145
M06
G03 X76.16263 Y-56.45145 I-0.10000 J-0.00000
G260
M08
G40
M51
G00 X76.08403 Y-61.94340
T21
G41
N80 M07
G261
G01 X76.08403 Y-61.81140
G01 X76.03763 Y-61.81140
G03 X75.23763 Y-62.61140 I0.00000 J-0.80000
G01 X75.23763 Y-80.56930
G03 X78.08283 Y-82.38190 I1.99998 J-0.00001
G01 X81.72187 Y-80.68502
G03 X82.66296 Y-77.97299 I-0.84523 J1.81260
G02 X76.90704 Y-62.41935 I66.26212 J33.36343
G03 X76.13043 Y-61.81140 I-0.77661 J-0.19205
G01 X76.08403 Y-61.81140
G03 X75.98403 Y-61.91140 I0.00000 J-0.10000
G260
M08
G40
G00 X83.82655 Y-82.91029
T22
G41
N81 M07
G261
G01 X83.70693 Y-82.96610
M50
G01 X83.75713 Y-83.07370
G01 X84.70873 Y-82.63000
G01 X84.60833 Y-82.41470
G01 X83.65673 Y-82.85850
G01 X83.70693 Y-82.96610
M06
G03 X83.83983 Y-83.01444 I0.09062 J0.04228
G260
M08
G40
M51
G00 X76.29981 Y-86.42011
G41
N82 M07
G261
G01 X76.41943 Y-86.36430
M50
G01 X76.36923 Y-86.25670
G01 X75.41763 Y-86.70040
G01 X75.51803 Y-86.91570
G01 X76.46963 Y-86.47190
G01 X76.41943 Y-86.36430
M06
G03 X76.28653 Y-86.31596 I-0.09062 J-0.04228
G260
M08
G40
M51
G00 X72.23763 Y-89.10140
T21
G41
N83 M07
G261
G01 X72.23763 Y-88.96940
G01 X72.23763 Y-85.96940
G01 X72.10013 Y-85.96940
G01 X72.05013 Y-85.91940
G01 X72.05013 Y-85.01940
G01 X72.10013 Y-84.96940
G01 X72.23763 Y-84.96940
G01 X72.23763 Y-45.10970
G01 X72.10013 Y-45.10970
G01 X72.05013 Y-45.05970
G01 X72.05013 Y-44.15970
G01 X72.10013 Y-44.10970
G01 X72.23763 Y-44.10970
G01 X72.23763 Y-4.25000
G01 X72.10013 Y-4.25000
G01 X72.05013 Y-4.20000
G01 X72.05013 Y-3.30000
G01 X72.10013 Y-3.25000
G01 X72.23763 Y-3.25000
G01 X72.23763 Y-0.25000
G01 X88.07623 Y-7.63560
G01 X88.07623 Y-8.63563
G03 X88.07623 Y-80.58380 I60.84893 J-35.97408
G01 X88.07623 Y-81.58380
G01 X72.23763 Y-88.96940
G01 X72.07450 Y-89.04547
G260
M08
G40
G00 X89.68028 Y-12.94314
T22
(PartName=P01-00047-01 CutLength=313.995 MarkLength=0.000 Weigth=33.2 Quantity=1)
G41
N84 M07
G261
G01 X89.79991 Y-12.88733
M50
G01 X89.74970 Y-12.77973
G01 X88.79811 Y-13.22343
G01 X88.89850 Y-13.43873
G01 X89.85011 Y-12.99493
G01 X89.79991 Y-12.88733
M06
G03 X89.66700 Y-12.83899 I-0.09062 J-0.04228
G260
M08
G40
M51
G00 X97.20703 Y-9.43333
G41
N85 M07
G261
G01 X97.08741 Y-9.48913
M50
G01 X97.13761 Y-9.59673
G01 X98.08920 Y-9.15304
G01 X97.98881 Y-8.93773
G01 X97.03720 Y-9.38154
G01 X97.08740 Y-9.48913
M06
G03 X97.22031 Y-9.53748 I0.09062 J0.04228
G260
M08
G40
M51
G00 X97.42281 Y-33.91004
T21
G41
N86 M07
G261
G01 X97.42281 Y-34.04204
G01 X97.46920 Y-34.04204
G03 X98.26920 Y-33.24204 I0.00000 J0.80000
G01 X98.26920 Y-15.28413
G03 X95.42400 Y-13.47154 I-1.99998 J0.00000
G01 X91.78497 Y-15.16841
G03 X90.84388 Y-17.88044 I0.84524 J-1.81259
G02 X96.59980 Y-33.43409 I-66.26214 J-33.36341
G03 X97.37641 Y-34.04204 I0.77661 J0.19205
G01 X97.42281 Y-34.04204
G03 X97.52281 Y-33.94204 I0.00000 J0.10000
G260
M08
G40
G00 X97.37620 Y-39.30198
T22
G41
N87 M07
G261
G01 X97.24420 Y-39.30198
M50
G01 X97.24420 Y-39.42073
G01 X98.29420 Y-39.42073
G01 X98.29420 Y-39.18323
G01 X97.24420 Y-39.18323
G01 X97.24420 Y-39.30198
M06
G03 X97.34420 Y-39.40198 I0.10000 J0.00000
G260
M08
G40
M51
G00 X98.16220 Y-63.18548
G41
N88 M07
G261
G01 X98.29420 Y-63.18548
M50
G01 X98.29420 Y-63.06673
G01 X97.24420 Y-63.06673
G01 X97.24420 Y-63.30423
G01 X98.29420 Y-63.30423
G01 X98.29420 Y-63.18548
M06
G03 X98.19420 Y-63.08548 I-0.10000 J0.00000
G260
M08
G40
M51
G00 X97.42281 Y-68.57743
T21
G41
N89 M07
G261
G01 X97.42281 Y-68.44543
G01 X97.37641 Y-68.44543
G03 X96.59977 Y-69.05338 I-0.00002 J-0.80002
G02 X90.84386 Y-84.60700 I-72.01795 J17.80973
G03 X91.78500 Y-87.31904 I1.78635 J-0.89941
G01 X95.42397 Y-89.01595
G03 X98.26920 Y-87.20333 I0.84524 J1.81262
G01 X98.26920 Y-69.24543
G03 X97.46920 Y-68.44543 I-0.80000 J0.00000
G01 X97.42281 Y-68.44543
G03 X97.32281 Y-68.54543 I0.00000 J-0.10000
G260
M08
G40
G00 X97.20703 Y-93.05414
T22
G41
N90 M07
G261
G01 X97.08741 Y-92.99833
M50
G01 X97.03720 Y-93.10593
G01 X97.98881 Y-93.54973
G01 X98.08920 Y-93.33443
G01 X97.13761 Y-92.89073
G01 X97.08740 Y-92.99833
M06
G03 X97.13575 Y-93.13124 I0.09062 J-0.04228
G260
M08
G40
M51
G00 X89.68028 Y-89.54433
G41
N91 M07
G261
G01 X89.79991 Y-89.60013
M50
G01 X89.85011 Y-89.49254
G01 X88.89850 Y-89.04873
G01 X88.79811 Y-89.26404
G01 X89.74970 Y-89.70773
G01 X89.79991 Y-89.60013
M06
G03 X89.75156 Y-89.46723 I-0.09062 J0.04228
G260
M08
G40
M51
G00 X85.43061 Y-88.34983
T21
G41
N92 M07
G261
G01 X85.43061 Y-88.21783
G01 X85.43061 Y-87.21780
G03 X85.43061 Y-15.26963 I-60.84893 J35.97408
G01 X85.43061 Y-14.26963
G01 X101.26920 Y-6.88404
G01 X101.26920 Y-9.88404
G01 X101.40670 Y-9.88404
G01 X101.45670 Y-9.93404
G01 X101.45670 Y-10.83404
G01 X101.40670 Y-10.88404
G01 X101.26920 Y-10.88404
G01 X101.26920 Y-50.74373
G01 X101.40670 Y-50.74373
G01 X101.45670 Y-50.79373
G01 X101.45670 Y-51.69373
G01 X101.40670 Y-51.74373
G01 X101.26920 Y-51.74373
G01 X101.26920 Y-91.60343
G01 X101.40670 Y-91.60343
G01 X101.45670 Y-91.65343
G01 X101.45670 Y-92.55343
G01 X101.40670 Y-92.60343
G01 X101.26920 Y-92.60343
G01 X101.26920 Y-95.60343
G01 X85.43061 Y-88.21783
G01 X85.26747 Y-88.14176
G260
M08
G40
G00 X102.13875 Y-94.68449
(PartName=P01-00057-01 CutLength=82.328 MarkLength=0.000 Weigth=21.9 Quantity=1)
G41
N93 M07
G261
G01 X102.13875 Y-94.55249
G01 X102.13875 Y-77.38859
G01 X126.13875 Y-77.38859
G01 X126.13875 Y-94.55249
G01 X102.13875 Y-94.55249
G01 X101.95875 Y-94.55249
G260
M08
G40
G00 X112.59890 Y-76.06844
(PartName=P01-00052-01 CutLength=197.652 MarkLength=0.000 Weigth=96.7 Quantity=1)
G41
N94 M07
G261
G03 X112.46690 Y-75.93644 I-0.13200 J0.00000
G01 X102.90687 Y-75.93644
G02 X101.90687 Y-74.93644 I0.00000 J1.00000
G01 X101.90687 Y-1.25184
G02 X102.90687 Y-0.25184 I1.00000 J0.00000
G01 X124.90687 Y-0.25184
G02 X125.90687 Y-1.25184 I0.00000 J-1.00000
G01 X125.90687 Y-74.93644
G02 X124.90687 Y-75.93644 I-1.00000 J0.00000
G01 X112.46690 Y-75.93644
G03 X112.36690 Y-76.03644 I0.00000 J-0.10000
G260
M08
G40
G00 X127.95274 Y-94.88276
(PartName=P01-00057-01 CutLength=82.328 MarkLength=0.000 Weigth=21.9 Quantity=1)
G41
N95 M07
G261
G01 X127.95274 Y-94.75076
G01 X127.95274 Y-77.58686
G01 X151.95274 Y-77.58686
G01 X151.95274 Y-94.75076
G01 X127.95274 Y-94.75076
G01 X127.77274 Y-94.75076
G260
M08
G40
G00 X138.74291 Y-76.77083
(PartName=P01-00052-01 CutLength=197.652 MarkLength=0.000 Weigth=96.7 Quantity=1)
G41
N96 M07
G261
G03 X138.61091 Y-76.63883 I-0.13200 J0.00000
G01 X127.75139 Y-76.63883
G02 X126.75139 Y-75.63883 I-0.00000 J1.00000
G01 X126.75139 Y-1.95424
G02 X127.75139 Y-0.95424 I1.00000 J-0.00000
G01 X149.75139 Y-0.95424
G02 X150.75139 Y-1.95424 I0.00000 J-1.00000
G01 X150.75139 Y-75.63883
G02 X149.75139 Y-76.63883 I-1.00000 J0.00000
G01 X138.61091 Y-76.63883
G03 X138.51091 Y-76.73883 I0.00000 J-0.10000
G260
M08
G40
G00 X169.95640 Y-80.97466
(PartName=P01-00049-01 CutLength=127.158 MarkLength=0.000 Weigth=15.0 Quantity=1)
G41
N97 M07
G261
G01 X170.08839 Y-80.97466
G03 X168.79297 Y-79.67919 I-1.29545 J0.00002
G01 X159.79301 Y-79.67889
G03 X158.49749 Y-80.97427 I-0.00007 J-1.29545
G03 X159.79287 Y-82.26979 I1.29545 J-0.00007
G01 X168.79292 Y-82.27009
G03 X170.08840 Y-80.97466 I0.00002 J1.29545
G03 X169.98840 Y-80.87466 I-0.10000 J0.00000
G260
M08
G40
G00 X158.62929 Y-89.56517
G41
N98 M07
G261
G01 X158.49729 Y-89.56517
G03 X159.79267 Y-90.86059 I1.29540 J-0.00002
G01 X168.79262 Y-90.86089
G03 X170.08805 Y-89.56552 I0.00002 J1.29540
G03 X168.79267 Y-88.27009 I-1.29540 J0.00002
G01 X159.79272 Y-88.26979
G03 X158.49729 Y-89.56517 I-0.00002 J-1.29540
G03 X158.59729 Y-89.66517 I0.10000 J-0.00000
G260
M08
G40
G00 X154.47996 Y-93.99239
G41
N99 M07
G261
G01 X154.47997 Y-93.86039
G01 X154.48017 Y-90.31499
G01 X154.34267 Y-90.31499
G01 X154.29267 Y-90.26499
G01 X154.29267 Y-89.36499
G01 X154.34267 Y-89.31499
G01 X154.48017 Y-89.31499
G01 X154.48047 Y-81.22419
G01 X154.34297 Y-81.22419
G01 X154.29297 Y-81.17419
G01 X154.29297 Y-80.27419
G01 X154.34297 Y-80.22419
G01 X154.48047 Y-80.22419
G01 X154.48057 Y-76.67879
G01 X174.10557 Y-76.67939
G01 X174.10547 Y-80.22479
G01 X174.24297 Y-80.22479
G01 X174.29297 Y-80.27489
G01 X174.29297 Y-81.17489
G01 X174.24297 Y-81.22479
G01 X174.10547 Y-81.22479
G01 X174.10517 Y-89.31569
G01 X174.24267 Y-89.31569
G01 X174.29267 Y-89.36569
G01 X174.29267 Y-90.26569
G01 X174.24267 Y-90.31569
G01 X174.10517 Y-90.31569
G01 X174.10497 Y-93.86109
G01 X154.47997 Y-93.86039
G01 X154.29997 Y-93.86039
G260
M08
G40
G00 X155.56109 Y-58.90177
(PartName=P01-00062-01 CutLength=206.979 MarkLength=0.000 Weigth=26.3 Quantity=1)
G41
N100 M07
G261
G01 X155.42909 Y-58.90177
G03 X156.92909 Y-60.40177 I1.50000 J0.00000
G01 X169.92909 Y-60.40177
G03 X171.42909 Y-58.90177 I0.00000 J1.50000
G03 X169.92909 Y-57.40177 I-1.50000 J-0.00000
G01 X156.92909 Y-57.40177
G03 X155.42909 Y-58.90177 I0.00000 J-1.50000
G03 X155.52909 Y-59.00177 I0.10000 J0.00000
G260
M08
G40
G00 X155.56109 Y-64.90177
G41
N101 M07
G261
G01 X155.42909 Y-64.90177
G03 X156.92909 Y-66.40177 I1.50000 J0.00000
G01 X169.92909 Y-66.40177
G03 X171.42909 Y-64.90177 I0.00000 J1.50000
G03 X169.92909 Y-63.40177 I-1.50000 J-0.00000
G01 X156.92909 Y-63.40177
G03 X155.42909 Y-64.90177 I0.00000 J-1.50000
G03 X155.52909 Y-65.00177 I0.10000 J0.00000
G260
M08
G40
G00 X155.56109 Y-70.90177
G41
N102 M07
G261
G01 X155.42909 Y-70.90177
G03 X156.92909 Y-72.40177 I1.50000 J0.00000
G01 X169.92909 Y-72.40177
G03 X171.42909 Y-70.90177 I0.00000 J1.50000
G03 X169.92909 Y-69.40177 I-1.50000 J-0.00000
G01 X156.92909 Y-69.40177
G03 X155.42909 Y-70.90177 I0.00000 J-1.50000
G03 X155.52909 Y-71.00177 I0.10000 J0.00000
G260
M08
G40
G00 X151.42909 Y-75.53377
G41
N103 M07
G261
G01 X151.42909 Y-75.40177
G01 X151.42909 Y-49.04927
G01 X175.42909 Y-49.04927
G01 X175.42909 Y-75.40177
G01 X151.42909 Y-75.40177
G01 X151.24909 Y-75.40177
G260
M08
G40
G00 X155.75654 Y-43.58239
(PartName=P01-00058-01 CutLength=158.800 MarkLength=0.000 Weigth=20.6 Quantity=1)
G41
N104 M07
G261
G01 X155.62454 Y-43.58239
G03 X157.12454 Y-45.08239 I1.50000 J0.00000
G01 X170.12454 Y-45.08239
G03 X171.62454 Y-43.58239 I0.00000 J1.50000
G03 X170.12454 Y-42.08239 I-1.50000 J-0.00000
G01 X157.12454 Y-42.08239
G03 X155.62454 Y-43.58239 I0.00000 J-1.50000
G03 X155.72454 Y-43.68239 I0.10000 J-0.00000
G260
M08
G40
G00 X155.75654 Y-37.58239
G41
N105 M07
G261
G01 X155.62454 Y-37.58239
G03 X157.12454 Y-39.08239 I1.50000 J0.00000
G01 X170.12454 Y-39.08239
G03 X171.62454 Y-37.58239 I0.00000 J1.50000
G03 X170.12454 Y-36.08239 I-1.50000 J-0.00000
G01 X157.12454 Y-36.08239
G03 X155.62454 Y-37.58239 I0.00000 J-1.50000
G03 X155.72454 Y-37.68239 I0.10000 J0.00000
G260
M08
G40
G00 X151.62454 Y-48.21439
G41
N106 M07
G261
G01 X151.62454 Y-48.08239
G01 X151.62454 Y-28.10699
G01 X175.62454 Y-28.10699
G01 X175.62454 Y-48.08239
G01 X151.62454 Y-48.08239
G01 X151.44454 Y-48.08239
G260
M08
G40
G00 X155.75654 Y-22.64936
(PartName=P01-00062-01 CutLength=206.979 MarkLength=0.000 Weigth=26.3 Quantity=1)
G41
N107 M07
G261
G01 X155.62454 Y-22.64936
G03 X157.12454 Y-24.14936 I1.50000 J0.00000
G01 X170.12454 Y-24.14936
G03 X171.62454 Y-22.64936 I0.00000 J1.50000
G03 X170.12454 Y-21.14936 I-1.50000 J-0.00000
G01 X157.12454 Y-21.14936
G03 X155.62454 Y-22.64936 I0.00000 J-1.50000
G03 X155.72454 Y-22.74936 I0.10000 J0.00000
G260
M08
G40
G00 X155.75654 Y-16.64936
G41
N108 M07
G261
G01 X155.62454 Y-16.64936
G03 X157.12454 Y-18.14936 I1.50000 J-0.00000
G01 X170.12454 Y-18.14936
G03 X171.62454 Y-16.64936 I0.00000 J1.50000
G03 X170.12454 Y-15.14936 I-1.50000 J-0.00000
G01 X157.12454 Y-15.14936
G03 X155.62454 Y-16.64936 I0.00000 J-1.50000
G03 X155.72454 Y-16.74936 I0.10000 J-0.00000
G260
M08
G40
G00 X155.75654 Y-10.64936
G41
N109 M07
G261
G01 X155.62454 Y-10.64936
G03 X157.12454 Y-12.14936 I1.50000 J0.00000
G01 X170.12454 Y-12.14936
G03 X171.62454 Y-10.64936 I0.00000 J1.50000
G03 X170.12454 Y-9.14936 I-1.50000 J-0.00000
G01 X157.12454 Y-9.14936
G03 X155.62454 Y-10.64936 I0.00000 J-1.50000
G03 X155.72454 Y-10.74936 I0.10000 J-0.00000
G260
M08
G40
G00 X151.62454 Y-27.28136
G41
N110 M07
G261
G01 X151.62454 Y-27.14936
G01 X151.62454 Y-0.79686
G01 X175.62454 Y-0.79686
G01 X175.62454 Y-27.14936
G01 X151.62454 Y-27.14936
G01 X151.44454 Y-27.14936
G260
M08
G40
G00 X176.22355 Y-95.18981
(PartName=P01-00061-01 CutLength=89.237 MarkLength=0.000 Weigth=26.4 Quantity=1)
G41
N111 M07
G261
G01 X176.22355 Y-95.05781
G01 X176.22355 Y-74.43941
G01 X200.22355 Y-74.43941
G01 X200.22355 Y-95.05781
G01 X176.22355 Y-95.05781
G01 X176.04355 Y-95.05781
G260
M08
G40
G00 X181.09484 Y-57.69388
(PartName=P01-00049-01 CutLength=127.158 MarkLength=0.000 Weigth=15.0 Quantity=1)
G41
N112 M07
G261
G01 X181.09484 Y-57.56188
G03 X179.79937 Y-58.85731 I-0.00002 J-1.29545
G01 X179.79907 Y-67.85726
G03 X181.09445 Y-69.15278 I1.29545 J-0.00007
G03 X182.38997 Y-67.85741 I0.00007 J1.29545
G01 X182.39027 Y-58.85735
G03 X181.09484 Y-57.56188 I-1.29545 J0.00002
G03 X180.99484 Y-57.66188 I-0.00000 J-0.10000
G260
M08
G40
G00 X189.68535 Y-69.02099
G41
N113 M07
G261
G01 X189.68535 Y-69.15299
G03 X190.98077 Y-67.85761 I0.00002 J1.29540
G01 X190.98107 Y-58.85765
G03 X189.68569 Y-57.56223 I-1.29540 J0.00002
G03 X188.39027 Y-58.85761 I-0.00002 J-1.29540
G01 X188.38997 Y-67.85756
G03 X189.68535 Y-69.15299 I1.29540 J-0.00002
G03 X189.78535 Y-69.05299 I0.00000 J0.10000
G260
M08
G40
G00 X176.79896 Y-73.30171
G41
N114 M07
G261
G01 X176.79897 Y-73.16971
G01 X176.79957 Y-53.54471
G01 X180.34497 Y-53.54481
G01 X180.34497 Y-53.40731
G01 X180.39507 Y-53.35731
G01 X181.29507 Y-53.35731
G01 X181.34497 Y-53.40731
G01 X181.34497 Y-53.54481
G01 X189.43587 Y-53.54511
G01 X189.43587 Y-53.40761
G01 X189.48587 Y-53.35761
G01 X190.38587 Y-53.35761
G01 X190.43587 Y-53.40761
G01 X190.43587 Y-53.54511
G01 X193.98127 Y-53.54531
G01 X193.98057 Y-73.17031
G01 X190.43517 Y-73.17011
G01 X190.43517 Y-73.30761
G01 X190.38517 Y-73.35761
G01 X189.48517 Y-73.35761
G01 X189.43517 Y-73.30761
G01 X189.43517 Y-73.17011
G01 X181.34437 Y-73.16981
G01 X181.34437 Y-73.30731
G01 X181.29437 Y-73.35731
G01 X180.39437 Y-73.35731
G01 X180.34437 Y-73.30731
G01 X180.34437 Y-73.16981
G01 X176.79897 Y-73.16971
G01 X176.61897 Y-73.16970
G260
M08
G40
G00 X176.87035 Y-52.56689
(PartName=P01-00061-01 CutLength=89.237 MarkLength=0.000 Weigth=26.4 Quantity=1)
G41
N115 M07
G261
G01 X176.87035 Y-52.43489
G01 X176.87035 Y-28.43489
G01 X197.48875 Y-28.43489
G01 X197.48875 Y-52.43489
G01 X176.87035 Y-52.43489
G01 X176.69035 Y-52.43489
G260
M08
G40
G00 X213.73339 Y-90.66645
(PartName=P01-00049-01 CutLength=127.158 MarkLength=0.000 Weigth=15.0 Quantity=1)
G41
N116 M07
G261
G01 X213.73339 Y-90.79845
G03 X215.02881 Y-89.50307 I0.00002 J1.29540
G01 X215.02911 Y-80.50312
G03 X213.73373 Y-79.20770 I-1.29540 J0.00002
G03 X212.43831 Y-80.50307 I-0.00002 J-1.29540
G01 X212.43801 Y-89.50303
G03 X213.73339 Y-90.79845 I1.29540 J-0.00002
G03 X213.83339 Y-90.69845 I0.00000 J0.10000
G260
M08
G40
G00 X205.14289 Y-79.33935
G41
N117 M07
G261
G01 X205.14288 Y-79.20735
G03 X203.84741 Y-80.50278 I-0.00002 J-1.29545
G01 X203.84711 Y-89.50273
G03 X205.14249 Y-90.79825 I1.29545 J-0.00007
G03 X206.43802 Y-89.50287 I0.00007 J1.29545
G01 X206.43831 Y-80.50282
G03 X205.14289 Y-79.20735 I-1.29545 J0.00002
G03 X205.04289 Y-79.30734 I-0.00000 J-0.10000
G260
M08
G40
G00 X200.84701 Y-94.94717
G41
N118 M07
G261
G01 X200.84702 Y-94.81517
G01 X200.84761 Y-75.19017
G01 X204.39302 Y-75.19028
G01 X204.39302 Y-75.05278
G01 X204.44311 Y-75.00278
G01 X205.34311 Y-75.00278
G01 X205.39302 Y-75.05278
G01 X205.39302 Y-75.19028
G01 X213.48391 Y-75.19057
G01 X213.48391 Y-75.05307
G01 X213.53391 Y-75.00307
G01 X214.43391 Y-75.00307
G01 X214.48391 Y-75.05307
G01 X214.48391 Y-75.19057
G01 X218.02931 Y-75.19078
G01 X218.02861 Y-94.81578
G01 X214.48321 Y-94.81557
G01 X214.48321 Y-94.95307
G01 X214.43321 Y-95.00307
G01 X213.53321 Y-95.00307
G01 X213.48321 Y-94.95307
G01 X213.48321 Y-94.81557
G01 X205.39241 Y-94.81528
G01 X205.39241 Y-94.95278
G01 X205.34241 Y-95.00278
G01 X204.44241 Y-95.00278
G01 X204.39241 Y-94.95278
G01 X204.39241 Y-94.81528
G01 X200.84702 Y-94.81517
G01 X200.66702 Y-94.81517
G260
M08
G40
G00 X207.21664 Y-69.37425
(PartName=P01-00049-01 CutLength=127.158 MarkLength=0.000 Weigth=15.0 Quantity=1)
G41
N119 M07
G261
G01 X207.21664 Y-69.50625
G03 X208.51211 Y-68.21082 I0.00002 J1.29545
G01 X208.51241 Y-59.21087
G03 X207.21703 Y-57.91535 I-1.29545 J0.00007
G03 X205.92151 Y-59.21072 I-0.00007 J-1.29545
G01 X205.92121 Y-68.21078
G03 X207.21664 Y-69.50625 I1.29545 J-0.00002
G03 X207.31664 Y-69.40625 I0.00000 J0.10000
G260
M08
G40
G00 X198.62613 Y-58.04715
G41
N120 M07
G261
G01 X198.62613 Y-57.91515
G03 X197.33071 Y-59.21052 I-0.00002 J-1.29540
G01 X197.33041 Y-68.21048
G03 X198.62579 Y-69.50591 I1.29540 J-0.00002
G03 X199.92121 Y-68.21052 I0.00002 J1.29540
G01 X199.92151 Y-59.21057
G03 X198.62614 Y-57.91515 I-1.29540 J0.00002
G03 X198.52613 Y-58.01514 I-0.00000 J-0.10000
G260
M08
G40
G00 X194.33021 Y-73.65482
G41
N121 M07
G261
G01 X194.33021 Y-73.52282
G01 X194.33091 Y-53.89782
G01 X197.87631 Y-53.89802
G01 X197.87631 Y-53.76052
G01 X197.92631 Y-53.71052
G01 X198.82631 Y-53.71052
G01 X198.87631 Y-53.76052
G01 X198.87631 Y-53.89802
G01 X206.96711 Y-53.89832
G01 X206.96711 Y-53.76082
G01 X207.01711 Y-53.71082
G01 X207.91711 Y-53.71082
G01 X207.96711 Y-53.76082
G01 X207.96711 Y-53.89832
G01 X211.51251 Y-53.89843
G01 X211.51191 Y-73.52343
G01 X207.96651 Y-73.52332
G01 X207.96651 Y-73.66082
G01 X207.91641 Y-73.71082
G01 X207.01641 Y-73.71082
G01 X206.96651 Y-73.66082
G01 X206.96651 Y-73.52332
G01 X198.87561 Y-73.52302
G01 X198.87561 Y-73.66052
G01 X198.82561 Y-73.71052
G01 X197.92561 Y-73.71052
G01 X197.87561 Y-73.66052
G01 X197.87561 Y-73.52302
G01 X194.33021 Y-73.52282
G01 X194.15021 Y-73.52281
G260
M08
G40
G00 X229.51951 Y-75.00307
(PartName=P01-00058-01 CutLength=158.800 MarkLength=0.000 Weigth=20.6 Quantity=1)
G41
N122 M07
G261
G01 X229.51951 Y-74.87107
G03 X228.01951 Y-76.37107 I0.00000 J-1.50000
G01 X228.01951 Y-89.37107
G03 X229.51951 Y-90.87107 I1.50000 J0.00000
G03 X231.01951 Y-89.37107 I0.00000 J1.50000
G01 X231.01951 Y-76.37107
G03 X229.51951 Y-74.87107 I-1.50000 J-0.00000
G03 X229.41951 Y-74.97107 I0.00000 J-0.10000
G260
M08
G40
G00 X223.51951 Y-75.00307
G41
N123 M07
G261
G01 X223.51951 Y-74.87107
G03 X222.01951 Y-76.37107 I0.00000 J-1.50000
G01 X222.01951 Y-89.37107
G03 X223.51951 Y-90.87107 I1.50000 J0.00000
G03 X225.01951 Y-89.37107 I0.00000 J1.50000
G01 X225.01951 Y-76.37107
G03 X223.51951 Y-74.87107 I-1.50000 J0.00000
G03 X223.41951 Y-74.97107 I0.00000 J-0.10000
G260
M08
G40
G00 X219.01951 Y-95.00307
G41
N124 M07
G261
G01 X219.01951 Y-94.87107
G01 X219.01951 Y-70.87107
G01 X238.99491 Y-70.87107
G01 X238.99491 Y-94.87107
G01 X219.01951 Y-94.87107
G01 X218.83951 Y-94.87107
G260
M08
G40
(PlanFooterCommand)
M64
T0
M65
#CS OFF
M30
