(PP_NAME=PP_Din)
(PP_VERSION=	4.0)
(PP_INI_NAME=GC_US_PLASMA_4.2.ini)
(PP_INI_VERSION=2013-04-04)
(%%INFO MACHINE=HPRXD SS 400A MIX)
(%%INFO Material=SS Thickness=1.5 PlateLength=120.000 PlateWidth=48.000)
(%%INFO PartName=30-00141-410-1=14pcs=100.1lbs)
(%%INFO TotalCutLength=787.185)
(%%INFO TotalPierceCount=14)
G70
G162
G141
G237
#CS ON [V.E.START_X, V.E.START_Y, 0, 0, 0, V.E.ROTATION]
M190
G90
#CONTOUR MODE[DEV PATH_DEV=0.008 RELEVANT_PATH=0.004]
(PlanHeaderCommand)
G00 X14.62299 Y-46.85710
T21
(PartName=30-00141-410-1 CutLength=54.389 MarkLength=0.000 Weigth=100.1 Quantity=1)
G41
N1 M07
G261
G03 X14.83889 Y-46.03650 I-0.30235 J0.51825
G03 X14.01829 Y-45.82060 I-0.51825 J-0.30235
G02 X13.99227 Y-45.83572 I-4.36189 J7.47628
G02 X7.42466 Y-46.70740 I-4.33602 J7.49197
G02 X1.29260 Y-36.11215 I2.23159 J8.36365
G02 X11.88784 Y-29.98010 I8.36365 J-2.23159
G02 X18.01990 Y-40.57534 I-2.23159 J-8.36365
G02 X14.39172 Y-45.58986 I-8.36365 J2.23159
G03 X14.31921 Y-45.93589 I0.13676 J-0.20927
G260
M08
G40
G00 X30.58301 Y-37.52477
(PartName=30-00141-410-1 CutLength=54.389 MarkLength=0.000 Weigth=100.1 Quantity=1)
G41
N2 M07
G261
G03 X30.79891 Y-36.70416 I-0.30235 J0.51825
G03 X29.97831 Y-36.48826 I-0.51825 J-0.30235
G02 X29.95229 Y-36.50338 I-4.36302 J7.47628
G02 X23.38468 Y-37.37507 I-4.33602 J7.49197
G02 X17.25262 Y-26.77982 I2.23160 J8.36365
G02 X27.84787 Y-20.64776 I8.36365 J-2.23159
G02 X33.97992 Y-31.24301 I-2.23160 J-8.36365
G02 X30.35174 Y-36.25752 I-8.36365 J2.23160
G03 X30.27923 Y-36.60356 I0.13676 J-0.20927
G260
M08
G40
G00 X14.62299 Y-28.54460
(PartName=30-00141-410-1 CutLength=54.389 MarkLength=0.000 Weigth=100.1 Quantity=1)
G41
N3 M07
G261
G03 X14.83889 Y-27.72400 I-0.30235 J0.51825
G03 X14.01829 Y-27.50810 I-0.51825 J-0.30235
G02 X13.99227 Y-27.52322 I-4.36189 J7.47628
G02 X7.42466 Y-28.39490 I-4.33602 J7.49197
G02 X1.29260 Y-17.79965 I2.23159 J8.36365
G02 X11.88784 Y-11.66760 I8.36365 J-2.23159
G02 X18.01990 Y-22.26284 I-2.23159 J-8.36365
G02 X14.39172 Y-27.27736 I-8.36365 J2.23159
G03 X14.31921 Y-27.62339 I0.13676 J-0.20927
G260
M08
G40
G00 X30.58301 Y-19.21227
(PartName=30-00141-410-1 CutLength=54.389 MarkLength=0.000 Weigth=100.1 Quantity=1)
G41
N4 M07
G261
G03 X30.79891 Y-18.39166 I-0.30235 J0.51825
G03 X29.97831 Y-18.17576 I-0.51825 J-0.30235
G02 X29.95229 Y-18.19088 I-4.36302 J7.47628
G02 X23.38468 Y-19.06257 I-4.33602 J7.49197
G02 X17.25262 Y-8.46732 I2.23160 J8.36365
G02 X27.84787 Y-2.33526 I8.36365 J-2.23159
G02 X33.97992 Y-12.93051 I-2.23160 J-8.36365
G02 X30.35174 Y-17.94502 I-8.36365 J2.23160
G03 X30.27923 Y-18.29106 I0.13676 J-0.20927
G260
M08
G40
G00 X46.54347 Y-46.85710
(PartName=30-00141-410-1 CutLength=54.389 MarkLength=0.000 Weigth=100.1 Quantity=1)
G41
N5 M07
G261
G03 X46.75937 Y-46.03650 I-0.30235 J0.51825
G03 X45.93877 Y-45.82060 I-0.51825 J-0.30235
G02 X45.91275 Y-45.83572 I-4.36189 J7.47628
G02 X39.34513 Y-46.70740 I-4.33602 J7.49197
G02 X33.21308 Y-36.11215 I2.23160 J8.36365
G02 X43.80832 Y-29.98010 I8.36365 J-2.23159
G02 X49.94038 Y-40.57534 I-2.23159 J-8.36365
G02 X46.31219 Y-45.58986 I-8.36366 J2.23160
G03 X46.23968 Y-45.93589 I0.13676 J-0.20927
G260
M08
G40
G00 X46.54347 Y-28.54460
(PartName=30-00141-410-1 CutLength=54.389 MarkLength=0.000 Weigth=100.1 Quantity=1)
G41
N6 M07
G261
G03 X46.75937 Y-27.72400 I-0.30235 J0.51825
G03 X45.93877 Y-27.50810 I-0.51825 J-0.30235
G02 X45.91275 Y-27.52322 I-4.36189 J7.47628
G02 X39.34513 Y-28.39490 I-4.33602 J7.49197
G02 X33.21308 Y-17.79965 I2.23160 J8.36365
G02 X43.80832 Y-11.66760 I8.36365 J-2.23159
G02 X49.94038 Y-22.26285 I-2.23159 J-8.36365
G02 X46.31219 Y-27.27736 I-8.36365 J2.23160
G03 X46.23968 Y-27.62339 I0.13676 J-0.20927
G260
M08
G40
G00 X62.50349 Y-37.52477
(PartName=30-00141-410-1 CutLength=54.389 MarkLength=0.000 Weigth=100.1 Quantity=1)
G41
N7 M07
G261
G03 X62.71939 Y-36.70416 I-0.30235 J0.51825
G03 X61.89879 Y-36.48826 I-0.51826 J-0.30235
G02 X61.87277 Y-36.50338 I-4.36302 J7.47628
G02 X55.30515 Y-37.37507 I-4.33602 J7.49197
G02 X49.17310 Y-26.77982 I2.23160 J8.36365
G02 X59.76834 Y-20.64776 I8.36365 J-2.23159
G02 X65.90040 Y-31.24301 I-2.23160 J-8.36365
G02 X62.27222 Y-36.25752 I-8.36365 J2.23159
G03 X62.19971 Y-36.60356 I0.13676 J-0.20927
G260
M08
G40
G00 X62.50349 Y-19.21227
(PartName=30-00141-410-1 CutLength=54.389 MarkLength=0.000 Weigth=100.1 Quantity=1)
G41
N8 M07
G261
G03 X62.71939 Y-18.39166 I-0.30235 J0.51825
G03 X61.89879 Y-18.17576 I-0.51826 J-0.30235
G02 X61.87277 Y-18.19088 I-4.36302 J7.47628
G02 X55.30515 Y-19.06257 I-4.33602 J7.49197
G02 X49.17310 Y-8.46732 I2.23160 J8.36365
G02 X59.76834 Y-2.33526 I8.36365 J-2.23159
G02 X65.90040 Y-12.93051 I-2.23160 J-8.36365
G02 X62.27222 Y-17.94502 I-8.36365 J2.23159
G03 X62.19971 Y-18.29106 I0.13676 J-0.20927
G260
M08
G40
G00 X78.46395 Y-46.85710
(PartName=30-00141-410-1 CutLength=54.389 MarkLength=0.000 Weigth=100.1 Quantity=1)
G41
N9 M07
G261
G03 X78.67985 Y-46.03650 I-0.30235 J0.51825
G03 X77.85925 Y-45.82060 I-0.51825 J-0.30235
G02 X77.83323 Y-45.83572 I-4.36189 J7.47628
G02 X71.26561 Y-46.70740 I-4.33602 J7.49197
G02 X65.13356 Y-36.11215 I2.23160 J8.36365
G02 X75.72880 Y-29.98010 I8.36365 J-2.23159
G02 X81.86086 Y-40.57534 I-2.23159 J-8.36365
G02 X78.23267 Y-45.58986 I-8.36366 J2.23160
G03 X78.16016 Y-45.93589 I0.13676 J-0.20927
G260
M08
G40
G00 X78.46395 Y-28.54460
(PartName=30-00141-410-1 CutLength=54.389 MarkLength=0.000 Weigth=100.1 Quantity=1)
G41
N10 M07
G261
G03 X78.67985 Y-27.72400 I-0.30235 J0.51825
G03 X77.85925 Y-27.50810 I-0.51825 J-0.30235
G02 X77.83323 Y-27.52322 I-4.36189 J7.47628
G02 X71.26561 Y-28.39490 I-4.33602 J7.49197
G02 X65.13356 Y-17.79965 I2.23160 J8.36365
G02 X75.72880 Y-11.66760 I8.36365 J-2.23159
G02 X81.86086 Y-22.26285 I-2.23159 J-8.36365
G02 X78.23267 Y-27.27736 I-8.36365 J2.23160
G03 X78.16016 Y-27.62339 I0.13676 J-0.20927
G260
M08
G40
G00 X94.42397 Y-37.52477
(PartName=30-00141-410-1 CutLength=54.389 MarkLength=0.000 Weigth=100.1 Quantity=1)
G41
N11 M07
G261
G03 X94.63987 Y-36.70416 I-0.30235 J0.51825
G03 X93.81927 Y-36.48826 I-0.51825 J-0.30235
G02 X93.79325 Y-36.50338 I-4.36302 J7.47628
G02 X87.22563 Y-37.37507 I-4.33602 J7.49197
G02 X81.09358 Y-26.77982 I2.23160 J8.36365
G02 X91.68882 Y-20.64776 I8.36365 J-2.23159
G02 X97.82088 Y-31.24301 I-2.23160 J-8.36365
G02 X94.19269 Y-36.25752 I-8.36365 J2.23160
G03 X94.12018 Y-36.60356 I0.13676 J-0.20927
G260
M08
G40
G00 X94.42397 Y-19.21227
(PartName=30-00141-410-1 CutLength=54.389 MarkLength=0.000 Weigth=100.1 Quantity=1)
G41
N12 M07
G261
G03 X94.63987 Y-18.39166 I-0.30235 J0.51825
G03 X93.81927 Y-18.17576 I-0.51825 J-0.30235
G02 X93.79325 Y-18.19088 I-4.36302 J7.47628
G02 X87.22563 Y-19.06257 I-4.33602 J7.49197
G02 X81.09358 Y-8.46732 I2.23160 J8.36365
G02 X91.68882 Y-2.33526 I8.36365 J-2.23159
G02 X97.82088 Y-12.93051 I-2.23160 J-8.36365
G02 X94.19269 Y-17.94502 I-8.36365 J2.23160
G03 X94.12018 Y-18.29106 I0.13676 J-0.20927
G260
M08
G40
G00 X110.38443 Y-46.85710
(PartName=30-00141-410-1 CutLength=54.389 MarkLength=0.000 Weigth=100.1 Quantity=1)
G41
N13 M07
G261
G03 X110.60033 Y-46.03650 I-0.30235 J0.51825
G03 X109.77972 Y-45.82060 I-0.51825 J-0.30235
G02 X109.75370 Y-45.83572 I-4.36189 J7.47628
G02 X103.18609 Y-46.70740 I-4.33602 J7.49197
G02 X97.05404 Y-36.11215 I2.23160 J8.36365
G02 X107.64928 Y-29.98010 I8.36365 J-2.23159
G02 X113.78134 Y-40.57535 I-2.23159 J-8.36365
G02 X110.15315 Y-45.58986 I-8.36365 J2.23159
G03 X110.08064 Y-45.93589 I0.13676 J-0.20927
G260
M08
G40
G00 X110.38443 Y-28.54460
(PartName=30-00141-410-1 CutLength=54.389 MarkLength=0.000 Weigth=100.1 Quantity=1)
G41
N14 M07
G261
G03 X110.60033 Y-27.72400 I-0.30235 J0.51825
G03 X109.77972 Y-27.50810 I-0.51825 J-0.30235
G02 X109.75370 Y-27.52322 I-4.36189 J7.47628
G02 X103.18609 Y-28.39490 I-4.33602 J7.49197
G02 X97.05404 Y-17.79965 I2.23160 J8.36365
G02 X107.64928 Y-11.66760 I8.36365 J-2.23159
G02 X113.78134 Y-22.26284 I-2.23159 J-8.36365
G02 X110.15315 Y-27.27736 I-8.36365 J2.23159
G03 X110.08064 Y-27.62339 I0.13676 J-0.20927
G260
M08
G40
(PlanFooterCommand)
M64
T0
M65
#CS OFF
M30
