(PP_NAME=PP_Din)
(PP_VERSION=	4.0)
(PP_INI_NAME=GC_US_PLASMA_4.2.ini)
(PP_INI_VERSION=2013-04-04)
(%%INFO MACHINE=HPRXD MS130)
(%%INFO Material=MS Thickness=0.75 PlateLength=120.000 PlateWidth=60.000)
(%%INFO PartName=40171945=196pcs=2.6lbs)
(%%INFO TotalCutLength=2742.183)
(%%INFO TotalPierceCount=196)
G70
G162
G141
G237
#CS ON [V.E.START_X, V.E.START_Y, 0, 0, 0, V.E.ROTATION]
M190
G90
#CONTOUR MODE[DEV PATH_DEV=0.008 RELEVANT_PATH=0.004]
(PlanHeaderCommand)
G00 X3.20292 Y-4.50495
T21
(PartName=40171945 CutLength=13.245 MarkLength=0.000 Weigth=2.6 Quantity=1)
G41
N1 M07
G261
G03 X2.82792 Y-4.12995 I-0.37500 J0.00000
G01 X1.44000 Y-4.12995
G02 X1.00000 Y-3.68995 I0.00000 J0.44000
G01 X1.00000 Y-1.12995
G02 X1.44000 Y-0.68995 I0.44000 J0.00000
G01 X4.12000 Y-0.68995
G02 X4.56000 Y-1.12995 I0.00000 J-0.44000
G01 X4.56000 Y-3.68995
G02 X4.12000 Y-4.12995 I-0.44000 J-0.00000
G01 X2.82792 Y-4.12995
G03 X2.72792 Y-4.22995 I0.00000 J-0.10000
G260
M08
G40
G00 X3.20292 Y-13.60835
(PartName=40171945 CutLength=13.245 MarkLength=0.000 Weigth=2.6 Quantity=1)
G41
N2 M07
G261
G03 X2.82792 Y-13.23335 I-0.37500 J-0.00000
G01 X1.44000 Y-13.23335
G02 X1.00000 Y-12.79335 I-0.00000 J0.44000
G01 X1.00000 Y-10.23335
G02 X1.44000 Y-9.79335 I0.44000 J-0.00000
G01 X4.12000 Y-9.79335
G02 X4.56000 Y-10.23335 I0.00000 J-0.44000
G01 X4.56000 Y-12.79335
G02 X4.12000 Y-13.23335 I-0.44000 J-0.00000
G01 X2.82792 Y-13.23335
G03 X2.72792 Y-13.33335 I0.00000 J-0.10000
G260
M08
G40
G00 X3.20292 Y-22.71174
(PartName=40171945 CutLength=13.245 MarkLength=0.000 Weigth=2.6 Quantity=1)
G41
N3 M07
G261
G03 X2.82792 Y-22.33674 I-0.37500 J0.00000
G01 X1.44000 Y-22.33674
G02 X1.00000 Y-21.89674 I0.00000 J0.44000
G01 X1.00000 Y-19.33674
G02 X1.44000 Y-18.89674 I0.44000 J0.00000
G01 X4.12000 Y-18.89674
G02 X4.56000 Y-19.33674 I-0.00000 J-0.44000
G01 X4.56000 Y-21.89674
G02 X4.12000 Y-22.33674 I-0.44000 J-0.00000
G01 X2.82792 Y-22.33674
G03 X2.72792 Y-22.43674 I0.00000 J-0.10000
G260
M08
G40
G00 X3.20292 Y-31.81513
(PartName=40171945 CutLength=13.245 MarkLength=0.000 Weigth=2.6 Quantity=1)
G41
N4 M07
G261
G03 X2.82792 Y-31.44013 I-0.37500 J0.00000
G01 X1.44000 Y-31.44013
G02 X1.00000 Y-31.00013 I0.00000 J0.44000
G01 X1.00000 Y-28.44013
G02 X1.44000 Y-28.00013 I0.44000 J0.00000
G01 X4.12000 Y-28.00013
G02 X4.56000 Y-28.44013 I-0.00000 J-0.44000
G01 X4.56000 Y-31.00013
G02 X4.12000 Y-31.44013 I-0.44000 J0.00000
G01 X2.82792 Y-31.44013
G03 X2.72792 Y-31.54013 I0.00000 J-0.10000
G260
M08
G40
G00 X3.20292 Y-40.91853
(PartName=40171945 CutLength=13.245 MarkLength=0.000 Weigth=2.6 Quantity=1)
G41
N5 M07
G261
G03 X2.82792 Y-40.54353 I-0.37500 J0.00000
G01 X1.44000 Y-40.54353
G02 X1.00000 Y-40.10353 I-0.00000 J0.44000
G01 X1.00000 Y-37.54353
G02 X1.44000 Y-37.10353 I0.44000 J0.00000
G01 X4.12000 Y-37.10353
G02 X4.56000 Y-37.54353 I0.00000 J-0.44000
G01 X4.56000 Y-40.10353
G02 X4.12000 Y-40.54353 I-0.44000 J0.00000
G01 X2.82792 Y-40.54353
G03 X2.72792 Y-40.64353 I0.00000 J-0.10000
G260
M08
G40
G00 X3.20292 Y-50.02192
(PartName=40171945 CutLength=13.245 MarkLength=0.000 Weigth=2.6 Quantity=1)
G41
N6 M07
G261
G03 X2.82792 Y-49.64692 I-0.37500 J0.00000
G01 X1.44000 Y-49.64692
G02 X1.00000 Y-49.20692 I-0.00000 J0.44000
G01 X1.00000 Y-46.64692
G02 X1.44000 Y-46.20692 I0.44000 J0.00000
G01 X4.12000 Y-46.20692
G02 X4.56000 Y-46.64692 I0.00000 J-0.44000
G01 X4.56000 Y-49.20692
G02 X4.12000 Y-49.64692 I-0.44000 J0.00000
G01 X2.82792 Y-49.64692
G03 X2.72792 Y-49.74692 I-0.00000 J-0.10000
G260
M08
G40
G00 X3.20292 Y-59.11706
(PartName=40171945 CutLength=13.245 MarkLength=0.000 Weigth=2.6 Quantity=1)
G41
N7 M07
G261
G03 X2.82792 Y-58.74206 I-0.37500 J0.00000
G01 X1.44000 Y-58.74206
G02 X1.00000 Y-58.30206 I-0.00000 J0.44000
G01 X1.00000 Y-55.74206
G02 X1.44000 Y-55.30206 I0.44000 J0.00000
G01 X4.12000 Y-55.30206
G02 X4.56000 Y-55.74206 I0.00000 J-0.44000
G01 X4.56000 Y-58.30206
G02 X4.12000 Y-58.74206 I-0.44000 J0.00000
G01 X2.82792 Y-58.74206
G03 X2.72792 Y-58.84206 I0.00000 J-0.10000
G260
M08
G40
G00 X3.20292 Y-9.05665
(PartName=40171945 CutLength=13.245 MarkLength=0.000 Weigth=2.6 Quantity=1)
G41
N8 M07
G261
G03 X2.82792 Y-8.68165 I-0.37500 J0.00000
G01 X1.44000 Y-8.68165
G02 X1.00000 Y-8.24165 I-0.00000 J0.44000
G01 X1.00000 Y-5.68165
G02 X1.44000 Y-5.24165 I0.44000 J0.00000
G01 X4.12000 Y-5.24165
G02 X4.56000 Y-5.68165 I0.00000 J-0.44000
G01 X4.56000 Y-8.24165
G02 X4.12000 Y-8.68165 I-0.44000 J0.00000
G01 X2.82792 Y-8.68165
G03 X2.72792 Y-8.78165 I0.00000 J-0.10000
G260
M08
G40
G00 X3.20292 Y-18.16004
(PartName=40171945 CutLength=13.245 MarkLength=0.000 Weigth=2.6 Quantity=1)
G41
N9 M07
G261
G03 X2.82792 Y-17.78504 I-0.37500 J0.00000
G01 X1.44000 Y-17.78504
G02 X1.00000 Y-17.34504 I0.00000 J0.44000
G01 X1.00000 Y-14.78504
G02 X1.44000 Y-14.34504 I0.44000 J-0.00000
G01 X4.12000 Y-14.34504
G02 X4.56000 Y-14.78504 I0.00000 J-0.44000
G01 X4.56000 Y-17.34504
G02 X4.12000 Y-17.78504 I-0.44000 J0.00000
G01 X2.82792 Y-17.78504
G03 X2.72792 Y-17.88504 I0.00000 J-0.10000
G260
M08
G40
G00 X3.20292 Y-27.26344
(PartName=40171945 CutLength=13.245 MarkLength=0.000 Weigth=2.6 Quantity=1)
G41
N10 M07
G261
G03 X2.82792 Y-26.88844 I-0.37500 J0.00000
G01 X1.44000 Y-26.88844
G02 X1.00000 Y-26.44844 I0.00000 J0.44000
G01 X1.00000 Y-23.88844
G02 X1.44000 Y-23.44844 I0.44000 J0.00000
G01 X4.12000 Y-23.44844
G02 X4.56000 Y-23.88844 I-0.00000 J-0.44000
G01 X4.56000 Y-26.44844
G02 X4.12000 Y-26.88844 I-0.44000 J-0.00000
G01 X2.82792 Y-26.88844
G03 X2.72792 Y-26.98844 I-0.00000 J-0.10000
G260
M08
G40
G00 X3.20292 Y-36.36683
(PartName=40171945 CutLength=13.245 MarkLength=0.000 Weigth=2.6 Quantity=1)
G41
N11 M07
G261
G03 X2.82792 Y-35.99183 I-0.37500 J0.00000
G01 X1.44000 Y-35.99183
G02 X1.00000 Y-35.55183 I0.00000 J0.44000
G01 X1.00000 Y-32.99183
G02 X1.44000 Y-32.55183 I0.44000 J0.00000
G01 X4.12000 Y-32.55183
G02 X4.56000 Y-32.99183 I-0.00000 J-0.44000
G01 X4.56000 Y-35.55183
G02 X4.12000 Y-35.99183 I-0.44000 J0.00000
G01 X2.82792 Y-35.99183
G03 X2.72792 Y-36.09183 I-0.00000 J-0.10000
G260
M08
G40
G00 X3.20292 Y-45.47022
(PartName=40171945 CutLength=13.245 MarkLength=0.000 Weigth=2.6 Quantity=1)
G41
N12 M07
G261
G03 X2.82792 Y-45.09522 I-0.37500 J0.00000
G01 X1.44000 Y-45.09522
G02 X1.00000 Y-44.65522 I-0.00000 J0.44000
G01 X1.00000 Y-42.09522
G02 X1.44000 Y-41.65522 I0.44000 J-0.00000
G01 X4.12000 Y-41.65522
G02 X4.56000 Y-42.09522 I0.00000 J-0.44000
G01 X4.56000 Y-44.65522
G02 X4.12000 Y-45.09522 I-0.44000 J0.00000
G01 X2.82792 Y-45.09522
G03 X2.72792 Y-45.19522 I-0.00000 J-0.10000
G260
M08
G40
G00 X3.20292 Y-54.57362
(PartName=40171945 CutLength=13.245 MarkLength=0.000 Weigth=2.6 Quantity=1)
G41
N13 M07
G261
G03 X2.82792 Y-54.19862 I-0.37500 J0.00000
G01 X1.44000 Y-54.19862
G02 X1.00000 Y-53.75862 I-0.00000 J0.44000
G01 X1.00000 Y-51.19862
G02 X1.44000 Y-50.75862 I0.44000 J0.00000
G01 X4.12000 Y-50.75862
G02 X4.56000 Y-51.19862 I0.00000 J-0.44000
G01 X4.56000 Y-53.75862
G02 X4.12000 Y-54.19862 I-0.44000 J0.00000
G01 X2.82792 Y-54.19862
G03 X2.72792 Y-54.29862 I0.00000 J-0.10000
G260
M08
G40
G00 X7.51292 Y-4.50495
(PartName=40171945 CutLength=13.245 MarkLength=0.000 Weigth=2.6 Quantity=1)
G41
N14 M07
G261
G03 X7.13792 Y-4.12995 I-0.37500 J0.00000
G01 X5.75000 Y-4.12995
G02 X5.31000 Y-3.68995 I-0.00000 J0.44000
G01 X5.31000 Y-1.12995
G02 X5.75000 Y-0.68995 I0.44000 J0.00000
G01 X8.43000 Y-0.68995
G02 X8.87000 Y-1.12995 I-0.00000 J-0.44000
G01 X8.87000 Y-3.68995
G02 X8.43000 Y-4.12995 I-0.44000 J-0.00000
G01 X7.13792 Y-4.12995
G03 X7.03792 Y-4.22995 I0.00000 J-0.10000
G260
M08
G40
G00 X7.51292 Y-13.60835
(PartName=40171945 CutLength=13.245 MarkLength=0.000 Weigth=2.6 Quantity=1)
G41
N15 M07
G261
G03 X7.13792 Y-13.23335 I-0.37500 J-0.00000
G01 X5.75000 Y-13.23335
G02 X5.31000 Y-12.79335 I-0.00000 J0.44000
G01 X5.31000 Y-10.23335
G02 X5.75000 Y-9.79335 I0.44000 J0.00000
G01 X8.43000 Y-9.79335
G02 X8.87000 Y-10.23335 I0.00000 J-0.44000
G01 X8.87000 Y-12.79335
G02 X8.43000 Y-13.23335 I-0.44000 J-0.00000
G01 X7.13792 Y-13.23335
G03 X7.03792 Y-13.33335 I0.00000 J-0.10000
G260
M08
G40
G00 X7.51292 Y-22.71174
(PartName=40171945 CutLength=13.245 MarkLength=0.000 Weigth=2.6 Quantity=1)
G41
N16 M07
G261
G03 X7.13792 Y-22.33674 I-0.37500 J0.00000
G01 X5.75000 Y-22.33674
G02 X5.31000 Y-21.89674 I0.00000 J0.44000
G01 X5.31000 Y-19.33674
G02 X5.75000 Y-18.89674 I0.44000 J0.00000
G01 X8.43000 Y-18.89674
G02 X8.87000 Y-19.33674 I-0.00000 J-0.44000
G01 X8.87000 Y-21.89674
G02 X8.43000 Y-22.33674 I-0.44000 J-0.00000
G01 X7.13792 Y-22.33674
G03 X7.03792 Y-22.43674 I0.00000 J-0.10000
G260
M08
G40
G00 X7.51292 Y-31.81513
(PartName=40171945 CutLength=13.245 MarkLength=0.000 Weigth=2.6 Quantity=1)
G41
N17 M07
G261
G03 X7.13792 Y-31.44013 I-0.37500 J0.00000
G01 X5.75000 Y-31.44013
G02 X5.31000 Y-31.00013 I0.00000 J0.44000
G01 X5.31000 Y-28.44013
G02 X5.75000 Y-28.00013 I0.44000 J0.00000
G01 X8.43000 Y-28.00013
G02 X8.87000 Y-28.44013 I-0.00000 J-0.44000
G01 X8.87000 Y-31.00013
G02 X8.43000 Y-31.44013 I-0.44000 J0.00000
G01 X7.13792 Y-31.44013
G03 X7.03792 Y-31.54013 I0.00000 J-0.10000
G260
M08
G40
G00 X7.51292 Y-40.91853
(PartName=40171945 CutLength=13.245 MarkLength=0.000 Weigth=2.6 Quantity=1)
G41
N18 M07
G261
G03 X7.13792 Y-40.54353 I-0.37500 J0.00000
G01 X5.75000 Y-40.54353
G02 X5.31000 Y-40.10353 I-0.00000 J0.44000
G01 X5.31000 Y-37.54353
G02 X5.75000 Y-37.10353 I0.44000 J0.00000
G01 X8.43000 Y-37.10353
G02 X8.87000 Y-37.54353 I0.00000 J-0.44000
G01 X8.87000 Y-40.10353
G02 X8.43000 Y-40.54353 I-0.44000 J0.00000
G01 X7.13792 Y-40.54353
G03 X7.03792 Y-40.64353 I0.00000 J-0.10000
G260
M08
G40
G00 X7.51292 Y-50.02192
(PartName=40171945 CutLength=13.245 MarkLength=0.000 Weigth=2.6 Quantity=1)
G41
N19 M07
G261
G03 X7.13792 Y-49.64692 I-0.37500 J0.00000
G01 X5.75000 Y-49.64692
G02 X5.31000 Y-49.20692 I-0.00000 J0.44000
G01 X5.31000 Y-46.64692
G02 X5.75000 Y-46.20692 I0.44000 J0.00000
G01 X8.43000 Y-46.20692
G02 X8.87000 Y-46.64692 I0.00000 J-0.44000
G01 X8.87000 Y-49.20692
G02 X8.43000 Y-49.64692 I-0.44000 J0.00000
G01 X7.13792 Y-49.64692
G03 X7.03792 Y-49.74692 I-0.00000 J-0.10000
G260
M08
G40
G00 X7.51292 Y-59.11706
(PartName=40171945 CutLength=13.245 MarkLength=0.000 Weigth=2.6 Quantity=1)
G41
N20 M07
G261
G03 X7.13792 Y-58.74206 I-0.37500 J0.00000
G01 X5.75000 Y-58.74206
G02 X5.31000 Y-58.30206 I-0.00000 J0.44000
G01 X5.31000 Y-55.74206
G02 X5.75000 Y-55.30206 I0.44000 J0.00000
G01 X8.43000 Y-55.30206
G02 X8.87000 Y-55.74206 I0.00000 J-0.44000
G01 X8.87000 Y-58.30206
G02 X8.43000 Y-58.74206 I-0.44000 J0.00000
G01 X7.13792 Y-58.74206
G03 X7.03792 Y-58.84206 I0.00000 J-0.10000
G260
M08
G40
G00 X7.51292 Y-9.05665
(PartName=40171945 CutLength=13.245 MarkLength=0.000 Weigth=2.6 Quantity=1)
G41
N21 M07
G261
G03 X7.13792 Y-8.68165 I-0.37500 J0.00000
G01 X5.75000 Y-8.68165
G02 X5.31000 Y-8.24165 I-0.00000 J0.44000
G01 X5.31000 Y-5.68165
G02 X5.75000 Y-5.24165 I0.44000 J0.00000
G01 X8.43000 Y-5.24165
G02 X8.87000 Y-5.68165 I0.00000 J-0.44000
G01 X8.87000 Y-8.24165
G02 X8.43000 Y-8.68165 I-0.44000 J0.00000
G01 X7.13792 Y-8.68165
G03 X7.03792 Y-8.78165 I0.00000 J-0.10000
G260
M08
G40
G00 X7.51292 Y-18.16004
(PartName=40171945 CutLength=13.245 MarkLength=0.000 Weigth=2.6 Quantity=1)
G41
N22 M07
G261
G03 X7.13792 Y-17.78504 I-0.37500 J0.00000
G01 X5.75000 Y-17.78504
G02 X5.31000 Y-17.34504 I0.00000 J0.44000
G01 X5.31000 Y-14.78504
G02 X5.75000 Y-14.34504 I0.44000 J0.00000
G01 X8.43000 Y-14.34504
G02 X8.87000 Y-14.78504 I0.00000 J-0.44000
G01 X8.87000 Y-17.34504
G02 X8.43000 Y-17.78504 I-0.44000 J0.00000
G01 X7.13792 Y-17.78504
G03 X7.03792 Y-17.88504 I0.00000 J-0.10000
G260
M08
G40
G00 X7.51292 Y-27.26344
(PartName=40171945 CutLength=13.245 MarkLength=0.000 Weigth=2.6 Quantity=1)
G41
N23 M07
G261
G03 X7.13792 Y-26.88844 I-0.37500 J0.00000
G01 X5.75000 Y-26.88844
G02 X5.31000 Y-26.44844 I0.00000 J0.44000
G01 X5.31000 Y-23.88844
G02 X5.75000 Y-23.44844 I0.44000 J0.00000
G01 X8.43000 Y-23.44844
G02 X8.87000 Y-23.88844 I-0.00000 J-0.44000
G01 X8.87000 Y-26.44844
G02 X8.43000 Y-26.88844 I-0.44000 J-0.00000
G01 X7.13792 Y-26.88844
G03 X7.03792 Y-26.98844 I-0.00000 J-0.10000
G260
M08
G40
G00 X7.51292 Y-36.36683
(PartName=40171945 CutLength=13.245 MarkLength=0.000 Weigth=2.6 Quantity=1)
G41
N24 M07
G261
G03 X7.13792 Y-35.99183 I-0.37500 J0.00000
G01 X5.75000 Y-35.99183
G02 X5.31000 Y-35.55183 I0.00000 J0.44000
G01 X5.31000 Y-32.99183
G02 X5.75000 Y-32.55183 I0.44000 J0.00000
G01 X8.43000 Y-32.55183
G02 X8.87000 Y-32.99183 I-0.00000 J-0.44000
G01 X8.87000 Y-35.55183
G02 X8.43000 Y-35.99183 I-0.44000 J0.00000
G01 X7.13792 Y-35.99183
G03 X7.03792 Y-36.09183 I-0.00000 J-0.10000
G260
M08
G40
G00 X7.51292 Y-45.47022
(PartName=40171945 CutLength=13.245 MarkLength=0.000 Weigth=2.6 Quantity=1)
G41
N25 M07
G261
G03 X7.13792 Y-45.09522 I-0.37500 J0.00000
G01 X5.75000 Y-45.09522
G02 X5.31000 Y-44.65522 I-0.00000 J0.44000
G01 X5.31000 Y-42.09522
G02 X5.75000 Y-41.65522 I0.44000 J-0.00000
G01 X8.43000 Y-41.65522
G02 X8.87000 Y-42.09522 I0.00000 J-0.44000
G01 X8.87000 Y-44.65522
G02 X8.43000 Y-45.09522 I-0.44000 J0.00000
G01 X7.13792 Y-45.09522
G03 X7.03792 Y-45.19522 I-0.00000 J-0.10000
G260
M08
G40
G00 X7.51292 Y-54.57362
(PartName=40171945 CutLength=13.245 MarkLength=0.000 Weigth=2.6 Quantity=1)
G41
N26 M07
G261
G03 X7.13792 Y-54.19862 I-0.37500 J0.00000
G01 X5.75000 Y-54.19862
G02 X5.31000 Y-53.75862 I-0.00000 J0.44000
G01 X5.31000 Y-51.19862
G02 X5.75000 Y-50.75862 I0.44000 J0.00000
G01 X8.43000 Y-50.75862
G02 X8.87000 Y-51.19862 I0.00000 J-0.44000
G01 X8.87000 Y-53.75862
G02 X8.43000 Y-54.19862 I-0.44000 J0.00000
G01 X7.13792 Y-54.19862
G03 X7.03792 Y-54.29862 I0.00000 J-0.10000
G260
M08
G40
G00 X11.82292 Y-4.50495
(PartName=40171945 CutLength=13.245 MarkLength=0.000 Weigth=2.6 Quantity=1)
G41
N27 M07
G261
G03 X11.44792 Y-4.12995 I-0.37500 J0.00000
G01 X10.06000 Y-4.12995
G02 X9.62000 Y-3.68995 I0.00000 J0.44000
G01 X9.62000 Y-1.12995
G02 X10.06000 Y-0.68995 I0.44000 J0.00000
G01 X12.74000 Y-0.68995
G02 X13.18000 Y-1.12995 I0.00000 J-0.44000
G01 X13.18000 Y-3.68995
G02 X12.74000 Y-4.12995 I-0.44000 J-0.00000
G01 X11.44792 Y-4.12995
G03 X11.34792 Y-4.22995 I0.00000 J-0.10000
G260
M08
G40
G00 X11.82292 Y-13.60835
(PartName=40171945 CutLength=13.245 MarkLength=0.000 Weigth=2.6 Quantity=1)
G41
N28 M07
G261
G03 X11.44792 Y-13.23335 I-0.37500 J-0.00000
G01 X10.06000 Y-13.23335
G02 X9.62000 Y-12.79335 I0.00000 J0.44000
G01 X9.62000 Y-10.23335
G02 X10.06000 Y-9.79335 I0.44000 J0.00000
G01 X12.74000 Y-9.79335
G02 X13.18000 Y-10.23335 I0.00000 J-0.44000
G01 X13.18000 Y-12.79335
G02 X12.74000 Y-13.23335 I-0.44000 J-0.00000
G01 X11.44792 Y-13.23335
G03 X11.34792 Y-13.33335 I0.00000 J-0.10000
G260
M08
G40
G00 X11.82292 Y-22.71174
(PartName=40171945 CutLength=13.245 MarkLength=0.000 Weigth=2.6 Quantity=1)
G41
N29 M07
G261
G03 X11.44792 Y-22.33674 I-0.37500 J0.00000
G01 X10.06000 Y-22.33674
G02 X9.62000 Y-21.89674 I0.00000 J0.44000
G01 X9.62000 Y-19.33674
G02 X10.06000 Y-18.89674 I0.44000 J0.00000
G01 X12.74000 Y-18.89674
G02 X13.18000 Y-19.33674 I0.00000 J-0.44000
G01 X13.18000 Y-21.89674
G02 X12.74000 Y-22.33674 I-0.44000 J-0.00000
G01 X11.44792 Y-22.33674
G03 X11.34792 Y-22.43674 I0.00000 J-0.10000
G260
M08
G40
G00 X11.82292 Y-31.81513
(PartName=40171945 CutLength=13.245 MarkLength=0.000 Weigth=2.6 Quantity=1)
G41
N30 M07
G261
G03 X11.44792 Y-31.44013 I-0.37500 J0.00000
G01 X10.06000 Y-31.44013
G02 X9.62000 Y-31.00013 I0.00000 J0.44000
G01 X9.62000 Y-28.44013
G02 X10.06000 Y-28.00013 I0.44000 J0.00000
G01 X12.74000 Y-28.00013
G02 X13.18000 Y-28.44013 I0.00000 J-0.44000
G01 X13.18000 Y-31.00013
G02 X12.74000 Y-31.44013 I-0.44000 J0.00000
G01 X11.44792 Y-31.44013
G03 X11.34792 Y-31.54013 I0.00000 J-0.10000
G260
M08
G40
G00 X11.82292 Y-40.91853
(PartName=40171945 CutLength=13.245 MarkLength=0.000 Weigth=2.6 Quantity=1)
G41
N31 M07
G261
G03 X11.44792 Y-40.54353 I-0.37500 J0.00000
G01 X10.06000 Y-40.54353
G02 X9.62000 Y-40.10353 I-0.00000 J0.44000
G01 X9.62000 Y-37.54353
G02 X10.06000 Y-37.10353 I0.44000 J0.00000
G01 X12.74000 Y-37.10353
G02 X13.18000 Y-37.54353 I0.00000 J-0.44000
G01 X13.18000 Y-40.10353
G02 X12.74000 Y-40.54353 I-0.44000 J0.00000
G01 X11.44792 Y-40.54353
G03 X11.34792 Y-40.64353 I0.00000 J-0.10000
G260
M08
G40
G00 X11.82292 Y-50.02192
(PartName=40171945 CutLength=13.245 MarkLength=0.000 Weigth=2.6 Quantity=1)
G41
N32 M07
G261
G03 X11.44792 Y-49.64692 I-0.37500 J0.00000
G01 X10.06000 Y-49.64692
G02 X9.62000 Y-49.20692 I-0.00000 J0.44000
G01 X9.62000 Y-46.64692
G02 X10.06000 Y-46.20692 I0.44000 J0.00000
G01 X12.74000 Y-46.20692
G02 X13.18000 Y-46.64692 I0.00000 J-0.44000
G01 X13.18000 Y-49.20692
G02 X12.74000 Y-49.64692 I-0.44000 J0.00000
G01 X11.44792 Y-49.64692
G03 X11.34792 Y-49.74692 I-0.00000 J-0.10000
G260
M08
G40
G00 X11.82292 Y-59.11706
(PartName=40171945 CutLength=13.245 MarkLength=0.000 Weigth=2.6 Quantity=1)
G41
N33 M07
G261
G03 X11.44792 Y-58.74206 I-0.37500 J0.00000
G01 X10.06000 Y-58.74206
G02 X9.62000 Y-58.30206 I-0.00000 J0.44000
G01 X9.62000 Y-55.74206
G02 X10.06000 Y-55.30206 I0.44000 J0.00000
G01 X12.74000 Y-55.30206
G02 X13.18000 Y-55.74206 I0.00000 J-0.44000
G01 X13.18000 Y-58.30206
G02 X12.74000 Y-58.74206 I-0.44000 J0.00000
G01 X11.44792 Y-58.74206
G03 X11.34792 Y-58.84206 I0.00000 J-0.10000
G260
M08
G40
G00 X11.82292 Y-9.05665
(PartName=40171945 CutLength=13.245 MarkLength=0.000 Weigth=2.6 Quantity=1)
G41
N34 M07
G261
G03 X11.44792 Y-8.68165 I-0.37500 J0.00000
G01 X10.06000 Y-8.68165
G02 X9.62000 Y-8.24165 I0.00000 J0.44000
G01 X9.62000 Y-5.68165
G02 X10.06000 Y-5.24165 I0.44000 J0.00000
G01 X12.74000 Y-5.24165
G02 X13.18000 Y-5.68165 I0.00000 J-0.44000
G01 X13.18000 Y-8.24165
G02 X12.74000 Y-8.68165 I-0.44000 J0.00000
G01 X11.44792 Y-8.68165
G03 X11.34792 Y-8.78165 I0.00000 J-0.10000
G260
M08
G40
G00 X11.82292 Y-18.16004
(PartName=40171945 CutLength=13.245 MarkLength=0.000 Weigth=2.6 Quantity=1)
G41
N35 M07
G261
G03 X11.44792 Y-17.78504 I-0.37500 J0.00000
G01 X10.06000 Y-17.78504
G02 X9.62000 Y-17.34504 I0.00000 J0.44000
G01 X9.62000 Y-14.78504
G02 X10.06000 Y-14.34504 I0.44000 J0.00000
G01 X12.74000 Y-14.34504
G02 X13.18000 Y-14.78504 I0.00000 J-0.44000
G01 X13.18000 Y-17.34504
G02 X12.74000 Y-17.78504 I-0.44000 J0.00000
G01 X11.44792 Y-17.78504
G03 X11.34792 Y-17.88504 I0.00000 J-0.10000
G260
M08
G40
G00 X11.82292 Y-27.26344
(PartName=40171945 CutLength=13.245 MarkLength=0.000 Weigth=2.6 Quantity=1)
G41
N36 M07
G261
G03 X11.44792 Y-26.88844 I-0.37500 J0.00000
G01 X10.06000 Y-26.88844
G02 X9.62000 Y-26.44844 I0.00000 J0.44000
G01 X9.62000 Y-23.88844
G02 X10.06000 Y-23.44844 I0.44000 J0.00000
G01 X12.74000 Y-23.44844
G02 X13.18000 Y-23.88844 I0.00000 J-0.44000
G01 X13.18000 Y-26.44844
G02 X12.74000 Y-26.88844 I-0.44000 J-0.00000
G01 X11.44792 Y-26.88844
G03 X11.34792 Y-26.98844 I-0.00000 J-0.10000
G260
M08
G40
G00 X11.82292 Y-36.36683
(PartName=40171945 CutLength=13.245 MarkLength=0.000 Weigth=2.6 Quantity=1)
G41
N37 M07
G261
G03 X11.44792 Y-35.99183 I-0.37500 J0.00000
G01 X10.06000 Y-35.99183
G02 X9.62000 Y-35.55183 I0.00000 J0.44000
G01 X9.62000 Y-32.99183
G02 X10.06000 Y-32.55183 I0.44000 J0.00000
G01 X12.74000 Y-32.55183
G02 X13.18000 Y-32.99183 I-0.00000 J-0.44000
G01 X13.18000 Y-35.55183
G02 X12.74000 Y-35.99183 I-0.44000 J0.00000
G01 X11.44792 Y-35.99183
G03 X11.34792 Y-36.09183 I-0.00000 J-0.10000
G260
M08
G40
G00 X11.82292 Y-45.47022
(PartName=40171945 CutLength=13.245 MarkLength=0.000 Weigth=2.6 Quantity=1)
G41
N38 M07
G261
G03 X11.44792 Y-45.09522 I-0.37500 J0.00000
G01 X10.06000 Y-45.09522
G02 X9.62000 Y-44.65522 I-0.00000 J0.44000
G01 X9.62000 Y-42.09522
G02 X10.06000 Y-41.65522 I0.44000 J-0.00000
G01 X12.74000 Y-41.65522
G02 X13.18000 Y-42.09522 I0.00000 J-0.44000
G01 X13.18000 Y-44.65522
G02 X12.74000 Y-45.09522 I-0.44000 J0.00000
G01 X11.44792 Y-45.09522
G03 X11.34792 Y-45.19522 I-0.00000 J-0.10000
G260
M08
G40
G00 X11.82292 Y-54.57362
(PartName=40171945 CutLength=13.245 MarkLength=0.000 Weigth=2.6 Quantity=1)
G41
N39 M07
G261
G03 X11.44792 Y-54.19862 I-0.37500 J0.00000
G01 X10.06000 Y-54.19862
G02 X9.62000 Y-53.75862 I-0.00000 J0.44000
G01 X9.62000 Y-51.19862
G02 X10.06000 Y-50.75862 I0.44000 J0.00000
G01 X12.74000 Y-50.75862
G02 X13.18000 Y-51.19862 I0.00000 J-0.44000
G01 X13.18000 Y-53.75862
G02 X12.74000 Y-54.19862 I-0.44000 J0.00000
G01 X11.44792 Y-54.19862
G03 X11.34792 Y-54.29862 I0.00000 J-0.10000
G260
M08
G40
G00 X16.13292 Y-4.50495
(PartName=40171945 CutLength=13.245 MarkLength=0.000 Weigth=2.6 Quantity=1)
G41
N40 M07
G261
G03 X15.75792 Y-4.12995 I-0.37500 J0.00000
G01 X14.37000 Y-4.12995
G02 X13.93000 Y-3.68995 I0.00000 J0.44000
G01 X13.93000 Y-1.12995
G02 X14.37000 Y-0.68995 I0.44000 J0.00000
G01 X17.05000 Y-0.68995
G02 X17.49000 Y-1.12995 I0.00000 J-0.44000
G01 X17.49000 Y-3.68995
G02 X17.05000 Y-4.12995 I-0.44000 J-0.00000
G01 X15.75792 Y-4.12995
G03 X15.65792 Y-4.22995 I0.00000 J-0.10000
G260
M08
G40
G00 X16.13292 Y-13.60835
(PartName=40171945 CutLength=13.245 MarkLength=0.000 Weigth=2.6 Quantity=1)
G41
N41 M07
G261
G03 X15.75792 Y-13.23335 I-0.37500 J-0.00000
G01 X14.37000 Y-13.23335
G02 X13.93000 Y-12.79335 I0.00000 J0.44000
G01 X13.93000 Y-10.23335
G02 X14.37000 Y-9.79335 I0.44000 J0.00000
G01 X17.05000 Y-9.79335
G02 X17.49000 Y-10.23335 I0.00000 J-0.44000
G01 X17.49000 Y-12.79335
G02 X17.05000 Y-13.23335 I-0.44000 J-0.00000
G01 X15.75792 Y-13.23335
G03 X15.65792 Y-13.33335 I0.00000 J-0.10000
G260
M08
G40
G00 X16.13292 Y-22.71174
(PartName=40171945 CutLength=13.245 MarkLength=0.000 Weigth=2.6 Quantity=1)
G41
N42 M07
G261
G03 X15.75792 Y-22.33674 I-0.37500 J0.00000
G01 X14.37000 Y-22.33674
G02 X13.93000 Y-21.89674 I0.00000 J0.44000
G01 X13.93000 Y-19.33674
G02 X14.37000 Y-18.89674 I0.44000 J0.00000
G01 X17.05000 Y-18.89674
G02 X17.49000 Y-19.33674 I0.00000 J-0.44000
G01 X17.49000 Y-21.89674
G02 X17.05000 Y-22.33674 I-0.44000 J-0.00000
G01 X15.75792 Y-22.33674
G03 X15.65792 Y-22.43674 I0.00000 J-0.10000
G260
M08
G40
G00 X16.13292 Y-31.81513
(PartName=40171945 CutLength=13.245 MarkLength=0.000 Weigth=2.6 Quantity=1)
G41
N43 M07
G261
G03 X15.75792 Y-31.44013 I-0.37500 J0.00000
G01 X14.37000 Y-31.44013
G02 X13.93000 Y-31.00013 I0.00000 J0.44000
G01 X13.93000 Y-28.44013
G02 X14.37000 Y-28.00013 I0.44000 J0.00000
G01 X17.05000 Y-28.00013
G02 X17.49000 Y-28.44013 I0.00000 J-0.44000
G01 X17.49000 Y-31.00013
G02 X17.05000 Y-31.44013 I-0.44000 J0.00000
G01 X15.75792 Y-31.44013
G03 X15.65792 Y-31.54013 I0.00000 J-0.10000
G260
M08
G40
G00 X16.13292 Y-40.91853
(PartName=40171945 CutLength=13.245 MarkLength=0.000 Weigth=2.6 Quantity=1)
G41
N44 M07
G261
G03 X15.75792 Y-40.54353 I-0.37500 J0.00000
G01 X14.37000 Y-40.54353
G02 X13.93000 Y-40.10353 I-0.00000 J0.44000
G01 X13.93000 Y-37.54353
G02 X14.37000 Y-37.10353 I0.44000 J0.00000
G01 X17.05000 Y-37.10353
G02 X17.49000 Y-37.54353 I0.00000 J-0.44000
G01 X17.49000 Y-40.10353
G02 X17.05000 Y-40.54353 I-0.44000 J0.00000
G01 X15.75792 Y-40.54353
G03 X15.65792 Y-40.64353 I0.00000 J-0.10000
G260
M08
G40
G00 X16.13292 Y-50.02192
(PartName=40171945 CutLength=13.245 MarkLength=0.000 Weigth=2.6 Quantity=1)
G41
N45 M07
G261
G03 X15.75792 Y-49.64692 I-0.37500 J0.00000
G01 X14.37000 Y-49.64692
G02 X13.93000 Y-49.20692 I-0.00000 J0.44000
G01 X13.93000 Y-46.64692
G02 X14.37000 Y-46.20692 I0.44000 J0.00000
G01 X17.05000 Y-46.20692
G02 X17.49000 Y-46.64692 I0.00000 J-0.44000
G01 X17.49000 Y-49.20692
G02 X17.05000 Y-49.64692 I-0.44000 J0.00000
G01 X15.75792 Y-49.64692
G03 X15.65792 Y-49.74692 I-0.00000 J-0.10000
G260
M08
G40
G00 X16.13292 Y-59.11706
(PartName=40171945 CutLength=13.245 MarkLength=0.000 Weigth=2.6 Quantity=1)
G41
N46 M07
G261
G03 X15.75792 Y-58.74206 I-0.37500 J0.00000
G01 X14.37000 Y-58.74206
G02 X13.93000 Y-58.30206 I-0.00000 J0.44000
G01 X13.93000 Y-55.74206
G02 X14.37000 Y-55.30206 I0.44000 J0.00000
G01 X17.05000 Y-55.30206
G02 X17.49000 Y-55.74206 I0.00000 J-0.44000
G01 X17.49000 Y-58.30206
G02 X17.05000 Y-58.74206 I-0.44000 J0.00000
G01 X15.75792 Y-58.74206
G03 X15.65792 Y-58.84206 I0.00000 J-0.10000
G260
M08
G40
G00 X16.13292 Y-9.05665
(PartName=40171945 CutLength=13.245 MarkLength=0.000 Weigth=2.6 Quantity=1)
G41
N47 M07
G261
G03 X15.75792 Y-8.68165 I-0.37500 J0.00000
G01 X14.37000 Y-8.68165
G02 X13.93000 Y-8.24165 I0.00000 J0.44000
G01 X13.93000 Y-5.68165
G02 X14.37000 Y-5.24165 I0.44000 J0.00000
G01 X17.05000 Y-5.24165
G02 X17.49000 Y-5.68165 I0.00000 J-0.44000
G01 X17.49000 Y-8.24165
G02 X17.05000 Y-8.68165 I-0.44000 J0.00000
G01 X15.75792 Y-8.68165
G03 X15.65792 Y-8.78165 I0.00000 J-0.10000
G260
M08
G40
G00 X16.13292 Y-18.16004
(PartName=40171945 CutLength=13.245 MarkLength=0.000 Weigth=2.6 Quantity=1)
G41
N48 M07
G261
G03 X15.75792 Y-17.78504 I-0.37500 J0.00000
G01 X14.37000 Y-17.78504
G02 X13.93000 Y-17.34504 I0.00000 J0.44000
G01 X13.93000 Y-14.78504
G02 X14.37000 Y-14.34504 I0.44000 J0.00000
G01 X17.05000 Y-14.34504
G02 X17.49000 Y-14.78504 I0.00000 J-0.44000
G01 X17.49000 Y-17.34504
G02 X17.05000 Y-17.78504 I-0.44000 J0.00000
G01 X15.75792 Y-17.78504
G03 X15.65792 Y-17.88504 I0.00000 J-0.10000
G260
M08
G40
G00 X16.13292 Y-27.26344
(PartName=40171945 CutLength=13.245 MarkLength=0.000 Weigth=2.6 Quantity=1)
G41
N49 M07
G261
G03 X15.75792 Y-26.88844 I-0.37500 J0.00000
G01 X14.37000 Y-26.88844
G02 X13.93000 Y-26.44844 I0.00000 J0.44000
G01 X13.93000 Y-23.88844
G02 X14.37000 Y-23.44844 I0.44000 J0.00000
G01 X17.05000 Y-23.44844
G02 X17.49000 Y-23.88844 I0.00000 J-0.44000
G01 X17.49000 Y-26.44844
G02 X17.05000 Y-26.88844 I-0.44000 J-0.00000
G01 X15.75792 Y-26.88844
G03 X15.65792 Y-26.98844 I0.00000 J-0.10000
G260
M08
G40
G00 X16.13292 Y-36.36683
(PartName=40171945 CutLength=13.245 MarkLength=0.000 Weigth=2.6 Quantity=1)
G41
N50 M07
G261
G03 X15.75792 Y-35.99183 I-0.37500 J0.00000
G01 X14.37000 Y-35.99183
G02 X13.93000 Y-35.55183 I0.00000 J0.44000
G01 X13.93000 Y-32.99183
G02 X14.37000 Y-32.55183 I0.44000 J0.00000
G01 X17.05000 Y-32.55183
G02 X17.49000 Y-32.99183 I-0.00000 J-0.44000
G01 X17.49000 Y-35.55183
G02 X17.05000 Y-35.99183 I-0.44000 J0.00000
G01 X15.75792 Y-35.99183
G03 X15.65792 Y-36.09183 I-0.00000 J-0.10000
G260
M08
G40
G00 X16.13292 Y-45.47022
(PartName=40171945 CutLength=13.245 MarkLength=0.000 Weigth=2.6 Quantity=1)
G41
N51 M07
G261
G03 X15.75792 Y-45.09522 I-0.37500 J0.00000
G01 X14.37000 Y-45.09522
G02 X13.93000 Y-44.65522 I-0.00000 J0.44000
G01 X13.93000 Y-42.09522
G02 X14.37000 Y-41.65522 I0.44000 J-0.00000
G01 X17.05000 Y-41.65522
G02 X17.49000 Y-42.09522 I0.00000 J-0.44000
G01 X17.49000 Y-44.65522
G02 X17.05000 Y-45.09522 I-0.44000 J0.00000
G01 X15.75792 Y-45.09522
G03 X15.65792 Y-45.19522 I-0.00000 J-0.10000
G260
M08
G40
G00 X16.13292 Y-54.57362
(PartName=40171945 CutLength=13.245 MarkLength=0.000 Weigth=2.6 Quantity=1)
G41
N52 M07
G261
G03 X15.75792 Y-54.19862 I-0.37500 J0.00000
G01 X14.37000 Y-54.19862
G02 X13.93000 Y-53.75862 I-0.00000 J0.44000
G01 X13.93000 Y-51.19862
G02 X14.37000 Y-50.75862 I0.44000 J0.00000
G01 X17.05000 Y-50.75862
G02 X17.49000 Y-51.19862 I0.00000 J-0.44000
G01 X17.49000 Y-53.75862
G02 X17.05000 Y-54.19862 I-0.44000 J0.00000
G01 X15.75792 Y-54.19862
G03 X15.65792 Y-54.29862 I0.00000 J-0.10000
G260
M08
G40
G00 X20.44292 Y-4.50495
(PartName=40171945 CutLength=13.245 MarkLength=0.000 Weigth=2.6 Quantity=1)
G41
N53 M07
G261
G03 X20.06792 Y-4.12995 I-0.37500 J0.00000
G01 X18.68000 Y-4.12995
G02 X18.24000 Y-3.68995 I0.00000 J0.44000
G01 X18.24000 Y-1.12995
G02 X18.68000 Y-0.68995 I0.44000 J-0.00000
G01 X21.36000 Y-0.68995
G02 X21.80000 Y-1.12995 I0.00000 J-0.44000
G01 X21.80000 Y-3.68995
G02 X21.36000 Y-4.12995 I-0.44000 J0.00000
G01 X20.06792 Y-4.12995
G03 X19.96792 Y-4.22995 I0.00000 J-0.10000
G260
M08
G40
G00 X20.44292 Y-13.60835
(PartName=40171945 CutLength=13.245 MarkLength=0.000 Weigth=2.6 Quantity=1)
G41
N54 M07
G261
G03 X20.06792 Y-13.23335 I-0.37500 J-0.00000
G01 X18.68000 Y-13.23335
G02 X18.24000 Y-12.79335 I0.00000 J0.44000
G01 X18.24000 Y-10.23335
G02 X18.68000 Y-9.79335 I0.44000 J-0.00000
G01 X21.36000 Y-9.79335
G02 X21.80000 Y-10.23335 I0.00000 J-0.44000
G01 X21.80000 Y-12.79335
G02 X21.36000 Y-13.23335 I-0.44000 J0.00000
G01 X20.06792 Y-13.23335
G03 X19.96792 Y-13.33335 I0.00000 J-0.10000
G260
M08
G40
G00 X20.44292 Y-22.71174
(PartName=40171945 CutLength=13.245 MarkLength=0.000 Weigth=2.6 Quantity=1)
G41
N55 M07
G261
G03 X20.06792 Y-22.33674 I-0.37500 J0.00000
G01 X18.68000 Y-22.33674
G02 X18.24000 Y-21.89674 I0.00000 J0.44000
G01 X18.24000 Y-19.33674
G02 X18.68000 Y-18.89674 I0.44000 J0.00000
G01 X21.36000 Y-18.89674
G02 X21.80000 Y-19.33674 I-0.00000 J-0.44000
G01 X21.80000 Y-21.89674
G02 X21.36000 Y-22.33674 I-0.44000 J0.00000
G01 X20.06792 Y-22.33674
G03 X19.96792 Y-22.43674 I0.00000 J-0.10000
G260
M08
G40
G00 X20.44292 Y-31.81513
(PartName=40171945 CutLength=13.245 MarkLength=0.000 Weigth=2.6 Quantity=1)
G41
N56 M07
G261
G03 X20.06792 Y-31.44013 I-0.37500 J0.00000
G01 X18.68000 Y-31.44013
G02 X18.24000 Y-31.00013 I0.00000 J0.44000
G01 X18.24000 Y-28.44013
G02 X18.68000 Y-28.00013 I0.44000 J0.00000
G01 X21.36000 Y-28.00013
G02 X21.80000 Y-28.44013 I-0.00000 J-0.44000
G01 X21.80000 Y-31.00013
G02 X21.36000 Y-31.44013 I-0.44000 J0.00000
G01 X20.06792 Y-31.44013
G03 X19.96792 Y-31.54013 I0.00000 J-0.10000
G260
M08
G40
G00 X20.44292 Y-40.91853
(PartName=40171945 CutLength=13.245 MarkLength=0.000 Weigth=2.6 Quantity=1)
G41
N57 M07
G261
G03 X20.06792 Y-40.54353 I-0.37500 J0.00000
G01 X18.68000 Y-40.54353
G02 X18.24000 Y-40.10353 I0.00000 J0.44000
G01 X18.24000 Y-37.54353
G02 X18.68000 Y-37.10353 I0.44000 J0.00000
G01 X21.36000 Y-37.10353
G02 X21.80000 Y-37.54353 I0.00000 J-0.44000
G01 X21.80000 Y-40.10353
G02 X21.36000 Y-40.54353 I-0.44000 J0.00000
G01 X20.06792 Y-40.54353
G03 X19.96792 Y-40.64353 I0.00000 J-0.10000
G260
M08
G40
G00 X20.44292 Y-50.02192
(PartName=40171945 CutLength=13.245 MarkLength=0.000 Weigth=2.6 Quantity=1)
G41
N58 M07
G261
G03 X20.06792 Y-49.64692 I-0.37500 J0.00000
G01 X18.68000 Y-49.64692
G02 X18.24000 Y-49.20692 I0.00000 J0.44000
G01 X18.24000 Y-46.64692
G02 X18.68000 Y-46.20692 I0.44000 J0.00000
G01 X21.36000 Y-46.20692
G02 X21.80000 Y-46.64692 I0.00000 J-0.44000
G01 X21.80000 Y-49.20692
G02 X21.36000 Y-49.64692 I-0.44000 J0.00000
G01 X20.06792 Y-49.64692
G03 X19.96792 Y-49.74692 I-0.00000 J-0.10000
G260
M08
G40
G00 X20.44292 Y-59.11706
(PartName=40171945 CutLength=13.245 MarkLength=0.000 Weigth=2.6 Quantity=1)
G41
N59 M07
G261
G03 X20.06792 Y-58.74206 I-0.37500 J0.00000
G01 X18.68000 Y-58.74206
G02 X18.24000 Y-58.30206 I0.00000 J0.44000
G01 X18.24000 Y-55.74206
G02 X18.68000 Y-55.30206 I0.44000 J0.00000
G01 X21.36000 Y-55.30206
G02 X21.80000 Y-55.74206 I0.00000 J-0.44000
G01 X21.80000 Y-58.30206
G02 X21.36000 Y-58.74206 I-0.44000 J0.00000
G01 X20.06792 Y-58.74206
G03 X19.96792 Y-58.84206 I0.00000 J-0.10000
G260
M08
G40
G00 X20.44292 Y-9.05665
(PartName=40171945 CutLength=13.245 MarkLength=0.000 Weigth=2.6 Quantity=1)
G41
N60 M07
G261
G03 X20.06792 Y-8.68165 I-0.37500 J0.00000
G01 X18.68000 Y-8.68165
G02 X18.24000 Y-8.24165 I0.00000 J0.44000
G01 X18.24000 Y-5.68165
G02 X18.68000 Y-5.24165 I0.44000 J-0.00000
G01 X21.36000 Y-5.24165
G02 X21.80000 Y-5.68165 I0.00000 J-0.44000
G01 X21.80000 Y-8.24165
G02 X21.36000 Y-8.68165 I-0.44000 J0.00000
G01 X20.06792 Y-8.68165
G03 X19.96792 Y-8.78165 I0.00000 J-0.10000
G260
M08
G40
G00 X20.44292 Y-18.16004
(PartName=40171945 CutLength=13.245 MarkLength=0.000 Weigth=2.6 Quantity=1)
G41
N61 M07
G261
G03 X20.06792 Y-17.78504 I-0.37500 J0.00000
G01 X18.68000 Y-17.78504
G02 X18.24000 Y-17.34504 I0.00000 J0.44000
G01 X18.24000 Y-14.78504
G02 X18.68000 Y-14.34504 I0.44000 J-0.00000
G01 X21.36000 Y-14.34504
G02 X21.80000 Y-14.78504 I0.00000 J-0.44000
G01 X21.80000 Y-17.34504
G02 X21.36000 Y-17.78504 I-0.44000 J0.00000
G01 X20.06792 Y-17.78504
G03 X19.96792 Y-17.88504 I0.00000 J-0.10000
G260
M08
G40
G00 X20.44292 Y-27.26344
(PartName=40171945 CutLength=13.245 MarkLength=0.000 Weigth=2.6 Quantity=1)
G41
N62 M07
G261
G03 X20.06792 Y-26.88844 I-0.37500 J0.00000
G01 X18.68000 Y-26.88844
G02 X18.24000 Y-26.44844 I0.00000 J0.44000
G01 X18.24000 Y-23.88844
G02 X18.68000 Y-23.44844 I0.44000 J0.00000
G01 X21.36000 Y-23.44844
G02 X21.80000 Y-23.88844 I-0.00000 J-0.44000
G01 X21.80000 Y-26.44844
G02 X21.36000 Y-26.88844 I-0.44000 J0.00000
G01 X20.06792 Y-26.88844
G03 X19.96792 Y-26.98844 I0.00000 J-0.10000
G260
M08
G40
G00 X20.44292 Y-36.36683
(PartName=40171945 CutLength=13.245 MarkLength=0.000 Weigth=2.6 Quantity=1)
G41
N63 M07
G261
G03 X20.06792 Y-35.99183 I-0.37500 J0.00000
G01 X18.68000 Y-35.99183
G02 X18.24000 Y-35.55183 I0.00000 J0.44000
G01 X18.24000 Y-32.99183
G02 X18.68000 Y-32.55183 I0.44000 J0.00000
G01 X21.36000 Y-32.55183
G02 X21.80000 Y-32.99183 I-0.00000 J-0.44000
G01 X21.80000 Y-35.55183
G02 X21.36000 Y-35.99183 I-0.44000 J0.00000
G01 X20.06792 Y-35.99183
G03 X19.96792 Y-36.09183 I-0.00000 J-0.10000
G260
M08
G40
G00 X20.44292 Y-45.47022
(PartName=40171945 CutLength=13.245 MarkLength=0.000 Weigth=2.6 Quantity=1)
G41
N64 M07
G261
G03 X20.06792 Y-45.09522 I-0.37500 J0.00000
G01 X18.68000 Y-45.09522
G02 X18.24000 Y-44.65522 I0.00000 J0.44000
G01 X18.24000 Y-42.09522
G02 X18.68000 Y-41.65522 I0.44000 J-0.00000
G01 X21.36000 Y-41.65522
G02 X21.80000 Y-42.09522 I0.00000 J-0.44000
G01 X21.80000 Y-44.65522
G02 X21.36000 Y-45.09522 I-0.44000 J0.00000
G01 X20.06792 Y-45.09522
G03 X19.96792 Y-45.19522 I-0.00000 J-0.10000
G260
M08
G40
G00 X20.44292 Y-54.57362
(PartName=40171945 CutLength=13.245 MarkLength=0.000 Weigth=2.6 Quantity=1)
G41
N65 M07
G261
G03 X20.06792 Y-54.19862 I-0.37500 J0.00000
G01 X18.68000 Y-54.19862
G02 X18.24000 Y-53.75862 I0.00000 J0.44000
G01 X18.24000 Y-51.19862
G02 X18.68000 Y-50.75862 I0.44000 J0.00000
G01 X21.36000 Y-50.75862
G02 X21.80000 Y-51.19862 I0.00000 J-0.44000
G01 X21.80000 Y-53.75862
G02 X21.36000 Y-54.19862 I-0.44000 J0.00000
G01 X20.06792 Y-54.19862
G03 X19.96792 Y-54.29862 I0.00000 J-0.10000
G260
M08
G40
G00 X24.75292 Y-4.50495
(PartName=40171945 CutLength=13.245 MarkLength=0.000 Weigth=2.6 Quantity=1)
G41
N66 M07
G261
G03 X24.37792 Y-4.12995 I-0.37500 J0.00000
G01 X22.99000 Y-4.12995
G02 X22.55000 Y-3.68995 I0.00000 J0.44000
G01 X22.55000 Y-1.12995
G02 X22.99000 Y-0.68995 I0.44000 J-0.00000
G01 X25.67000 Y-0.68995
G02 X26.11000 Y-1.12995 I0.00000 J-0.44000
G01 X26.11000 Y-3.68995
G02 X25.67000 Y-4.12995 I-0.44000 J0.00000
G01 X24.37792 Y-4.12995
G03 X24.27792 Y-4.22995 I0.00000 J-0.10000
G260
M08
G40
G00 X24.75292 Y-13.60835
(PartName=40171945 CutLength=13.245 MarkLength=0.000 Weigth=2.6 Quantity=1)
G41
N67 M07
G261
G03 X24.37792 Y-13.23335 I-0.37500 J0.00000
G01 X22.99000 Y-13.23335
G02 X22.55000 Y-12.79335 I0.00000 J0.44000
G01 X22.55000 Y-10.23335
G02 X22.99000 Y-9.79335 I0.44000 J-0.00000
G01 X25.67000 Y-9.79335
G02 X26.11000 Y-10.23335 I0.00000 J-0.44000
G01 X26.11000 Y-12.79335
G02 X25.67000 Y-13.23335 I-0.44000 J0.00000
G01 X24.37792 Y-13.23335
G03 X24.27792 Y-13.33335 I0.00000 J-0.10000
G260
M08
G40
G00 X24.75292 Y-22.71174
(PartName=40171945 CutLength=13.245 MarkLength=0.000 Weigth=2.6 Quantity=1)
G41
N68 M07
G261
G03 X24.37792 Y-22.33674 I-0.37500 J0.00000
G01 X22.99000 Y-22.33674
G02 X22.55000 Y-21.89674 I0.00000 J0.44000
G01 X22.55000 Y-19.33674
G02 X22.99000 Y-18.89674 I0.44000 J0.00000
G01 X25.67000 Y-18.89674
G02 X26.11000 Y-19.33674 I0.00000 J-0.44000
G01 X26.11000 Y-21.89674
G02 X25.67000 Y-22.33674 I-0.44000 J0.00000
G01 X24.37792 Y-22.33674
G03 X24.27792 Y-22.43674 I0.00000 J-0.10000
G260
M08
G40
G00 X24.75292 Y-31.81513
(PartName=40171945 CutLength=13.245 MarkLength=0.000 Weigth=2.6 Quantity=1)
G41
N69 M07
G261
G03 X24.37792 Y-31.44013 I-0.37500 J0.00000
G01 X22.99000 Y-31.44013
G02 X22.55000 Y-31.00013 I0.00000 J0.44000
G01 X22.55000 Y-28.44013
G02 X22.99000 Y-28.00013 I0.44000 J0.00000
G01 X25.67000 Y-28.00013
G02 X26.11000 Y-28.44013 I0.00000 J-0.44000
G01 X26.11000 Y-31.00013
G02 X25.67000 Y-31.44013 I-0.44000 J0.00000
G01 X24.37792 Y-31.44013
G03 X24.27792 Y-31.54013 I0.00000 J-0.10000
G260
M08
G40
G00 X24.75292 Y-40.91853
(PartName=40171945 CutLength=13.245 MarkLength=0.000 Weigth=2.6 Quantity=1)
G41
N70 M07
G261
G03 X24.37792 Y-40.54353 I-0.37500 J0.00000
G01 X22.99000 Y-40.54353
G02 X22.55000 Y-40.10353 I0.00000 J0.44000
G01 X22.55000 Y-37.54353
G02 X22.99000 Y-37.10353 I0.44000 J0.00000
G01 X25.67000 Y-37.10353
G02 X26.11000 Y-37.54353 I0.00000 J-0.44000
G01 X26.11000 Y-40.10353
G02 X25.67000 Y-40.54353 I-0.44000 J0.00000
G01 X24.37792 Y-40.54353
G03 X24.27792 Y-40.64353 I0.00000 J-0.10000
G260
M08
G40
G00 X24.75292 Y-50.02192
(PartName=40171945 CutLength=13.245 MarkLength=0.000 Weigth=2.6 Quantity=1)
G41
N71 M07
G261
G03 X24.37792 Y-49.64692 I-0.37500 J0.00000
G01 X22.99000 Y-49.64692
G02 X22.55000 Y-49.20692 I0.00000 J0.44000
G01 X22.55000 Y-46.64692
G02 X22.99000 Y-46.20692 I0.44000 J0.00000
G01 X25.67000 Y-46.20692
G02 X26.11000 Y-46.64692 I0.00000 J-0.44000
G01 X26.11000 Y-49.20692
G02 X25.67000 Y-49.64692 I-0.44000 J0.00000
G01 X24.37792 Y-49.64692
G03 X24.27792 Y-49.74692 I0.00000 J-0.10000
G260
M08
G40
G00 X24.75292 Y-59.11706
(PartName=40171945 CutLength=13.245 MarkLength=0.000 Weigth=2.6 Quantity=1)
G41
N72 M07
G261
G03 X24.37792 Y-58.74206 I-0.37500 J0.00000
G01 X22.99000 Y-58.74206
G02 X22.55000 Y-58.30206 I0.00000 J0.44000
G01 X22.55000 Y-55.74206
G02 X22.99000 Y-55.30206 I0.44000 J0.00000
G01 X25.67000 Y-55.30206
G02 X26.11000 Y-55.74206 I0.00000 J-0.44000
G01 X26.11000 Y-58.30206
G02 X25.67000 Y-58.74206 I-0.44000 J0.00000
G01 X24.37792 Y-58.74206
G03 X24.27792 Y-58.84206 I0.00000 J-0.10000
G260
M08
G40
G00 X24.75292 Y-9.05665
(PartName=40171945 CutLength=13.245 MarkLength=0.000 Weigth=2.6 Quantity=1)
G41
N73 M07
G261
G03 X24.37792 Y-8.68165 I-0.37500 J0.00000
G01 X22.99000 Y-8.68165
G02 X22.55000 Y-8.24165 I0.00000 J0.44000
G01 X22.55000 Y-5.68165
G02 X22.99000 Y-5.24165 I0.44000 J-0.00000
G01 X25.67000 Y-5.24165
G02 X26.11000 Y-5.68165 I0.00000 J-0.44000
G01 X26.11000 Y-8.24165
G02 X25.67000 Y-8.68165 I-0.44000 J0.00000
G01 X24.37792 Y-8.68165
G03 X24.27792 Y-8.78165 I0.00000 J-0.10000
G260
M08
G40
G00 X24.75292 Y-18.16004
(PartName=40171945 CutLength=13.245 MarkLength=0.000 Weigth=2.6 Quantity=1)
G41
N74 M07
G261
G03 X24.37792 Y-17.78504 I-0.37500 J0.00000
G01 X22.99000 Y-17.78504
G02 X22.55000 Y-17.34504 I0.00000 J0.44000
G01 X22.55000 Y-14.78504
G02 X22.99000 Y-14.34504 I0.44000 J-0.00000
G01 X25.67000 Y-14.34504
G02 X26.11000 Y-14.78504 I0.00000 J-0.44000
G01 X26.11000 Y-17.34504
G02 X25.67000 Y-17.78504 I-0.44000 J0.00000
G01 X24.37792 Y-17.78504
G03 X24.27792 Y-17.88504 I0.00000 J-0.10000
G260
M08
G40
G00 X24.75292 Y-27.26344
(PartName=40171945 CutLength=13.245 MarkLength=0.000 Weigth=2.6 Quantity=1)
G41
N75 M07
G261
G03 X24.37792 Y-26.88844 I-0.37500 J0.00000
G01 X22.99000 Y-26.88844
G02 X22.55000 Y-26.44844 I0.00000 J0.44000
G01 X22.55000 Y-23.88844
G02 X22.99000 Y-23.44844 I0.44000 J0.00000
G01 X25.67000 Y-23.44844
G02 X26.11000 Y-23.88844 I0.00000 J-0.44000
G01 X26.11000 Y-26.44844
G02 X25.67000 Y-26.88844 I-0.44000 J0.00000
G01 X24.37792 Y-26.88844
G03 X24.27792 Y-26.98844 I0.00000 J-0.10000
G260
M08
G40
G00 X24.75292 Y-36.36683
(PartName=40171945 CutLength=13.245 MarkLength=0.000 Weigth=2.6 Quantity=1)
G41
N76 M07
G261
G03 X24.37792 Y-35.99183 I-0.37500 J0.00000
G01 X22.99000 Y-35.99183
G02 X22.55000 Y-35.55183 I0.00000 J0.44000
G01 X22.55000 Y-32.99183
G02 X22.99000 Y-32.55183 I0.44000 J0.00000
G01 X25.67000 Y-32.55183
G02 X26.11000 Y-32.99183 I-0.00000 J-0.44000
G01 X26.11000 Y-35.55183
G02 X25.67000 Y-35.99183 I-0.44000 J0.00000
G01 X24.37792 Y-35.99183
G03 X24.27792 Y-36.09183 I0.00000 J-0.10000
G260
M08
G40
G00 X24.75292 Y-45.47022
(PartName=40171945 CutLength=13.245 MarkLength=0.000 Weigth=2.6 Quantity=1)
G41
N77 M07
G261
G03 X24.37792 Y-45.09522 I-0.37500 J0.00000
G01 X22.99000 Y-45.09522
G02 X22.55000 Y-44.65522 I0.00000 J0.44000
G01 X22.55000 Y-42.09522
G02 X22.99000 Y-41.65522 I0.44000 J-0.00000
G01 X25.67000 Y-41.65522
G02 X26.11000 Y-42.09522 I0.00000 J-0.44000
G01 X26.11000 Y-44.65522
G02 X25.67000 Y-45.09522 I-0.44000 J0.00000
G01 X24.37792 Y-45.09522
G03 X24.27792 Y-45.19522 I0.00000 J-0.10000
G260
M08
G40
G00 X24.75292 Y-54.57362
(PartName=40171945 CutLength=13.245 MarkLength=0.000 Weigth=2.6 Quantity=1)
G41
N78 M07
G261
G03 X24.37792 Y-54.19862 I-0.37500 J0.00000
G01 X22.99000 Y-54.19862
G02 X22.55000 Y-53.75862 I0.00000 J0.44000
G01 X22.55000 Y-51.19862
G02 X22.99000 Y-50.75862 I0.44000 J0.00000
G01 X25.67000 Y-50.75862
G02 X26.11000 Y-51.19862 I0.00000 J-0.44000
G01 X26.11000 Y-53.75862
G02 X25.67000 Y-54.19862 I-0.44000 J0.00000
G01 X24.37792 Y-54.19862
G03 X24.27792 Y-54.29862 I0.00000 J-0.10000
G260
M08
G40
G00 X29.06292 Y-4.50495
(PartName=40171945 CutLength=13.245 MarkLength=0.000 Weigth=2.6 Quantity=1)
G41
N79 M07
G261
G03 X28.68792 Y-4.12995 I-0.37500 J0.00000
G01 X27.30000 Y-4.12995
G02 X26.86000 Y-3.68995 I0.00000 J0.44000
G01 X26.86000 Y-1.12995
G02 X27.30000 Y-0.68995 I0.44000 J-0.00000
G01 X29.98000 Y-0.68995
G02 X30.42000 Y-1.12995 I0.00000 J-0.44000
G01 X30.42000 Y-3.68995
G02 X29.98000 Y-4.12995 I-0.44000 J0.00000
G01 X28.68792 Y-4.12995
G03 X28.58792 Y-4.22995 I0.00000 J-0.10000
G260
M08
G40
G00 X29.06292 Y-13.60835
(PartName=40171945 CutLength=13.245 MarkLength=0.000 Weigth=2.6 Quantity=1)
G41
N80 M07
G261
G03 X28.68792 Y-13.23335 I-0.37500 J-0.00000
G01 X27.30000 Y-13.23335
G02 X26.86000 Y-12.79335 I0.00000 J0.44000
G01 X26.86000 Y-10.23335
G02 X27.30000 Y-9.79335 I0.44000 J-0.00000
G01 X29.98000 Y-9.79335
G02 X30.42000 Y-10.23335 I0.00000 J-0.44000
G01 X30.42000 Y-12.79335
G02 X29.98000 Y-13.23335 I-0.44000 J0.00000
G01 X28.68792 Y-13.23335
G03 X28.58792 Y-13.33335 I0.00000 J-0.10000
G260
M08
G40
G00 X29.06292 Y-22.71174
(PartName=40171945 CutLength=13.245 MarkLength=0.000 Weigth=2.6 Quantity=1)
G41
N81 M07
G261
G03 X28.68792 Y-22.33674 I-0.37500 J0.00000
G01 X27.30000 Y-22.33674
G02 X26.86000 Y-21.89674 I0.00000 J0.44000
G01 X26.86000 Y-19.33674
G02 X27.30000 Y-18.89674 I0.44000 J0.00000
G01 X29.98000 Y-18.89674
G02 X30.42000 Y-19.33674 I-0.00000 J-0.44000
G01 X30.42000 Y-21.89674
G02 X29.98000 Y-22.33674 I-0.44000 J0.00000
G01 X28.68792 Y-22.33674
G03 X28.58792 Y-22.43674 I0.00000 J-0.10000
G260
M08
G40
G00 X29.06292 Y-31.81513
(PartName=40171945 CutLength=13.245 MarkLength=0.000 Weigth=2.6 Quantity=1)
G41
N82 M07
G261
G03 X28.68792 Y-31.44013 I-0.37500 J0.00000
G01 X27.30000 Y-31.44013
G02 X26.86000 Y-31.00013 I0.00000 J0.44000
G01 X26.86000 Y-28.44013
G02 X27.30000 Y-28.00013 I0.44000 J0.00000
G01 X29.98000 Y-28.00013
G02 X30.42000 Y-28.44013 I-0.00000 J-0.44000
G01 X30.42000 Y-31.00013
G02 X29.98000 Y-31.44013 I-0.44000 J0.00000
G01 X28.68792 Y-31.44013
G03 X28.58792 Y-31.54013 I0.00000 J-0.10000
G260
M08
G40
G00 X29.06292 Y-40.91853
(PartName=40171945 CutLength=13.245 MarkLength=0.000 Weigth=2.6 Quantity=1)
G41
N83 M07
G261
G03 X28.68792 Y-40.54353 I-0.37500 J0.00000
G01 X27.30000 Y-40.54353
G02 X26.86000 Y-40.10353 I0.00000 J0.44000
G01 X26.86000 Y-37.54353
G02 X27.30000 Y-37.10353 I0.44000 J0.00000
G01 X29.98000 Y-37.10353
G02 X30.42000 Y-37.54353 I0.00000 J-0.44000
G01 X30.42000 Y-40.10353
G02 X29.98000 Y-40.54353 I-0.44000 J0.00000
G01 X28.68792 Y-40.54353
G03 X28.58792 Y-40.64353 I0.00000 J-0.10000
G260
M08
G40
G00 X29.06292 Y-50.02192
(PartName=40171945 CutLength=13.245 MarkLength=0.000 Weigth=2.6 Quantity=1)
G41
N84 M07
G261
G03 X28.68792 Y-49.64692 I-0.37500 J0.00000
G01 X27.30000 Y-49.64692
G02 X26.86000 Y-49.20692 I0.00000 J0.44000
G01 X26.86000 Y-46.64692
G02 X27.30000 Y-46.20692 I0.44000 J0.00000
G01 X29.98000 Y-46.20692
G02 X30.42000 Y-46.64692 I0.00000 J-0.44000
G01 X30.42000 Y-49.20692
G02 X29.98000 Y-49.64692 I-0.44000 J0.00000
G01 X28.68792 Y-49.64692
G03 X28.58792 Y-49.74692 I0.00000 J-0.10000
G260
M08
G40
G00 X29.06292 Y-59.11706
(PartName=40171945 CutLength=13.245 MarkLength=0.000 Weigth=2.6 Quantity=1)
G41
N85 M07
G261
G03 X28.68792 Y-58.74206 I-0.37500 J0.00000
G01 X27.30000 Y-58.74206
G02 X26.86000 Y-58.30206 I0.00000 J0.44000
G01 X26.86000 Y-55.74206
G02 X27.30000 Y-55.30206 I0.44000 J0.00000
G01 X29.98000 Y-55.30206
G02 X30.42000 Y-55.74206 I0.00000 J-0.44000
G01 X30.42000 Y-58.30206
G02 X29.98000 Y-58.74206 I-0.44000 J0.00000
G01 X28.68792 Y-58.74206
G03 X28.58792 Y-58.84206 I0.00000 J-0.10000
G260
M08
G40
G00 X29.06292 Y-9.05665
(PartName=40171945 CutLength=13.245 MarkLength=0.000 Weigth=2.6 Quantity=1)
G41
N86 M07
G261
G03 X28.68792 Y-8.68165 I-0.37500 J0.00000
G01 X27.30000 Y-8.68165
G02 X26.86000 Y-8.24165 I0.00000 J0.44000
G01 X26.86000 Y-5.68165
G02 X27.30000 Y-5.24165 I0.44000 J-0.00000
G01 X29.98000 Y-5.24165
G02 X30.42000 Y-5.68165 I0.00000 J-0.44000
G01 X30.42000 Y-8.24165
G02 X29.98000 Y-8.68165 I-0.44000 J0.00000
G01 X28.68792 Y-8.68165
G03 X28.58792 Y-8.78165 I0.00000 J-0.10000
G260
M08
G40
G00 X29.06292 Y-18.16004
(PartName=40171945 CutLength=13.245 MarkLength=0.000 Weigth=2.6 Quantity=1)
G41
N87 M07
G261
G03 X28.68792 Y-17.78504 I-0.37500 J0.00000
G01 X27.30000 Y-17.78504
G02 X26.86000 Y-17.34504 I0.00000 J0.44000
G01 X26.86000 Y-14.78504
G02 X27.30000 Y-14.34504 I0.44000 J-0.00000
G01 X29.98000 Y-14.34504
G02 X30.42000 Y-14.78504 I0.00000 J-0.44000
G01 X30.42000 Y-17.34504
G02 X29.98000 Y-17.78504 I-0.44000 J0.00000
G01 X28.68792 Y-17.78504
G03 X28.58792 Y-17.88504 I0.00000 J-0.10000
G260
M08
G40
G00 X29.06292 Y-27.26344
(PartName=40171945 CutLength=13.245 MarkLength=0.000 Weigth=2.6 Quantity=1)
G41
N88 M07
G261
G03 X28.68792 Y-26.88844 I-0.37500 J0.00000
G01 X27.30000 Y-26.88844
G02 X26.86000 Y-26.44844 I0.00000 J0.44000
G01 X26.86000 Y-23.88844
G02 X27.30000 Y-23.44844 I0.44000 J0.00000
G01 X29.98000 Y-23.44844
G02 X30.42000 Y-23.88844 I-0.00000 J-0.44000
G01 X30.42000 Y-26.44844
G02 X29.98000 Y-26.88844 I-0.44000 J0.00000
G01 X28.68792 Y-26.88844
G03 X28.58792 Y-26.98844 I0.00000 J-0.10000
G260
M08
G40
G00 X29.06292 Y-36.36683
(PartName=40171945 CutLength=13.245 MarkLength=0.000 Weigth=2.6 Quantity=1)
G41
N89 M07
G261
G03 X28.68792 Y-35.99183 I-0.37500 J0.00000
G01 X27.30000 Y-35.99183
G02 X26.86000 Y-35.55183 I0.00000 J0.44000
G01 X26.86000 Y-32.99183
G02 X27.30000 Y-32.55183 I0.44000 J0.00000
G01 X29.98000 Y-32.55183
G02 X30.42000 Y-32.99183 I-0.00000 J-0.44000
G01 X30.42000 Y-35.55183
G02 X29.98000 Y-35.99183 I-0.44000 J0.00000
G01 X28.68792 Y-35.99183
G03 X28.58792 Y-36.09183 I0.00000 J-0.10000
G260
M08
G40
G00 X29.06292 Y-45.47022
(PartName=40171945 CutLength=13.245 MarkLength=0.000 Weigth=2.6 Quantity=1)
G41
N90 M07
G261
G03 X28.68792 Y-45.09522 I-0.37500 J0.00000
G01 X27.30000 Y-45.09522
G02 X26.86000 Y-44.65522 I0.00000 J0.44000
G01 X26.86000 Y-42.09522
G02 X27.30000 Y-41.65522 I0.44000 J-0.00000
G01 X29.98000 Y-41.65522
G02 X30.42000 Y-42.09522 I0.00000 J-0.44000
G01 X30.42000 Y-44.65522
G02 X29.98000 Y-45.09522 I-0.44000 J0.00000
G01 X28.68792 Y-45.09522
G03 X28.58792 Y-45.19522 I0.00000 J-0.10000
G260
M08
G40
G00 X29.06292 Y-54.57362
(PartName=40171945 CutLength=13.245 MarkLength=0.000 Weigth=2.6 Quantity=1)
G41
N91 M07
G261
G03 X28.68792 Y-54.19862 I-0.37500 J0.00000
G01 X27.30000 Y-54.19862
G02 X26.86000 Y-53.75862 I0.00000 J0.44000
G01 X26.86000 Y-51.19862
G02 X27.30000 Y-50.75862 I0.44000 J0.00000
G01 X29.98000 Y-50.75862
G02 X30.42000 Y-51.19862 I0.00000 J-0.44000
G01 X30.42000 Y-53.75862
G02 X29.98000 Y-54.19862 I-0.44000 J0.00000
G01 X28.68792 Y-54.19862
G03 X28.58792 Y-54.29862 I0.00000 J-0.10000
G260
M08
G40
G00 X33.37292 Y-4.50495
(PartName=40171945 CutLength=13.245 MarkLength=0.000 Weigth=2.6 Quantity=1)
G41
N92 M07
G261
G03 X32.99792 Y-4.12995 I-0.37500 J0.00000
G01 X31.61000 Y-4.12995
G02 X31.17000 Y-3.68995 I0.00000 J0.44000
G01 X31.17000 Y-1.12995
G02 X31.61000 Y-0.68995 I0.44000 J-0.00000
G01 X34.29000 Y-0.68995
G02 X34.73000 Y-1.12995 I0.00000 J-0.44000
G01 X34.73000 Y-3.68995
G02 X34.29000 Y-4.12995 I-0.44000 J0.00000
G01 X32.99792 Y-4.12995
G03 X32.89792 Y-4.22995 I0.00000 J-0.10000
G260
M08
G40
G00 X33.37292 Y-13.60835
(PartName=40171945 CutLength=13.245 MarkLength=0.000 Weigth=2.6 Quantity=1)
G41
N93 M07
G261
G03 X32.99792 Y-13.23335 I-0.37500 J-0.00000
G01 X31.61000 Y-13.23335
G02 X31.17000 Y-12.79335 I0.00000 J0.44000
G01 X31.17000 Y-10.23335
G02 X31.61000 Y-9.79335 I0.44000 J-0.00000
G01 X34.29000 Y-9.79335
G02 X34.73000 Y-10.23335 I0.00000 J-0.44000
G01 X34.73000 Y-12.79335
G02 X34.29000 Y-13.23335 I-0.44000 J0.00000
G01 X32.99792 Y-13.23335
G03 X32.89792 Y-13.33335 I0.00000 J-0.10000
G260
M08
G40
G00 X33.37292 Y-22.71174
(PartName=40171945 CutLength=13.245 MarkLength=0.000 Weigth=2.6 Quantity=1)
G41
N94 M07
G261
G03 X32.99792 Y-22.33674 I-0.37500 J0.00000
G01 X31.61000 Y-22.33674
G02 X31.17000 Y-21.89674 I0.00000 J0.44000
G01 X31.17000 Y-19.33674
G02 X31.61000 Y-18.89674 I0.44000 J0.00000
G01 X34.29000 Y-18.89674
G02 X34.73000 Y-19.33674 I0.00000 J-0.44000
G01 X34.73000 Y-21.89674
G02 X34.29000 Y-22.33674 I-0.44000 J0.00000
G01 X32.99792 Y-22.33674
G03 X32.89792 Y-22.43674 I0.00000 J-0.10000
G260
M08
G40
G00 X33.37292 Y-31.81513
(PartName=40171945 CutLength=13.245 MarkLength=0.000 Weigth=2.6 Quantity=1)
G41
N95 M07
G261
G03 X32.99792 Y-31.44013 I-0.37500 J0.00000
G01 X31.61000 Y-31.44013
G02 X31.17000 Y-31.00013 I0.00000 J0.44000
G01 X31.17000 Y-28.44013
G02 X31.61000 Y-28.00013 I0.44000 J0.00000
G01 X34.29000 Y-28.00013
G02 X34.73000 Y-28.44013 I0.00000 J-0.44000
G01 X34.73000 Y-31.00013
G02 X34.29000 Y-31.44013 I-0.44000 J0.00000
G01 X32.99792 Y-31.44013
G03 X32.89792 Y-31.54013 I0.00000 J-0.10000
G260
M08
G40
G00 X33.37292 Y-40.91853
(PartName=40171945 CutLength=13.245 MarkLength=0.000 Weigth=2.6 Quantity=1)
G41
N96 M07
G261
G03 X32.99792 Y-40.54353 I-0.37500 J0.00000
G01 X31.61000 Y-40.54353
G02 X31.17000 Y-40.10353 I0.00000 J0.44000
G01 X31.17000 Y-37.54353
G02 X31.61000 Y-37.10353 I0.44000 J0.00000
G01 X34.29000 Y-37.10353
G02 X34.73000 Y-37.54353 I0.00000 J-0.44000
G01 X34.73000 Y-40.10353
G02 X34.29000 Y-40.54353 I-0.44000 J0.00000
G01 X32.99792 Y-40.54353
G03 X32.89792 Y-40.64353 I0.00000 J-0.10000
G260
M08
G40
G00 X33.37292 Y-50.02192
(PartName=40171945 CutLength=13.245 MarkLength=0.000 Weigth=2.6 Quantity=1)
G41
N97 M07
G261
G03 X32.99792 Y-49.64692 I-0.37500 J0.00000
G01 X31.61000 Y-49.64692
G02 X31.17000 Y-49.20692 I0.00000 J0.44000
G01 X31.17000 Y-46.64692
G02 X31.61000 Y-46.20692 I0.44000 J0.00000
G01 X34.29000 Y-46.20692
G02 X34.73000 Y-46.64692 I0.00000 J-0.44000
G01 X34.73000 Y-49.20692
G02 X34.29000 Y-49.64692 I-0.44000 J0.00000
G01 X32.99792 Y-49.64692
G03 X32.89792 Y-49.74692 I0.00000 J-0.10000
G260
M08
G40
G00 X33.37292 Y-59.11706
(PartName=40171945 CutLength=13.245 MarkLength=0.000 Weigth=2.6 Quantity=1)
G41
N98 M07
G261
G03 X32.99792 Y-58.74206 I-0.37500 J0.00000
G01 X31.61000 Y-58.74206
G02 X31.17000 Y-58.30206 I0.00000 J0.44000
G01 X31.17000 Y-55.74206
G02 X31.61000 Y-55.30206 I0.44000 J0.00000
G01 X34.29000 Y-55.30206
G02 X34.73000 Y-55.74206 I0.00000 J-0.44000
G01 X34.73000 Y-58.30206
G02 X34.29000 Y-58.74206 I-0.44000 J0.00000
G01 X32.99792 Y-58.74206
G03 X32.89792 Y-58.84206 I0.00000 J-0.10000
G260
M08
G40
G00 X33.37292 Y-9.05665
(PartName=40171945 CutLength=13.245 MarkLength=0.000 Weigth=2.6 Quantity=1)
G41
N99 M07
G261
G03 X32.99792 Y-8.68165 I-0.37500 J0.00000
G01 X31.61000 Y-8.68165
G02 X31.17000 Y-8.24165 I0.00000 J0.44000
G01 X31.17000 Y-5.68165
G02 X31.61000 Y-5.24165 I0.44000 J-0.00000
G01 X34.29000 Y-5.24165
G02 X34.73000 Y-5.68165 I0.00000 J-0.44000
G01 X34.73000 Y-8.24165
G02 X34.29000 Y-8.68165 I-0.44000 J0.00000
G01 X32.99792 Y-8.68165
G03 X32.89792 Y-8.78165 I0.00000 J-0.10000
G260
M08
G40
G00 X33.37292 Y-18.16004
(PartName=40171945 CutLength=13.245 MarkLength=0.000 Weigth=2.6 Quantity=1)
G41
N100 M07
G261
G03 X32.99792 Y-17.78504 I-0.37500 J0.00000
G01 X31.61000 Y-17.78504
G02 X31.17000 Y-17.34504 I0.00000 J0.44000
G01 X31.17000 Y-14.78504
G02 X31.61000 Y-14.34504 I0.44000 J-0.00000
G01 X34.29000 Y-14.34504
G02 X34.73000 Y-14.78504 I0.00000 J-0.44000
G01 X34.73000 Y-17.34504
G02 X34.29000 Y-17.78504 I-0.44000 J0.00000
G01 X32.99792 Y-17.78504
G03 X32.89792 Y-17.88504 I0.00000 J-0.10000
G260
M08
G40
G00 X33.37292 Y-27.26344
(PartName=40171945 CutLength=13.245 MarkLength=0.000 Weigth=2.6 Quantity=1)
G41
N101 M07
G261
G03 X32.99792 Y-26.88844 I-0.37500 J0.00000
G01 X31.61000 Y-26.88844
G02 X31.17000 Y-26.44844 I0.00000 J0.44000
G01 X31.17000 Y-23.88844
G02 X31.61000 Y-23.44844 I0.44000 J0.00000
G01 X34.29000 Y-23.44844
G02 X34.73000 Y-23.88844 I0.00000 J-0.44000
G01 X34.73000 Y-26.44844
G02 X34.29000 Y-26.88844 I-0.44000 J0.00000
G01 X32.99792 Y-26.88844
G03 X32.89792 Y-26.98844 I0.00000 J-0.10000
G260
M08
G40
G00 X33.37292 Y-36.36683
(PartName=40171945 CutLength=13.245 MarkLength=0.000 Weigth=2.6 Quantity=1)
G41
N102 M07
G261
G03 X32.99792 Y-35.99183 I-0.37500 J0.00000
G01 X31.61000 Y-35.99183
G02 X31.17000 Y-35.55183 I0.00000 J0.44000
G01 X31.17000 Y-32.99183
G02 X31.61000 Y-32.55183 I0.44000 J0.00000
G01 X34.29000 Y-32.55183
G02 X34.73000 Y-32.99183 I0.00000 J-0.44000
G01 X34.73000 Y-35.55183
G02 X34.29000 Y-35.99183 I-0.44000 J0.00000
G01 X32.99792 Y-35.99183
G03 X32.89792 Y-36.09183 I0.00000 J-0.10000
G260
M08
G40
G00 X33.37292 Y-45.47022
(PartName=40171945 CutLength=13.245 MarkLength=0.000 Weigth=2.6 Quantity=1)
G41
N103 M07
G261
G03 X32.99792 Y-45.09522 I-0.37500 J0.00000
G01 X31.61000 Y-45.09522
G02 X31.17000 Y-44.65522 I0.00000 J0.44000
G01 X31.17000 Y-42.09522
G02 X31.61000 Y-41.65522 I0.44000 J-0.00000
G01 X34.29000 Y-41.65522
G02 X34.73000 Y-42.09522 I0.00000 J-0.44000
G01 X34.73000 Y-44.65522
G02 X34.29000 Y-45.09522 I-0.44000 J0.00000
G01 X32.99792 Y-45.09522
G03 X32.89792 Y-45.19522 I0.00000 J-0.10000
G260
M08
G40
G00 X33.37292 Y-54.57362
(PartName=40171945 CutLength=13.245 MarkLength=0.000 Weigth=2.6 Quantity=1)
G41
N104 M07
G261
G03 X32.99792 Y-54.19862 I-0.37500 J0.00000
G01 X31.61000 Y-54.19862
G02 X31.17000 Y-53.75862 I0.00000 J0.44000
G01 X31.17000 Y-51.19862
G02 X31.61000 Y-50.75862 I0.44000 J0.00000
G01 X34.29000 Y-50.75862
G02 X34.73000 Y-51.19862 I0.00000 J-0.44000
G01 X34.73000 Y-53.75862
G02 X34.29000 Y-54.19862 I-0.44000 J0.00000
G01 X32.99792 Y-54.19862
G03 X32.89792 Y-54.29862 I0.00000 J-0.10000
G260
M08
G40
G00 X37.68292 Y-4.50495
(PartName=40171945 CutLength=13.245 MarkLength=0.000 Weigth=2.6 Quantity=1)
G41
N105 M07
G261
G03 X37.30792 Y-4.12995 I-0.37500 J0.00000
G01 X35.92000 Y-4.12995
G02 X35.48000 Y-3.68995 I0.00000 J0.44000
G01 X35.48000 Y-1.12995
G02 X35.92000 Y-0.68995 I0.44000 J-0.00000
G01 X38.60000 Y-0.68995
G02 X39.04000 Y-1.12995 I0.00000 J-0.44000
G01 X39.04000 Y-3.68995
G02 X38.60000 Y-4.12995 I-0.44000 J0.00000
G01 X37.30792 Y-4.12995
G03 X37.20792 Y-4.22995 I0.00000 J-0.10000
G260
M08
G40
G00 X37.68292 Y-13.60835
(PartName=40171945 CutLength=13.245 MarkLength=0.000 Weigth=2.6 Quantity=1)
G41
N106 M07
G261
G03 X37.30792 Y-13.23335 I-0.37500 J-0.00000
G01 X35.92000 Y-13.23335
G02 X35.48000 Y-12.79335 I0.00000 J0.44000
G01 X35.48000 Y-10.23335
G02 X35.92000 Y-9.79335 I0.44000 J-0.00000
G01 X38.60000 Y-9.79335
G02 X39.04000 Y-10.23335 I0.00000 J-0.44000
G01 X39.04000 Y-12.79335
G02 X38.60000 Y-13.23335 I-0.44000 J0.00000
G01 X37.30792 Y-13.23335
G03 X37.20792 Y-13.33335 I0.00000 J-0.10000
G260
M08
G40
G00 X37.68292 Y-22.71174
(PartName=40171945 CutLength=13.245 MarkLength=0.000 Weigth=2.6 Quantity=1)
G41
N107 M07
G261
G03 X37.30792 Y-22.33674 I-0.37500 J0.00000
G01 X35.92000 Y-22.33674
G02 X35.48000 Y-21.89674 I0.00000 J0.44000
G01 X35.48000 Y-19.33674
G02 X35.92000 Y-18.89674 I0.44000 J0.00000
G01 X38.60000 Y-18.89674
G02 X39.04000 Y-19.33674 I0.00000 J-0.44000
G01 X39.04000 Y-21.89674
G02 X38.60000 Y-22.33674 I-0.44000 J0.00000
G01 X37.30792 Y-22.33674
G03 X37.20792 Y-22.43674 I0.00000 J-0.10000
G260
M08
G40
G00 X37.68292 Y-31.81513
(PartName=40171945 CutLength=13.245 MarkLength=0.000 Weigth=2.6 Quantity=1)
G41
N108 M07
G261
G03 X37.30792 Y-31.44013 I-0.37500 J0.00000
G01 X35.92000 Y-31.44013
G02 X35.48000 Y-31.00013 I0.00000 J0.44000
G01 X35.48000 Y-28.44013
G02 X35.92000 Y-28.00013 I0.44000 J0.00000
G01 X38.60000 Y-28.00013
G02 X39.04000 Y-28.44013 I0.00000 J-0.44000
G01 X39.04000 Y-31.00013
G02 X38.60000 Y-31.44013 I-0.44000 J0.00000
G01 X37.30792 Y-31.44013
G03 X37.20792 Y-31.54013 I0.00000 J-0.10000
G260
M08
G40
G00 X37.68292 Y-40.91853
(PartName=40171945 CutLength=13.245 MarkLength=0.000 Weigth=2.6 Quantity=1)
G41
N109 M07
G261
G03 X37.30792 Y-40.54353 I-0.37500 J0.00000
G01 X35.92000 Y-40.54353
G02 X35.48000 Y-40.10353 I0.00000 J0.44000
G01 X35.48000 Y-37.54353
G02 X35.92000 Y-37.10353 I0.44000 J-0.00000
G01 X38.60000 Y-37.10353
G02 X39.04000 Y-37.54353 I0.00000 J-0.44000
G01 X39.04000 Y-40.10353
G02 X38.60000 Y-40.54353 I-0.44000 J0.00000
G01 X37.30792 Y-40.54353
G03 X37.20792 Y-40.64353 I0.00000 J-0.10000
G260
M08
G40
G00 X37.68292 Y-50.02192
(PartName=40171945 CutLength=13.245 MarkLength=0.000 Weigth=2.6 Quantity=1)
G41
N110 M07
G261
G03 X37.30792 Y-49.64692 I-0.37500 J0.00000
G01 X35.92000 Y-49.64692
G02 X35.48000 Y-49.20692 I0.00000 J0.44000
G01 X35.48000 Y-46.64692
G02 X35.92000 Y-46.20692 I0.44000 J0.00000
G01 X38.60000 Y-46.20692
G02 X39.04000 Y-46.64692 I0.00000 J-0.44000
G01 X39.04000 Y-49.20692
G02 X38.60000 Y-49.64692 I-0.44000 J0.00000
G01 X37.30792 Y-49.64692
G03 X37.20792 Y-49.74692 I0.00000 J-0.10000
G260
M08
G40
G00 X37.68292 Y-59.11706
(PartName=40171945 CutLength=13.245 MarkLength=0.000 Weigth=2.6 Quantity=1)
G41
N111 M07
G261
G03 X37.30792 Y-58.74206 I-0.37500 J0.00000
G01 X35.92000 Y-58.74206
G02 X35.48000 Y-58.30206 I0.00000 J0.44000
G01 X35.48000 Y-55.74206
G02 X35.92000 Y-55.30206 I0.44000 J0.00000
G01 X38.60000 Y-55.30206
G02 X39.04000 Y-55.74206 I0.00000 J-0.44000
G01 X39.04000 Y-58.30206
G02 X38.60000 Y-58.74206 I-0.44000 J0.00000
G01 X37.30792 Y-58.74206
G03 X37.20792 Y-58.84206 I0.00000 J-0.10000
G260
M08
G40
G00 X37.68292 Y-9.05665
(PartName=40171945 CutLength=13.245 MarkLength=0.000 Weigth=2.6 Quantity=1)
G41
N112 M07
G261
G03 X37.30792 Y-8.68165 I-0.37500 J0.00000
G01 X35.92000 Y-8.68165
G02 X35.48000 Y-8.24165 I0.00000 J0.44000
G01 X35.48000 Y-5.68165
G02 X35.92000 Y-5.24165 I0.44000 J-0.00000
G01 X38.60000 Y-5.24165
G02 X39.04000 Y-5.68165 I0.00000 J-0.44000
G01 X39.04000 Y-8.24165
G02 X38.60000 Y-8.68165 I-0.44000 J0.00000
G01 X37.30792 Y-8.68165
G03 X37.20792 Y-8.78165 I0.00000 J-0.10000
G260
M08
G40
G00 X37.68292 Y-18.16004
(PartName=40171945 CutLength=13.245 MarkLength=0.000 Weigth=2.6 Quantity=1)
G41
N113 M07
G261
G03 X37.30792 Y-17.78504 I-0.37500 J0.00000
G01 X35.92000 Y-17.78504
G02 X35.48000 Y-17.34504 I0.00000 J0.44000
G01 X35.48000 Y-14.78504
G02 X35.92000 Y-14.34504 I0.44000 J-0.00000
G01 X38.60000 Y-14.34504
G02 X39.04000 Y-14.78504 I0.00000 J-0.44000
G01 X39.04000 Y-17.34504
G02 X38.60000 Y-17.78504 I-0.44000 J0.00000
G01 X37.30792 Y-17.78504
G03 X37.20792 Y-17.88504 I0.00000 J-0.10000
G260
M08
G40
G00 X37.68292 Y-27.26344
(PartName=40171945 CutLength=13.245 MarkLength=0.000 Weigth=2.6 Quantity=1)
G41
N114 M07
G261
G03 X37.30792 Y-26.88844 I-0.37500 J0.00000
G01 X35.92000 Y-26.88844
G02 X35.48000 Y-26.44844 I0.00000 J0.44000
G01 X35.48000 Y-23.88844
G02 X35.92000 Y-23.44844 I0.44000 J0.00000
G01 X38.60000 Y-23.44844
G02 X39.04000 Y-23.88844 I0.00000 J-0.44000
G01 X39.04000 Y-26.44844
G02 X38.60000 Y-26.88844 I-0.44000 J0.00000
G01 X37.30792 Y-26.88844
G03 X37.20792 Y-26.98844 I0.00000 J-0.10000
G260
M08
G40
G00 X37.68292 Y-36.36683
(PartName=40171945 CutLength=13.245 MarkLength=0.000 Weigth=2.6 Quantity=1)
G41
N115 M07
G261
G03 X37.30792 Y-35.99183 I-0.37500 J0.00000
G01 X35.92000 Y-35.99183
G02 X35.48000 Y-35.55183 I0.00000 J0.44000
G01 X35.48000 Y-32.99183
G02 X35.92000 Y-32.55183 I0.44000 J-0.00000
G01 X38.60000 Y-32.55183
G02 X39.04000 Y-32.99183 I-0.00000 J-0.44000
G01 X39.04000 Y-35.55183
G02 X38.60000 Y-35.99183 I-0.44000 J0.00000
G01 X37.30792 Y-35.99183
G03 X37.20792 Y-36.09183 I0.00000 J-0.10000
G260
M08
G40
G00 X37.68292 Y-45.47022
(PartName=40171945 CutLength=13.245 MarkLength=0.000 Weigth=2.6 Quantity=1)
G41
N116 M07
G261
G03 X37.30792 Y-45.09522 I-0.37500 J0.00000
G01 X35.92000 Y-45.09522
G02 X35.48000 Y-44.65522 I0.00000 J0.44000
G01 X35.48000 Y-42.09522
G02 X35.92000 Y-41.65522 I0.44000 J-0.00000
G01 X38.60000 Y-41.65522
G02 X39.04000 Y-42.09522 I0.00000 J-0.44000
G01 X39.04000 Y-44.65522
G02 X38.60000 Y-45.09522 I-0.44000 J0.00000
G01 X37.30792 Y-45.09522
G03 X37.20792 Y-45.19522 I0.00000 J-0.10000
G260
M08
G40
G00 X37.68292 Y-54.57362
(PartName=40171945 CutLength=13.245 MarkLength=0.000 Weigth=2.6 Quantity=1)
G41
N117 M07
G261
G03 X37.30792 Y-54.19862 I-0.37500 J0.00000
G01 X35.92000 Y-54.19862
G02 X35.48000 Y-53.75862 I0.00000 J0.44000
G01 X35.48000 Y-51.19862
G02 X35.92000 Y-50.75862 I0.44000 J-0.00000
G01 X38.60000 Y-50.75862
G02 X39.04000 Y-51.19862 I0.00000 J-0.44000
G01 X39.04000 Y-53.75862
G02 X38.60000 Y-54.19862 I-0.44000 J0.00000
G01 X37.30792 Y-54.19862
G03 X37.20792 Y-54.29862 I0.00000 J-0.10000
G260
M08
G40
G00 X41.99292 Y-4.50495
(PartName=40171945 CutLength=13.245 MarkLength=0.000 Weigth=2.6 Quantity=1)
G41
N118 M07
G261
G03 X41.61792 Y-4.12995 I-0.37500 J-0.00000
G01 X40.23000 Y-4.12995
G02 X39.79000 Y-3.68995 I0.00000 J0.44000
G01 X39.79000 Y-1.12995
G02 X40.23000 Y-0.68995 I0.44000 J0.00000
G01 X42.91000 Y-0.68995
G02 X43.35000 Y-1.12995 I0.00000 J-0.44000
G01 X43.35000 Y-3.68995
G02 X42.91000 Y-4.12995 I-0.44000 J-0.00000
G01 X41.61792 Y-4.12995
G03 X41.51792 Y-4.22995 I0.00000 J-0.10000
G260
M08
G40
G00 X41.99292 Y-13.60835
(PartName=40171945 CutLength=13.245 MarkLength=0.000 Weigth=2.6 Quantity=1)
G41
N119 M07
G261
G03 X41.61792 Y-13.23335 I-0.37500 J-0.00000
G01 X40.23000 Y-13.23335
G02 X39.79000 Y-12.79335 I0.00000 J0.44000
G01 X39.79000 Y-10.23335
G02 X40.23000 Y-9.79335 I0.44000 J0.00000
G01 X42.91000 Y-9.79335
G02 X43.35000 Y-10.23335 I0.00000 J-0.44000
G01 X43.35000 Y-12.79335
G02 X42.91000 Y-13.23335 I-0.44000 J-0.00000
G01 X41.61792 Y-13.23335
G03 X41.51792 Y-13.33335 I0.00000 J-0.10000
G260
M08
G40
G00 X41.99292 Y-22.71174
(PartName=40171945 CutLength=13.245 MarkLength=0.000 Weigth=2.6 Quantity=1)
G41
N120 M07
G261
G03 X41.61792 Y-22.33674 I-0.37500 J-0.00000
G01 X40.23000 Y-22.33674
G02 X39.79000 Y-21.89674 I0.00000 J0.44000
G01 X39.79000 Y-19.33674
G02 X40.23000 Y-18.89674 I0.44000 J0.00000
G01 X42.91000 Y-18.89674
G02 X43.35000 Y-19.33674 I0.00000 J-0.44000
G01 X43.35000 Y-21.89674
G02 X42.91000 Y-22.33674 I-0.44000 J-0.00000
G01 X41.61792 Y-22.33674
G03 X41.51792 Y-22.43674 I0.00000 J-0.10000
G260
M08
G40
G00 X41.99292 Y-31.81513
(PartName=40171945 CutLength=13.245 MarkLength=0.000 Weigth=2.6 Quantity=1)
G41
N121 M07
G261
G03 X41.61792 Y-31.44013 I-0.37500 J0.00000
G01 X40.23000 Y-31.44013
G02 X39.79000 Y-31.00013 I0.00000 J0.44000
G01 X39.79000 Y-28.44013
G02 X40.23000 Y-28.00013 I0.44000 J0.00000
G01 X42.91000 Y-28.00013
G02 X43.35000 Y-28.44013 I0.00000 J-0.44000
G01 X43.35000 Y-31.00013
G02 X42.91000 Y-31.44013 I-0.44000 J0.00000
G01 X41.61792 Y-31.44013
G03 X41.51792 Y-31.54013 I0.00000 J-0.10000
G260
M08
G40
G00 X41.99292 Y-40.91853
(PartName=40171945 CutLength=13.245 MarkLength=0.000 Weigth=2.6 Quantity=1)
G41
N122 M07
G261
G03 X41.61792 Y-40.54353 I-0.37500 J-0.00000
G01 X40.23000 Y-40.54353
G02 X39.79000 Y-40.10353 I0.00000 J0.44000
G01 X39.79000 Y-37.54353
G02 X40.23000 Y-37.10353 I0.44000 J0.00000
G01 X42.91000 Y-37.10353
G02 X43.35000 Y-37.54353 I0.00000 J-0.44000
G01 X43.35000 Y-40.10353
G02 X42.91000 Y-40.54353 I-0.44000 J0.00000
G01 X41.61792 Y-40.54353
G03 X41.51792 Y-40.64353 I0.00000 J-0.10000
G260
M08
G40
G00 X41.99292 Y-50.02192
(PartName=40171945 CutLength=13.245 MarkLength=0.000 Weigth=2.6 Quantity=1)
G41
N123 M07
G261
G03 X41.61792 Y-49.64692 I-0.37500 J-0.00000
G01 X40.23000 Y-49.64692
G02 X39.79000 Y-49.20692 I0.00000 J0.44000
G01 X39.79000 Y-46.64692
G02 X40.23000 Y-46.20692 I0.44000 J0.00000
G01 X42.91000 Y-46.20692
G02 X43.35000 Y-46.64692 I0.00000 J-0.44000
G01 X43.35000 Y-49.20692
G02 X42.91000 Y-49.64692 I-0.44000 J0.00000
G01 X41.61792 Y-49.64692
G03 X41.51792 Y-49.74692 I0.00000 J-0.10000
G260
M08
G40
G00 X41.99292 Y-59.11706
(PartName=40171945 CutLength=13.245 MarkLength=0.000 Weigth=2.6 Quantity=1)
G41
N124 M07
G261
G03 X41.61792 Y-58.74206 I-0.37500 J0.00000
G01 X40.23000 Y-58.74206
G02 X39.79000 Y-58.30206 I0.00000 J0.44000
G01 X39.79000 Y-55.74206
G02 X40.23000 Y-55.30206 I0.44000 J0.00000
G01 X42.91000 Y-55.30206
G02 X43.35000 Y-55.74206 I0.00000 J-0.44000
G01 X43.35000 Y-58.30206
G02 X42.91000 Y-58.74206 I-0.44000 J0.00000
G01 X41.61792 Y-58.74206
G03 X41.51792 Y-58.84206 I0.00000 J-0.10000
G260
M08
G40
G00 X41.99292 Y-9.05665
(PartName=40171945 CutLength=13.245 MarkLength=0.000 Weigth=2.6 Quantity=1)
G41
N125 M07
G261
G03 X41.61792 Y-8.68165 I-0.37500 J-0.00000
G01 X40.23000 Y-8.68165
G02 X39.79000 Y-8.24165 I0.00000 J0.44000
G01 X39.79000 Y-5.68165
G02 X40.23000 Y-5.24165 I0.44000 J0.00000
G01 X42.91000 Y-5.24165
G02 X43.35000 Y-5.68165 I0.00000 J-0.44000
G01 X43.35000 Y-8.24165
G02 X42.91000 Y-8.68165 I-0.44000 J0.00000
G01 X41.61792 Y-8.68165
G03 X41.51792 Y-8.78165 I0.00000 J-0.10000
G260
M08
G40
G00 X41.99292 Y-18.16004
(PartName=40171945 CutLength=13.245 MarkLength=0.000 Weigth=2.6 Quantity=1)
G41
N126 M07
G261
G03 X41.61792 Y-17.78504 I-0.37500 J-0.00000
G01 X40.23000 Y-17.78504
G02 X39.79000 Y-17.34504 I0.00000 J0.44000
G01 X39.79000 Y-14.78504
G02 X40.23000 Y-14.34504 I0.44000 J0.00000
G01 X42.91000 Y-14.34504
G02 X43.35000 Y-14.78504 I0.00000 J-0.44000
G01 X43.35000 Y-17.34504
G02 X42.91000 Y-17.78504 I-0.44000 J0.00000
G01 X41.61792 Y-17.78504
G03 X41.51792 Y-17.88504 I0.00000 J-0.10000
G260
M08
G40
G00 X41.99292 Y-27.26344
(PartName=40171945 CutLength=13.245 MarkLength=0.000 Weigth=2.6 Quantity=1)
G41
N127 M07
G261
G03 X41.61792 Y-26.88844 I-0.37500 J-0.00000
G01 X40.23000 Y-26.88844
G02 X39.79000 Y-26.44844 I0.00000 J0.44000
G01 X39.79000 Y-23.88844
G02 X40.23000 Y-23.44844 I0.44000 J0.00000
G01 X42.91000 Y-23.44844
G02 X43.35000 Y-23.88844 I0.00000 J-0.44000
G01 X43.35000 Y-26.44844
G02 X42.91000 Y-26.88844 I-0.44000 J-0.00000
G01 X41.61792 Y-26.88844
G03 X41.51792 Y-26.98844 I0.00000 J-0.10000
G260
M08
G40
G00 X41.99292 Y-36.36683
(PartName=40171945 CutLength=13.245 MarkLength=0.000 Weigth=2.6 Quantity=1)
G41
N128 M07
G261
G03 X41.61792 Y-35.99183 I-0.37500 J-0.00000
G01 X40.23000 Y-35.99183
G02 X39.79000 Y-35.55183 I0.00000 J0.44000
G01 X39.79000 Y-32.99183
G02 X40.23000 Y-32.55183 I0.44000 J0.00000
G01 X42.91000 Y-32.55183
G02 X43.35000 Y-32.99183 I0.00000 J-0.44000
G01 X43.35000 Y-35.55183
G02 X42.91000 Y-35.99183 I-0.44000 J0.00000
G01 X41.61792 Y-35.99183
G03 X41.51792 Y-36.09183 I0.00000 J-0.10000
G260
M08
G40
G00 X41.99292 Y-45.47022
(PartName=40171945 CutLength=13.245 MarkLength=0.000 Weigth=2.6 Quantity=1)
G41
N129 M07
G261
G03 X41.61792 Y-45.09522 I-0.37500 J-0.00000
G01 X40.23000 Y-45.09522
G02 X39.79000 Y-44.65522 I0.00000 J0.44000
G01 X39.79000 Y-42.09522
G02 X40.23000 Y-41.65522 I0.44000 J-0.00000
G01 X42.91000 Y-41.65522
G02 X43.35000 Y-42.09522 I0.00000 J-0.44000
G01 X43.35000 Y-44.65522
G02 X42.91000 Y-45.09522 I-0.44000 J0.00000
G01 X41.61792 Y-45.09522
G03 X41.51792 Y-45.19522 I0.00000 J-0.10000
G260
M08
G40
G00 X41.99292 Y-54.57362
(PartName=40171945 CutLength=13.245 MarkLength=0.000 Weigth=2.6 Quantity=1)
G41
N130 M07
G261
G03 X41.61792 Y-54.19862 I-0.37500 J-0.00000
G01 X40.23000 Y-54.19862
G02 X39.79000 Y-53.75862 I0.00000 J0.44000
G01 X39.79000 Y-51.19862
G02 X40.23000 Y-50.75862 I0.44000 J0.00000
G01 X42.91000 Y-50.75862
G02 X43.35000 Y-51.19862 I0.00000 J-0.44000
G01 X43.35000 Y-53.75862
G02 X42.91000 Y-54.19862 I-0.44000 J0.00000
G01 X41.61792 Y-54.19862
G03 X41.51792 Y-54.29862 I0.00000 J-0.10000
G260
M08
G40
G00 X46.30292 Y-4.50495
(PartName=40171945 CutLength=13.245 MarkLength=0.000 Weigth=2.6 Quantity=1)
G41
N131 M07
G261
G03 X45.92792 Y-4.12995 I-0.37500 J0.00000
G01 X44.54000 Y-4.12995
G02 X44.10000 Y-3.68995 I0.00000 J0.44000
G01 X44.10000 Y-1.12995
G02 X44.54000 Y-0.68995 I0.44000 J0.00000
G01 X47.22000 Y-0.68995
G02 X47.66000 Y-1.12995 I0.00000 J-0.44000
G01 X47.66000 Y-3.68995
G02 X47.22000 Y-4.12995 I-0.44000 J-0.00000
G01 X45.92792 Y-4.12995
G03 X45.82792 Y-4.22995 I0.00000 J-0.10000
G260
M08
G40
G00 X46.30292 Y-13.60835
(PartName=40171945 CutLength=13.245 MarkLength=0.000 Weigth=2.6 Quantity=1)
G41
N132 M07
G261
G03 X45.92792 Y-13.23335 I-0.37500 J-0.00000
G01 X44.54000 Y-13.23335
G02 X44.10000 Y-12.79335 I0.00000 J0.44000
G01 X44.10000 Y-10.23335
G02 X44.54000 Y-9.79335 I0.44000 J0.00000
G01 X47.22000 Y-9.79335
G02 X47.66000 Y-10.23335 I0.00000 J-0.44000
G01 X47.66000 Y-12.79335
G02 X47.22000 Y-13.23335 I-0.44000 J-0.00000
G01 X45.92792 Y-13.23335
G03 X45.82792 Y-13.33335 I0.00000 J-0.10000
G260
M08
G40
G00 X46.30292 Y-22.71174
(PartName=40171945 CutLength=13.245 MarkLength=0.000 Weigth=2.6 Quantity=1)
G41
N133 M07
G261
G03 X45.92792 Y-22.33674 I-0.37500 J0.00000
G01 X44.54000 Y-22.33674
G02 X44.10000 Y-21.89674 I0.00000 J0.44000
G01 X44.10000 Y-19.33674
G02 X44.54000 Y-18.89674 I0.44000 J0.00000
G01 X47.22000 Y-18.89674
G02 X47.66000 Y-19.33674 I0.00000 J-0.44000
G01 X47.66000 Y-21.89674
G02 X47.22000 Y-22.33674 I-0.44000 J-0.00000
G01 X45.92792 Y-22.33674
G03 X45.82792 Y-22.43674 I0.00000 J-0.10000
G260
M08
G40
G00 X46.30292 Y-31.81513
(PartName=40171945 CutLength=13.245 MarkLength=0.000 Weigth=2.6 Quantity=1)
G41
N134 M07
G261
G03 X45.92792 Y-31.44013 I-0.37500 J0.00000
G01 X44.54000 Y-31.44013
G02 X44.10000 Y-31.00013 I0.00000 J0.44000
G01 X44.10000 Y-28.44013
G02 X44.54000 Y-28.00013 I0.44000 J0.00000
G01 X47.22000 Y-28.00013
G02 X47.66000 Y-28.44013 I0.00000 J-0.44000
G01 X47.66000 Y-31.00013
G02 X47.22000 Y-31.44013 I-0.44000 J0.00000
G01 X45.92792 Y-31.44013
G03 X45.82792 Y-31.54013 I0.00000 J-0.10000
G260
M08
G40
G00 X46.30292 Y-40.91853
(PartName=40171945 CutLength=13.245 MarkLength=0.000 Weigth=2.6 Quantity=1)
G41
N135 M07
G261
G03 X45.92792 Y-40.54353 I-0.37500 J0.00000
G01 X44.54000 Y-40.54353
G02 X44.10000 Y-40.10353 I0.00000 J0.44000
G01 X44.10000 Y-37.54353
G02 X44.54000 Y-37.10353 I0.44000 J0.00000
G01 X47.22000 Y-37.10353
G02 X47.66000 Y-37.54353 I0.00000 J-0.44000
G01 X47.66000 Y-40.10353
G02 X47.22000 Y-40.54353 I-0.44000 J0.00000
G01 X45.92792 Y-40.54353
G03 X45.82792 Y-40.64353 I0.00000 J-0.10000
G260
M08
G40
G00 X46.30292 Y-50.02192
(PartName=40171945 CutLength=13.245 MarkLength=0.000 Weigth=2.6 Quantity=1)
G41
N136 M07
G261
G03 X45.92792 Y-49.64692 I-0.37500 J0.00000
G01 X44.54000 Y-49.64692
G02 X44.10000 Y-49.20692 I0.00000 J0.44000
G01 X44.10000 Y-46.64692
G02 X44.54000 Y-46.20692 I0.44000 J0.00000
G01 X47.22000 Y-46.20692
G02 X47.66000 Y-46.64692 I0.00000 J-0.44000
G01 X47.66000 Y-49.20692
G02 X47.22000 Y-49.64692 I-0.44000 J0.00000
G01 X45.92792 Y-49.64692
G03 X45.82792 Y-49.74692 I0.00000 J-0.10000
G260
M08
G40
G00 X46.30292 Y-59.11706
(PartName=40171945 CutLength=13.245 MarkLength=0.000 Weigth=2.6 Quantity=1)
G41
N137 M07
G261
G03 X45.92792 Y-58.74206 I-0.37500 J0.00000
G01 X44.54000 Y-58.74206
G02 X44.10000 Y-58.30206 I0.00000 J0.44000
G01 X44.10000 Y-55.74206
G02 X44.54000 Y-55.30206 I0.44000 J0.00000
G01 X47.22000 Y-55.30206
G02 X47.66000 Y-55.74206 I0.00000 J-0.44000
G01 X47.66000 Y-58.30206
G02 X47.22000 Y-58.74206 I-0.44000 J0.00000
G01 X45.92792 Y-58.74206
G03 X45.82792 Y-58.84206 I0.00000 J-0.10000
G260
M08
G40
G00 X46.30292 Y-9.05665
(PartName=40171945 CutLength=13.245 MarkLength=0.000 Weigth=2.6 Quantity=1)
G41
N138 M07
G261
G03 X45.92792 Y-8.68165 I-0.37500 J0.00000
G01 X44.54000 Y-8.68165
G02 X44.10000 Y-8.24165 I0.00000 J0.44000
G01 X44.10000 Y-5.68165
G02 X44.54000 Y-5.24165 I0.44000 J0.00000
G01 X47.22000 Y-5.24165
G02 X47.66000 Y-5.68165 I0.00000 J-0.44000
G01 X47.66000 Y-8.24165
G02 X47.22000 Y-8.68165 I-0.44000 J0.00000
G01 X45.92792 Y-8.68165
G03 X45.82792 Y-8.78165 I0.00000 J-0.10000
G260
M08
G40
G00 X46.30292 Y-18.16004
(PartName=40171945 CutLength=13.245 MarkLength=0.000 Weigth=2.6 Quantity=1)
G41
N139 M07
G261
G03 X45.92792 Y-17.78504 I-0.37500 J0.00000
G01 X44.54000 Y-17.78504
G02 X44.10000 Y-17.34504 I0.00000 J0.44000
G01 X44.10000 Y-14.78504
G02 X44.54000 Y-14.34504 I0.44000 J0.00000
G01 X47.22000 Y-14.34504
G02 X47.66000 Y-14.78504 I0.00000 J-0.44000
G01 X47.66000 Y-17.34504
G02 X47.22000 Y-17.78504 I-0.44000 J0.00000
G01 X45.92792 Y-17.78504
G03 X45.82792 Y-17.88504 I0.00000 J-0.10000
G260
M08
G40
G00 X46.30292 Y-27.26344
(PartName=40171945 CutLength=13.245 MarkLength=0.000 Weigth=2.6 Quantity=1)
G41
N140 M07
G261
G03 X45.92792 Y-26.88844 I-0.37500 J0.00000
G01 X44.54000 Y-26.88844
G02 X44.10000 Y-26.44844 I0.00000 J0.44000
G01 X44.10000 Y-23.88844
G02 X44.54000 Y-23.44844 I0.44000 J0.00000
G01 X47.22000 Y-23.44844
G02 X47.66000 Y-23.88844 I0.00000 J-0.44000
G01 X47.66000 Y-26.44844
G02 X47.22000 Y-26.88844 I-0.44000 J-0.00000
G01 X45.92792 Y-26.88844
G03 X45.82792 Y-26.98844 I0.00000 J-0.10000
G260
M08
G40
G00 X46.30292 Y-36.36683
(PartName=40171945 CutLength=13.245 MarkLength=0.000 Weigth=2.6 Quantity=1)
G41
N141 M07
G261
G03 X45.92792 Y-35.99183 I-0.37500 J0.00000
G01 X44.54000 Y-35.99183
G02 X44.10000 Y-35.55183 I0.00000 J0.44000
G01 X44.10000 Y-32.99183
G02 X44.54000 Y-32.55183 I0.44000 J0.00000
G01 X47.22000 Y-32.55183
G02 X47.66000 Y-32.99183 I0.00000 J-0.44000
G01 X47.66000 Y-35.55183
G02 X47.22000 Y-35.99183 I-0.44000 J0.00000
G01 X45.92792 Y-35.99183
G03 X45.82792 Y-36.09183 I0.00000 J-0.10000
G260
M08
G40
G00 X46.30292 Y-45.47022
(PartName=40171945 CutLength=13.245 MarkLength=0.000 Weigth=2.6 Quantity=1)
G41
N142 M07
G261
G03 X45.92792 Y-45.09522 I-0.37500 J0.00000
G01 X44.54000 Y-45.09522
G02 X44.10000 Y-44.65522 I0.00000 J0.44000
G01 X44.10000 Y-42.09522
G02 X44.54000 Y-41.65522 I0.44000 J-0.00000
G01 X47.22000 Y-41.65522
G02 X47.66000 Y-42.09522 I0.00000 J-0.44000
G01 X47.66000 Y-44.65522
G02 X47.22000 Y-45.09522 I-0.44000 J0.00000
G01 X45.92792 Y-45.09522
G03 X45.82792 Y-45.19522 I0.00000 J-0.10000
G260
M08
G40
G00 X46.30292 Y-54.57362
(PartName=40171945 CutLength=13.245 MarkLength=0.000 Weigth=2.6 Quantity=1)
G41
N143 M07
G261
G03 X45.92792 Y-54.19862 I-0.37500 J0.00000
G01 X44.54000 Y-54.19862
G02 X44.10000 Y-53.75862 I0.00000 J0.44000
G01 X44.10000 Y-51.19862
G02 X44.54000 Y-50.75862 I0.44000 J0.00000
G01 X47.22000 Y-50.75862
G02 X47.66000 Y-51.19862 I0.00000 J-0.44000
G01 X47.66000 Y-53.75862
G02 X47.22000 Y-54.19862 I-0.44000 J0.00000
G01 X45.92792 Y-54.19862
G03 X45.82792 Y-54.29862 I0.00000 J-0.10000
G260
M08
G40
G00 X50.61292 Y-4.50495
(PartName=40171945 CutLength=13.245 MarkLength=0.000 Weigth=2.6 Quantity=1)
G41
N144 M07
G261
G03 X50.23792 Y-4.12995 I-0.37500 J-0.00000
G01 X48.85000 Y-4.12995
G02 X48.41000 Y-3.68995 I0.00000 J0.44000
G01 X48.41000 Y-1.12995
G02 X48.85000 Y-0.68995 I0.44000 J0.00000
G01 X51.53000 Y-0.68995
G02 X51.97000 Y-1.12995 I0.00000 J-0.44000
G01 X51.97000 Y-3.68995
G02 X51.53000 Y-4.12995 I-0.44000 J-0.00000
G01 X50.23792 Y-4.12995
G03 X50.13792 Y-4.22995 I0.00000 J-0.10000
G260
M08
G40
G00 X50.61292 Y-13.60835
(PartName=40171945 CutLength=13.245 MarkLength=0.000 Weigth=2.6 Quantity=1)
G41
N145 M07
G261
G03 X50.23792 Y-13.23335 I-0.37500 J-0.00000
G01 X48.85000 Y-13.23335
G02 X48.41000 Y-12.79335 I0.00000 J0.44000
G01 X48.41000 Y-10.23335
G02 X48.85000 Y-9.79335 I0.44000 J0.00000
G01 X51.53000 Y-9.79335
G02 X51.97000 Y-10.23335 I0.00000 J-0.44000
G01 X51.97000 Y-12.79335
G02 X51.53000 Y-13.23335 I-0.44000 J-0.00000
G01 X50.23792 Y-13.23335
G03 X50.13792 Y-13.33335 I0.00000 J-0.10000
G260
M08
G40
G00 X50.61292 Y-22.71174
(PartName=40171945 CutLength=13.245 MarkLength=0.000 Weigth=2.6 Quantity=1)
G41
N146 M07
G261
G03 X50.23792 Y-22.33674 I-0.37500 J-0.00000
G01 X48.85000 Y-22.33674
G02 X48.41000 Y-21.89674 I0.00000 J0.44000
G01 X48.41000 Y-19.33674
G02 X48.85000 Y-18.89674 I0.44000 J0.00000
G01 X51.53000 Y-18.89674
G02 X51.97000 Y-19.33674 I0.00000 J-0.44000
G01 X51.97000 Y-21.89674
G02 X51.53000 Y-22.33674 I-0.44000 J-0.00000
G01 X50.23792 Y-22.33674
G03 X50.13792 Y-22.43674 I0.00000 J-0.10000
G260
M08
G40
G00 X50.61292 Y-31.81513
(PartName=40171945 CutLength=13.245 MarkLength=0.000 Weigth=2.6 Quantity=1)
G41
N147 M07
G261
G03 X50.23792 Y-31.44013 I-0.37500 J0.00000
G01 X48.85000 Y-31.44013
G02 X48.41000 Y-31.00013 I0.00000 J0.44000
G01 X48.41000 Y-28.44013
G02 X48.85000 Y-28.00013 I0.44000 J0.00000
G01 X51.53000 Y-28.00013
G02 X51.97000 Y-28.44013 I0.00000 J-0.44000
G01 X51.97000 Y-31.00013
G02 X51.53000 Y-31.44013 I-0.44000 J0.00000
G01 X50.23792 Y-31.44013
G03 X50.13792 Y-31.54013 I0.00000 J-0.10000
G260
M08
G40
G00 X50.61292 Y-40.91853
(PartName=40171945 CutLength=13.245 MarkLength=0.000 Weigth=2.6 Quantity=1)
G41
N148 M07
G261
G03 X50.23792 Y-40.54353 I-0.37500 J-0.00000
G01 X48.85000 Y-40.54353
G02 X48.41000 Y-40.10353 I0.00000 J0.44000
G01 X48.41000 Y-37.54353
G02 X48.85000 Y-37.10353 I0.44000 J0.00000
G01 X51.53000 Y-37.10353
G02 X51.97000 Y-37.54353 I0.00000 J-0.44000
G01 X51.97000 Y-40.10353
G02 X51.53000 Y-40.54353 I-0.44000 J0.00000
G01 X50.23792 Y-40.54353
G03 X50.13792 Y-40.64353 I0.00000 J-0.10000
G260
M08
G40
G00 X50.61292 Y-50.02192
(PartName=40171945 CutLength=13.245 MarkLength=0.000 Weigth=2.6 Quantity=1)
G41
N149 M07
G261
G03 X50.23792 Y-49.64692 I-0.37500 J-0.00000
G01 X48.85000 Y-49.64692
G02 X48.41000 Y-49.20692 I0.00000 J0.44000
G01 X48.41000 Y-46.64692
G02 X48.85000 Y-46.20692 I0.44000 J0.00000
G01 X51.53000 Y-46.20692
G02 X51.97000 Y-46.64692 I0.00000 J-0.44000
G01 X51.97000 Y-49.20692
G02 X51.53000 Y-49.64692 I-0.44000 J0.00000
G01 X50.23792 Y-49.64692
G03 X50.13792 Y-49.74692 I0.00000 J-0.10000
G260
M08
G40
G00 X50.61292 Y-59.11706
(PartName=40171945 CutLength=13.245 MarkLength=0.000 Weigth=2.6 Quantity=1)
G41
N150 M07
G261
G03 X50.23792 Y-58.74206 I-0.37500 J0.00000
G01 X48.85000 Y-58.74206
G02 X48.41000 Y-58.30206 I0.00000 J0.44000
G01 X48.41000 Y-55.74206
G02 X48.85000 Y-55.30206 I0.44000 J0.00000
G01 X51.53000 Y-55.30206
G02 X51.97000 Y-55.74206 I0.00000 J-0.44000
G01 X51.97000 Y-58.30206
G02 X51.53000 Y-58.74206 I-0.44000 J0.00000
G01 X50.23792 Y-58.74206
G03 X50.13792 Y-58.84206 I0.00000 J-0.10000
G260
M08
G40
G00 X50.61292 Y-9.05665
(PartName=40171945 CutLength=13.245 MarkLength=0.000 Weigth=2.6 Quantity=1)
G41
N151 M07
G261
G03 X50.23792 Y-8.68165 I-0.37500 J-0.00000
G01 X48.85000 Y-8.68165
G02 X48.41000 Y-8.24165 I0.00000 J0.44000
G01 X48.41000 Y-5.68165
G02 X48.85000 Y-5.24165 I0.44000 J0.00000
G01 X51.53000 Y-5.24165
G02 X51.97000 Y-5.68165 I0.00000 J-0.44000
G01 X51.97000 Y-8.24165
G02 X51.53000 Y-8.68165 I-0.44000 J0.00000
G01 X50.23792 Y-8.68165
G03 X50.13792 Y-8.78165 I0.00000 J-0.10000
G260
M08
G40
G00 X50.61292 Y-18.16004
(PartName=40171945 CutLength=13.245 MarkLength=0.000 Weigth=2.6 Quantity=1)
G41
N152 M07
G261
G03 X50.23792 Y-17.78504 I-0.37500 J-0.00000
G01 X48.85000 Y-17.78504
G02 X48.41000 Y-17.34504 I0.00000 J0.44000
G01 X48.41000 Y-14.78504
G02 X48.85000 Y-14.34504 I0.44000 J0.00000
G01 X51.53000 Y-14.34504
G02 X51.97000 Y-14.78504 I0.00000 J-0.44000
G01 X51.97000 Y-17.34504
G02 X51.53000 Y-17.78504 I-0.44000 J0.00000
G01 X50.23792 Y-17.78504
G03 X50.13792 Y-17.88504 I0.00000 J-0.10000
G260
M08
G40
G00 X50.61292 Y-27.26344
(PartName=40171945 CutLength=13.245 MarkLength=0.000 Weigth=2.6 Quantity=1)
G41
N153 M07
G261
G03 X50.23792 Y-26.88844 I-0.37500 J-0.00000
G01 X48.85000 Y-26.88844
G02 X48.41000 Y-26.44844 I0.00000 J0.44000
G01 X48.41000 Y-23.88844
G02 X48.85000 Y-23.44844 I0.44000 J0.00000
G01 X51.53000 Y-23.44844
G02 X51.97000 Y-23.88844 I0.00000 J-0.44000
G01 X51.97000 Y-26.44844
G02 X51.53000 Y-26.88844 I-0.44000 J-0.00000
G01 X50.23792 Y-26.88844
G03 X50.13792 Y-26.98844 I0.00000 J-0.10000
G260
M08
G40
G00 X50.61292 Y-36.36683
(PartName=40171945 CutLength=13.245 MarkLength=0.000 Weigth=2.6 Quantity=1)
G41
N154 M07
G261
G03 X50.23792 Y-35.99183 I-0.37500 J-0.00000
G01 X48.85000 Y-35.99183
G02 X48.41000 Y-35.55183 I0.00000 J0.44000
G01 X48.41000 Y-32.99183
G02 X48.85000 Y-32.55183 I0.44000 J0.00000
G01 X51.53000 Y-32.55183
G02 X51.97000 Y-32.99183 I0.00000 J-0.44000
G01 X51.97000 Y-35.55183
G02 X51.53000 Y-35.99183 I-0.44000 J0.00000
G01 X50.23792 Y-35.99183
G03 X50.13792 Y-36.09183 I0.00000 J-0.10000
G260
M08
G40
G00 X50.61292 Y-45.47022
(PartName=40171945 CutLength=13.245 MarkLength=0.000 Weigth=2.6 Quantity=1)
G41
N155 M07
G261
G03 X50.23792 Y-45.09522 I-0.37500 J-0.00000
G01 X48.85000 Y-45.09522
G02 X48.41000 Y-44.65522 I0.00000 J0.44000
G01 X48.41000 Y-42.09522
G02 X48.85000 Y-41.65522 I0.44000 J-0.00000
G01 X51.53000 Y-41.65522
G02 X51.97000 Y-42.09522 I0.00000 J-0.44000
G01 X51.97000 Y-44.65522
G02 X51.53000 Y-45.09522 I-0.44000 J0.00000
G01 X50.23792 Y-45.09522
G03 X50.13792 Y-45.19522 I0.00000 J-0.10000
G260
M08
G40
G00 X50.61292 Y-54.57362
(PartName=40171945 CutLength=13.245 MarkLength=0.000 Weigth=2.6 Quantity=1)
G41
N156 M07
G261
G03 X50.23792 Y-54.19862 I-0.37500 J-0.00000
G01 X48.85000 Y-54.19862
G02 X48.41000 Y-53.75862 I0.00000 J0.44000
G01 X48.41000 Y-51.19862
G02 X48.85000 Y-50.75862 I0.44000 J0.00000
G01 X51.53000 Y-50.75862
G02 X51.97000 Y-51.19862 I0.00000 J-0.44000
G01 X51.97000 Y-53.75862
G02 X51.53000 Y-54.19862 I-0.44000 J0.00000
G01 X50.23792 Y-54.19862
G03 X50.13792 Y-54.29862 I0.00000 J-0.10000
G260
M08
G40
G00 X54.92292 Y-4.50495
(PartName=40171945 CutLength=13.245 MarkLength=0.000 Weigth=2.6 Quantity=1)
G41
N157 M07
G261
G03 X54.54792 Y-4.12995 I-0.37500 J-0.00000
G01 X53.16000 Y-4.12995
G02 X52.72000 Y-3.68995 I0.00000 J0.44000
G01 X52.72000 Y-1.12995
G02 X53.16000 Y-0.68995 I0.44000 J0.00000
G01 X55.84000 Y-0.68995
G02 X56.28000 Y-1.12995 I0.00000 J-0.44000
G01 X56.28000 Y-3.68995
G02 X55.84000 Y-4.12995 I-0.44000 J-0.00000
G01 X54.54792 Y-4.12995
G03 X54.44792 Y-4.22995 I0.00000 J-0.10000
G260
M08
G40
G00 X54.92292 Y-13.60835
(PartName=40171945 CutLength=13.245 MarkLength=0.000 Weigth=2.6 Quantity=1)
G41
N158 M07
G261
G03 X54.54792 Y-13.23335 I-0.37500 J-0.00000
G01 X53.16000 Y-13.23335
G02 X52.72000 Y-12.79335 I0.00000 J0.44000
G01 X52.72000 Y-10.23335
G02 X53.16000 Y-9.79335 I0.44000 J0.00000
G01 X55.84000 Y-9.79335
G02 X56.28000 Y-10.23335 I0.00000 J-0.44000
G01 X56.28000 Y-12.79335
G02 X55.84000 Y-13.23335 I-0.44000 J-0.00000
G01 X54.54792 Y-13.23335
G03 X54.44792 Y-13.33335 I0.00000 J-0.10000
G260
M08
G40
G00 X54.92292 Y-22.71174
(PartName=40171945 CutLength=13.245 MarkLength=0.000 Weigth=2.6 Quantity=1)
G41
N159 M07
G261
G03 X54.54792 Y-22.33674 I-0.37500 J-0.00000
G01 X53.16000 Y-22.33674
G02 X52.72000 Y-21.89674 I0.00000 J0.44000
G01 X52.72000 Y-19.33674
G02 X53.16000 Y-18.89674 I0.44000 J0.00000
G01 X55.84000 Y-18.89674
G02 X56.28000 Y-19.33674 I0.00000 J-0.44000
G01 X56.28000 Y-21.89674
G02 X55.84000 Y-22.33674 I-0.44000 J-0.00000
G01 X54.54792 Y-22.33674
G03 X54.44792 Y-22.43674 I0.00000 J-0.10000
G260
M08
G40
G00 X54.92292 Y-31.81513
(PartName=40171945 CutLength=13.245 MarkLength=0.000 Weigth=2.6 Quantity=1)
G41
N160 M07
G261
G03 X54.54792 Y-31.44013 I-0.37500 J0.00000
G01 X53.16000 Y-31.44013
G02 X52.72000 Y-31.00013 I0.00000 J0.44000
G01 X52.72000 Y-28.44013
G02 X53.16000 Y-28.00013 I0.44000 J0.00000
G01 X55.84000 Y-28.00013
G02 X56.28000 Y-28.44013 I0.00000 J-0.44000
G01 X56.28000 Y-31.00013
G02 X55.84000 Y-31.44013 I-0.44000 J0.00000
G01 X54.54792 Y-31.44013
G03 X54.44792 Y-31.54013 I0.00000 J-0.10000
G260
M08
G40
G00 X54.92292 Y-40.91853
(PartName=40171945 CutLength=13.245 MarkLength=0.000 Weigth=2.6 Quantity=1)
G41
N161 M07
G261
G03 X54.54792 Y-40.54353 I-0.37500 J-0.00000
G01 X53.16000 Y-40.54353
G02 X52.72000 Y-40.10353 I0.00000 J0.44000
G01 X52.72000 Y-37.54353
G02 X53.16000 Y-37.10353 I0.44000 J0.00000
G01 X55.84000 Y-37.10353
G02 X56.28000 Y-37.54353 I0.00000 J-0.44000
G01 X56.28000 Y-40.10353
G02 X55.84000 Y-40.54353 I-0.44000 J0.00000
G01 X54.54792 Y-40.54353
G03 X54.44792 Y-40.64353 I0.00000 J-0.10000
G260
M08
G40
G00 X54.92292 Y-50.02192
(PartName=40171945 CutLength=13.245 MarkLength=0.000 Weigth=2.6 Quantity=1)
G41
N162 M07
G261
G03 X54.54792 Y-49.64692 I-0.37500 J-0.00000
G01 X53.16000 Y-49.64692
G02 X52.72000 Y-49.20692 I0.00000 J0.44000
G01 X52.72000 Y-46.64692
G02 X53.16000 Y-46.20692 I0.44000 J0.00000
G01 X55.84000 Y-46.20692
G02 X56.28000 Y-46.64692 I0.00000 J-0.44000
G01 X56.28000 Y-49.20692
G02 X55.84000 Y-49.64692 I-0.44000 J0.00000
G01 X54.54792 Y-49.64692
G03 X54.44792 Y-49.74692 I0.00000 J-0.10000
G260
M08
G40
G00 X54.92292 Y-59.11706
(PartName=40171945 CutLength=13.245 MarkLength=0.000 Weigth=2.6 Quantity=1)
G41
N163 M07
G261
G03 X54.54792 Y-58.74206 I-0.37500 J0.00000
G01 X53.16000 Y-58.74206
G02 X52.72000 Y-58.30206 I0.00000 J0.44000
G01 X52.72000 Y-55.74206
G02 X53.16000 Y-55.30206 I0.44000 J0.00000
G01 X55.84000 Y-55.30206
G02 X56.28000 Y-55.74206 I0.00000 J-0.44000
G01 X56.28000 Y-58.30206
G02 X55.84000 Y-58.74206 I-0.44000 J0.00000
G01 X54.54792 Y-58.74206
G03 X54.44792 Y-58.84206 I0.00000 J-0.10000
G260
M08
G40
G00 X54.92292 Y-9.05665
(PartName=40171945 CutLength=13.245 MarkLength=0.000 Weigth=2.6 Quantity=1)
G41
N164 M07
G261
G03 X54.54792 Y-8.68165 I-0.37500 J-0.00000
G01 X53.16000 Y-8.68165
G02 X52.72000 Y-8.24165 I0.00000 J0.44000
G01 X52.72000 Y-5.68165
G02 X53.16000 Y-5.24165 I0.44000 J0.00000
G01 X55.84000 Y-5.24165
G02 X56.28000 Y-5.68165 I0.00000 J-0.44000
G01 X56.28000 Y-8.24165
G02 X55.84000 Y-8.68165 I-0.44000 J0.00000
G01 X54.54792 Y-8.68165
G03 X54.44792 Y-8.78165 I0.00000 J-0.10000
G260
M08
G40
G00 X54.92292 Y-18.16004
(PartName=40171945 CutLength=13.245 MarkLength=0.000 Weigth=2.6 Quantity=1)
G41
N165 M07
G261
G03 X54.54792 Y-17.78504 I-0.37500 J-0.00000
G01 X53.16000 Y-17.78504
G02 X52.72000 Y-17.34504 I0.00000 J0.44000
G01 X52.72000 Y-14.78504
G02 X53.16000 Y-14.34504 I0.44000 J0.00000
G01 X55.84000 Y-14.34504
G02 X56.28000 Y-14.78504 I0.00000 J-0.44000
G01 X56.28000 Y-17.34504
G02 X55.84000 Y-17.78504 I-0.44000 J0.00000
G01 X54.54792 Y-17.78504
G03 X54.44792 Y-17.88504 I0.00000 J-0.10000
G260
M08
G40
G00 X54.92292 Y-27.26344
(PartName=40171945 CutLength=13.245 MarkLength=0.000 Weigth=2.6 Quantity=1)
G41
N166 M07
G261
G03 X54.54792 Y-26.88844 I-0.37500 J-0.00000
G01 X53.16000 Y-26.88844
G02 X52.72000 Y-26.44844 I0.00000 J0.44000
G01 X52.72000 Y-23.88844
G02 X53.16000 Y-23.44844 I0.44000 J0.00000
G01 X55.84000 Y-23.44844
G02 X56.28000 Y-23.88844 I0.00000 J-0.44000
G01 X56.28000 Y-26.44844
G02 X55.84000 Y-26.88844 I-0.44000 J-0.00000
G01 X54.54792 Y-26.88844
G03 X54.44792 Y-26.98844 I0.00000 J-0.10000
G260
M08
G40
G00 X54.92292 Y-36.36683
(PartName=40171945 CutLength=13.245 MarkLength=0.000 Weigth=2.6 Quantity=1)
G41
N167 M07
G261
G03 X54.54792 Y-35.99183 I-0.37500 J-0.00000
G01 X53.16000 Y-35.99183
G02 X52.72000 Y-35.55183 I0.00000 J0.44000
G01 X52.72000 Y-32.99183
G02 X53.16000 Y-32.55183 I0.44000 J0.00000
G01 X55.84000 Y-32.55183
G02 X56.28000 Y-32.99183 I-0.00000 J-0.44000
G01 X56.28000 Y-35.55183
G02 X55.84000 Y-35.99183 I-0.44000 J0.00000
G01 X54.54792 Y-35.99183
G03 X54.44792 Y-36.09183 I0.00000 J-0.10000
G260
M08
G40
G00 X54.92292 Y-45.47022
(PartName=40171945 CutLength=13.245 MarkLength=0.000 Weigth=2.6 Quantity=1)
G41
N168 M07
G261
G03 X54.54792 Y-45.09522 I-0.37500 J-0.00000
G01 X53.16000 Y-45.09522
G02 X52.72000 Y-44.65522 I0.00000 J0.44000
G01 X52.72000 Y-42.09522
G02 X53.16000 Y-41.65522 I0.44000 J-0.00000
G01 X55.84000 Y-41.65522
G02 X56.28000 Y-42.09522 I0.00000 J-0.44000
G01 X56.28000 Y-44.65522
G02 X55.84000 Y-45.09522 I-0.44000 J0.00000
G01 X54.54792 Y-45.09522
G03 X54.44792 Y-45.19522 I0.00000 J-0.10000
G260
M08
G40
G00 X54.92292 Y-54.57362
(PartName=40171945 CutLength=13.245 MarkLength=0.000 Weigth=2.6 Quantity=1)
G41
N169 M07
G261
G03 X54.54792 Y-54.19862 I-0.37500 J-0.00000
G01 X53.16000 Y-54.19862
G02 X52.72000 Y-53.75862 I0.00000 J0.44000
G01 X52.72000 Y-51.19862
G02 X53.16000 Y-50.75862 I0.44000 J0.00000
G01 X55.84000 Y-50.75862
G02 X56.28000 Y-51.19862 I0.00000 J-0.44000
G01 X56.28000 Y-53.75862
G02 X55.84000 Y-54.19862 I-0.44000 J0.00000
G01 X54.54792 Y-54.19862
G03 X54.44792 Y-54.29862 I0.00000 J-0.10000
G260
M08
G40
G00 X59.23292 Y-4.50495
(PartName=40171945 CutLength=13.245 MarkLength=0.000 Weigth=2.6 Quantity=1)
G41
N170 M07
G261
G03 X58.85792 Y-4.12995 I-0.37500 J0.00000
G01 X57.47000 Y-4.12995
G02 X57.03000 Y-3.68995 I0.00000 J0.44000
G01 X57.03000 Y-1.12995
G02 X57.47000 Y-0.68995 I0.44000 J0.00000
G01 X60.15000 Y-0.68995
G02 X60.59000 Y-1.12995 I0.00000 J-0.44000
G01 X60.59000 Y-3.68995
G02 X60.15000 Y-4.12995 I-0.44000 J-0.00000
G01 X58.85792 Y-4.12995
G03 X58.75792 Y-4.22995 I-0.00000 J-0.10000
G260
M08
G40
G00 X59.23292 Y-13.60835
(PartName=40171945 CutLength=13.245 MarkLength=0.000 Weigth=2.6 Quantity=1)
G41
N171 M07
G261
G03 X58.85792 Y-13.23335 I-0.37500 J-0.00000
G01 X57.47000 Y-13.23335
G02 X57.03000 Y-12.79335 I0.00000 J0.44000
G01 X57.03000 Y-10.23335
G02 X57.47000 Y-9.79335 I0.44000 J0.00000
G01 X60.15000 Y-9.79335
G02 X60.59000 Y-10.23335 I0.00000 J-0.44000
G01 X60.59000 Y-12.79335
G02 X60.15000 Y-13.23335 I-0.44000 J-0.00000
G01 X58.85792 Y-13.23335
G03 X58.75792 Y-13.33335 I-0.00000 J-0.10000
G260
M08
G40
G00 X59.23292 Y-22.71174
(PartName=40171945 CutLength=13.245 MarkLength=0.000 Weigth=2.6 Quantity=1)
G41
N172 M07
G261
G03 X58.85792 Y-22.33674 I-0.37500 J0.00000
G01 X57.47000 Y-22.33674
G02 X57.03000 Y-21.89674 I0.00000 J0.44000
G01 X57.03000 Y-19.33674
G02 X57.47000 Y-18.89674 I0.44000 J0.00000
G01 X60.15000 Y-18.89674
G02 X60.59000 Y-19.33674 I0.00000 J-0.44000
G01 X60.59000 Y-21.89674
G02 X60.15000 Y-22.33674 I-0.44000 J-0.00000
G01 X58.85792 Y-22.33674
G03 X58.75792 Y-22.43674 I0.00000 J-0.10000
G260
M08
G40
G00 X59.23292 Y-31.81513
(PartName=40171945 CutLength=13.245 MarkLength=0.000 Weigth=2.6 Quantity=1)
G41
N173 M07
G261
G03 X58.85792 Y-31.44013 I-0.37500 J0.00000
G01 X57.47000 Y-31.44013
G02 X57.03000 Y-31.00013 I0.00000 J0.44000
G01 X57.03000 Y-28.44013
G02 X57.47000 Y-28.00013 I0.44000 J0.00000
G01 X60.15000 Y-28.00013
G02 X60.59000 Y-28.44013 I0.00000 J-0.44000
G01 X60.59000 Y-31.00013
G02 X60.15000 Y-31.44013 I-0.44000 J0.00000
G01 X58.85792 Y-31.44013
G03 X58.75792 Y-31.54013 I0.00000 J-0.10000
G260
M08
G40
G00 X59.23292 Y-40.91853
(PartName=40171945 CutLength=13.245 MarkLength=0.000 Weigth=2.6 Quantity=1)
G41
N174 M07
G261
G03 X58.85792 Y-40.54353 I-0.37500 J0.00000
G01 X57.47000 Y-40.54353
G02 X57.03000 Y-40.10353 I0.00000 J0.44000
G01 X57.03000 Y-37.54353
G02 X57.47000 Y-37.10353 I0.44000 J0.00000
G01 X60.15000 Y-37.10353
G02 X60.59000 Y-37.54353 I0.00000 J-0.44000
G01 X60.59000 Y-40.10353
G02 X60.15000 Y-40.54353 I-0.44000 J0.00000
G01 X58.85792 Y-40.54353
G03 X58.75792 Y-40.64353 I0.00000 J-0.10000
G260
M08
G40
G00 X59.23292 Y-50.02192
(PartName=40171945 CutLength=13.245 MarkLength=0.000 Weigth=2.6 Quantity=1)
G41
N175 M07
G261
G03 X58.85792 Y-49.64692 I-0.37500 J0.00000
G01 X57.47000 Y-49.64692
G02 X57.03000 Y-49.20692 I0.00000 J0.44000
G01 X57.03000 Y-46.64692
G02 X57.47000 Y-46.20692 I0.44000 J0.00000
G01 X60.15000 Y-46.20692
G02 X60.59000 Y-46.64692 I0.00000 J-0.44000
G01 X60.59000 Y-49.20692
G02 X60.15000 Y-49.64692 I-0.44000 J0.00000
G01 X58.85792 Y-49.64692
G03 X58.75792 Y-49.74692 I-0.00000 J-0.10000
G260
M08
G40
G00 X59.23292 Y-59.11706
(PartName=40171945 CutLength=13.245 MarkLength=0.000 Weigth=2.6 Quantity=1)
G41
N176 M07
G261
G03 X58.85792 Y-58.74206 I-0.37500 J0.00000
G01 X57.47000 Y-58.74206
G02 X57.03000 Y-58.30206 I0.00000 J0.44000
G01 X57.03000 Y-55.74206
G02 X57.47000 Y-55.30206 I0.44000 J0.00000
G01 X60.15000 Y-55.30206
G02 X60.59000 Y-55.74206 I0.00000 J-0.44000
G01 X60.59000 Y-58.30206
G02 X60.15000 Y-58.74206 I-0.44000 J0.00000
G01 X58.85792 Y-58.74206
G03 X58.75792 Y-58.84206 I0.00000 J-0.10000
G260
M08
G40
G00 X59.23292 Y-9.05665
(PartName=40171945 CutLength=13.245 MarkLength=0.000 Weigth=2.6 Quantity=1)
G41
N177 M07
G261
G03 X58.85792 Y-8.68165 I-0.37500 J0.00000
G01 X57.47000 Y-8.68165
G02 X57.03000 Y-8.24165 I0.00000 J0.44000
G01 X57.03000 Y-5.68165
G02 X57.47000 Y-5.24165 I0.44000 J0.00000
G01 X60.15000 Y-5.24165
G02 X60.59000 Y-5.68165 I0.00000 J-0.44000
G01 X60.59000 Y-8.24165
G02 X60.15000 Y-8.68165 I-0.44000 J0.00000
G01 X58.85792 Y-8.68165
G03 X58.75792 Y-8.78165 I-0.00000 J-0.10000
G260
M08
G40
G00 X59.23292 Y-18.16004
(PartName=40171945 CutLength=13.245 MarkLength=0.000 Weigth=2.6 Quantity=1)
G41
N178 M07
G261
G03 X58.85792 Y-17.78504 I-0.37500 J0.00000
G01 X57.47000 Y-17.78504
G02 X57.03000 Y-17.34504 I0.00000 J0.44000
G01 X57.03000 Y-14.78504
G02 X57.47000 Y-14.34504 I0.44000 J0.00000
G01 X60.15000 Y-14.34504
G02 X60.59000 Y-14.78504 I0.00000 J-0.44000
G01 X60.59000 Y-17.34504
G02 X60.15000 Y-17.78504 I-0.44000 J0.00000
G01 X58.85792 Y-17.78504
G03 X58.75792 Y-17.88504 I0.00000 J-0.10000
G260
M08
G40
G00 X59.23292 Y-27.26344
(PartName=40171945 CutLength=13.245 MarkLength=0.000 Weigth=2.6 Quantity=1)
G41
N179 M07
G261
G03 X58.85792 Y-26.88844 I-0.37500 J0.00000
G01 X57.47000 Y-26.88844
G02 X57.03000 Y-26.44844 I0.00000 J0.44000
G01 X57.03000 Y-23.88844
G02 X57.47000 Y-23.44844 I0.44000 J0.00000
G01 X60.15000 Y-23.44844
G02 X60.59000 Y-23.88844 I0.00000 J-0.44000
G01 X60.59000 Y-26.44844
G02 X60.15000 Y-26.88844 I-0.44000 J-0.00000
G01 X58.85792 Y-26.88844
G03 X58.75792 Y-26.98844 I-0.00000 J-0.10000
G260
M08
G40
G00 X59.23292 Y-36.36683
(PartName=40171945 CutLength=13.245 MarkLength=0.000 Weigth=2.6 Quantity=1)
G41
N180 M07
G261
G03 X58.85792 Y-35.99183 I-0.37500 J0.00000
G01 X57.47000 Y-35.99183
G02 X57.03000 Y-35.55183 I0.00000 J0.44000
G01 X57.03000 Y-32.99183
G02 X57.47000 Y-32.55183 I0.44000 J0.00000
G01 X60.15000 Y-32.55183
G02 X60.59000 Y-32.99183 I0.00000 J-0.44000
G01 X60.59000 Y-35.55183
G02 X60.15000 Y-35.99183 I-0.44000 J0.00000
G01 X58.85792 Y-35.99183
G03 X58.75792 Y-36.09183 I-0.00000 J-0.10000
G260
M08
G40
G00 X59.23292 Y-45.47022
(PartName=40171945 CutLength=13.245 MarkLength=0.000 Weigth=2.6 Quantity=1)
G41
N181 M07
G261
G03 X58.85792 Y-45.09522 I-0.37500 J0.00000
G01 X57.47000 Y-45.09522
G02 X57.03000 Y-44.65522 I0.00000 J0.44000
G01 X57.03000 Y-42.09522
G02 X57.47000 Y-41.65522 I0.44000 J-0.00000
G01 X60.15000 Y-41.65522
G02 X60.59000 Y-42.09522 I0.00000 J-0.44000
G01 X60.59000 Y-44.65522
G02 X60.15000 Y-45.09522 I-0.44000 J0.00000
G01 X58.85792 Y-45.09522
G03 X58.75792 Y-45.19522 I-0.00000 J-0.10000
G260
M08
G40
G00 X59.23292 Y-54.57362
(PartName=40171945 CutLength=13.245 MarkLength=0.000 Weigth=2.6 Quantity=1)
G41
N182 M07
G261
G03 X58.85792 Y-54.19862 I-0.37500 J0.00000
G01 X57.47000 Y-54.19862
G02 X57.03000 Y-53.75862 I0.00000 J0.44000
G01 X57.03000 Y-51.19862
G02 X57.47000 Y-50.75862 I0.44000 J0.00000
G01 X60.15000 Y-50.75862
G02 X60.59000 Y-51.19862 I0.00000 J-0.44000
G01 X60.59000 Y-53.75862
G02 X60.15000 Y-54.19862 I-0.44000 J0.00000
G01 X58.85792 Y-54.19862
G03 X58.75792 Y-54.29862 I0.00000 J-0.10000
G260
M08
G40
G00 X63.54292 Y-4.50495
(PartName=40171945 CutLength=13.245 MarkLength=0.000 Weigth=2.6 Quantity=1)
G41
N183 M07
G261
G03 X63.16792 Y-4.12995 I-0.37500 J-0.00000
G01 X61.78000 Y-4.12995
G02 X61.34000 Y-3.68995 I0.00000 J0.44000
G01 X61.34000 Y-1.12995
G02 X61.78000 Y-0.68995 I0.44000 J0.00000
G01 X64.46000 Y-0.68995
G02 X64.90000 Y-1.12995 I0.00000 J-0.44000
G01 X64.90000 Y-3.68995
G02 X64.46000 Y-4.12995 I-0.44000 J-0.00000
G01 X63.16792 Y-4.12995
G03 X63.06792 Y-4.22995 I0.00000 J-0.10000
G260
M08
G40
G00 X63.54292 Y-13.60835
(PartName=40171945 CutLength=13.245 MarkLength=0.000 Weigth=2.6 Quantity=1)
G41
N184 M07
G261
G03 X63.16792 Y-13.23335 I-0.37500 J-0.00000
G01 X61.78000 Y-13.23335
G02 X61.34000 Y-12.79335 I0.00000 J0.44000
G01 X61.34000 Y-10.23335
G02 X61.78000 Y-9.79335 I0.44000 J0.00000
G01 X64.46000 Y-9.79335
G02 X64.90000 Y-10.23335 I0.00000 J-0.44000
G01 X64.90000 Y-12.79335
G02 X64.46000 Y-13.23335 I-0.44000 J-0.00000
G01 X63.16792 Y-13.23335
G03 X63.06792 Y-13.33335 I0.00000 J-0.10000
G260
M08
G40
G00 X63.54292 Y-22.71174
(PartName=40171945 CutLength=13.245 MarkLength=0.000 Weigth=2.6 Quantity=1)
G41
N185 M07
G261
G03 X63.16792 Y-22.33674 I-0.37500 J-0.00000
G01 X61.78000 Y-22.33674
G02 X61.34000 Y-21.89674 I0.00000 J0.44000
G01 X61.34000 Y-19.33674
G02 X61.78000 Y-18.89674 I0.44000 J0.00000
G01 X64.46000 Y-18.89674
G02 X64.90000 Y-19.33674 I0.00000 J-0.44000
G01 X64.90000 Y-21.89674
G02 X64.46000 Y-22.33674 I-0.44000 J-0.00000
G01 X63.16792 Y-22.33674
G03 X63.06792 Y-22.43674 I0.00000 J-0.10000
G260
M08
G40
G00 X63.54292 Y-31.81513
(PartName=40171945 CutLength=13.245 MarkLength=0.000 Weigth=2.6 Quantity=1)
G41
N186 M07
G261
G03 X63.16792 Y-31.44013 I-0.37500 J0.00000
G01 X61.78000 Y-31.44013
G02 X61.34000 Y-31.00013 I0.00000 J0.44000
G01 X61.34000 Y-28.44013
G02 X61.78000 Y-28.00013 I0.44000 J0.00000
G01 X64.46000 Y-28.00013
G02 X64.90000 Y-28.44013 I0.00000 J-0.44000
G01 X64.90000 Y-31.00013
G02 X64.46000 Y-31.44013 I-0.44000 J0.00000
G01 X63.16792 Y-31.44013
G03 X63.06792 Y-31.54013 I0.00000 J-0.10000
G260
M08
G40
G00 X63.54292 Y-40.91853
