(PP_NAME=PP_Din)
(PP_VERSION=	4.0)
(PP_INI_NAME=GC_US_PLASMA_4.2.ini)
(PP_INI_VERSION=2013-04-04)
(%%INFO MACHINE=HPRXD MS130)
(%%INFO Material=MS Thickness=0.75 PlateLength=120.000 PlateWidth=60.000)
(%%INFO PartName=40171945=206pcs=2.6lbs)
(%%INFO TotalCutLength=2882.090)
(%%INFO TotalPierceCount=206)
G70
G162
G141
G237
#CS ON [V.E.START_X, V.E.START_Y, 0, 0, 0, V.E.ROTATION]
M190
G90
#CONTOUR MODE[DEV PATH_DEV=0.008 RELEVANT_PATH=0.004]
(PlanHeaderCommand)
G00 X1.06500 Y-1.00409
T21
(PartName=40171945 CutLength=13.245 MarkLength=0.000 Weigth=2.6 Quantity=1)
G41
N1 M07
G261
G03 X1.44000 Y-1.37909 I0.37500 J0.00000
G01 X4.12000 Y-1.37909
G02 X4.56000 Y-1.81909 I0.00000 J-0.44000
G01 X4.56000 Y-4.37909
G02 X4.12000 Y-4.81909 I-0.44000 J-0.00000
G01 X1.44000 Y-4.81909
G02 X1.00000 Y-4.37909 I0.00000 J0.44000
G01 X1.00000 Y-1.81909
G02 X1.44000 Y-1.37909 I0.44000 J0.00000
G03 X1.54000 Y-1.27909 I0.00000 J0.10000
G260
M08
G40
G00 X4.49896 Y-9.38409
(PartName=40171945 CutLength=13.245 MarkLength=0.000 Weigth=2.6 Quantity=1)
G41
N2 M07
G261
G03 X4.12396 Y-9.00909 I-0.37500 J-0.00000
G01 X1.44396 Y-9.00909
G02 X1.00396 Y-8.56909 I-0.00000 J0.44000
G01 X1.00396 Y-6.00909
G02 X1.44396 Y-5.56909 I0.44000 J0.00000
G01 X4.12396 Y-5.56909
G02 X4.56396 Y-6.00909 I0.00000 J-0.44000
G01 X4.56396 Y-8.56909
G02 X4.12396 Y-9.00909 I-0.44000 J0.00000
G03 X4.02396 Y-9.10909 I-0.00000 J-0.10000
G260
M08
G40
G00 X1.06500 Y-9.74799
(PartName=40171945 CutLength=13.245 MarkLength=0.000 Weigth=2.6 Quantity=1)
G41
N3 M07
G261
G03 X1.44000 Y-10.12299 I0.37500 J0.00000
G01 X4.12000 Y-10.12299
G02 X4.56000 Y-10.56299 I0.00000 J-0.44000
G01 X4.56000 Y-13.12299
G02 X4.12000 Y-13.56299 I-0.44000 J0.00000
G01 X1.44000 Y-13.56299
G02 X1.00000 Y-13.12299 I-0.00000 J0.44000
G01 X1.00000 Y-10.56299
G02 X1.44000 Y-10.12299 I0.44000 J-0.00000
G03 X1.54000 Y-10.02299 I0.00000 J0.10000
G260
M08
G40
G00 X4.49896 Y-18.12799
(PartName=40171945 CutLength=13.245 MarkLength=0.000 Weigth=2.6 Quantity=1)
G41
N4 M07
G261
G03 X4.12396 Y-17.75299 I-0.37500 J0.00000
G01 X1.44396 Y-17.75299
G02 X1.00396 Y-17.31299 I-0.00000 J0.44000
G01 X1.00396 Y-14.75299
G02 X1.44396 Y-14.31299 I0.44000 J0.00000
G01 X4.12396 Y-14.31299
G02 X4.56396 Y-14.75299 I0.00000 J-0.44000
G01 X4.56396 Y-17.31299
G02 X4.12396 Y-17.75299 I-0.44000 J0.00000
G03 X4.02396 Y-17.85299 I0.00000 J-0.10000
G260
M08
G40
G00 X1.06500 Y-18.49189
(PartName=40171945 CutLength=13.245 MarkLength=0.000 Weigth=2.6 Quantity=1)
G41
N5 M07
G261
G03 X1.44000 Y-18.86689 I0.37500 J0.00000
G01 X4.12000 Y-18.86689
G02 X4.56000 Y-19.30689 I-0.00000 J-0.44000
G01 X4.56000 Y-21.86689
G02 X4.12000 Y-22.30689 I-0.44000 J-0.00000
G01 X1.44000 Y-22.30689
G02 X1.00000 Y-21.86689 I0.00000 J0.44000
G01 X1.00000 Y-19.30689
G02 X1.44000 Y-18.86689 I0.44000 J0.00000
G03 X1.54000 Y-18.76689 I-0.00000 J0.10000
G260
M08
G40
G00 X4.49896 Y-26.87189
(PartName=40171945 CutLength=13.245 MarkLength=0.000 Weigth=2.6 Quantity=1)
G41
N6 M07
G261
G03 X4.12396 Y-26.49689 I-0.37500 J0.00000
G01 X1.44396 Y-26.49689
G02 X1.00396 Y-26.05689 I0.00000 J0.44000
G01 X1.00396 Y-23.49689
G02 X1.44396 Y-23.05689 I0.44000 J0.00000
G01 X4.12396 Y-23.05689
G02 X4.56396 Y-23.49689 I0.00000 J-0.44000
G01 X4.56396 Y-26.05689
G02 X4.12396 Y-26.49689 I-0.44000 J0.00000
G03 X4.02396 Y-26.59689 I-0.00000 J-0.10000
G260
M08
G40
G00 X1.06500 Y-27.23578
(PartName=40171945 CutLength=13.245 MarkLength=0.000 Weigth=2.6 Quantity=1)
G41
N7 M07
G261
G03 X1.44000 Y-27.61078 I0.37500 J0.00000
G01 X4.12000 Y-27.61078
G02 X4.56000 Y-28.05078 I-0.00000 J-0.44000
G01 X4.56000 Y-30.61078
G02 X4.12000 Y-31.05078 I-0.44000 J0.00000
G01 X1.44000 Y-31.05078
G02 X1.00000 Y-30.61078 I0.00000 J0.44000
G01 X1.00000 Y-28.05078
G02 X1.44000 Y-27.61078 I0.44000 J0.00000
G03 X1.54000 Y-27.51078 I-0.00000 J0.10000
G260
M08
G40
G00 X4.49896 Y-35.61578
(PartName=40171945 CutLength=13.245 MarkLength=0.000 Weigth=2.6 Quantity=1)
G41
N8 M07
G261
G03 X4.12396 Y-35.24078 I-0.37500 J0.00000
G01 X1.44396 Y-35.24078
G02 X1.00396 Y-34.80078 I0.00000 J0.44000
G01 X1.00396 Y-32.24078
G02 X1.44396 Y-31.80078 I0.44000 J0.00000
G01 X4.12396 Y-31.80078
G02 X4.56396 Y-32.24078 I-0.00000 J-0.44000
G01 X4.56396 Y-34.80078
G02 X4.12396 Y-35.24078 I-0.44000 J-0.00000
G03 X4.02396 Y-35.34078 I0.00000 J-0.10000
G260
M08
G40
G00 X1.06500 Y-35.97968
(PartName=40171945 CutLength=13.245 MarkLength=0.000 Weigth=2.6 Quantity=1)
G41
N9 M07
G261
G03 X1.44000 Y-36.35468 I0.37500 J0.00000
G01 X4.12000 Y-36.35468
G02 X4.56000 Y-36.79468 I-0.00000 J-0.44000
G01 X4.56000 Y-39.35468
G02 X4.12000 Y-39.79468 I-0.44000 J0.00000
G01 X1.44000 Y-39.79468
G02 X1.00000 Y-39.35468 I-0.00000 J0.44000
G01 X1.00000 Y-36.79468
G02 X1.44000 Y-36.35468 I0.44000 J0.00000
G03 X1.54000 Y-36.25468 I0.00000 J0.10000
G260
M08
G40
G00 X4.49896 Y-44.35968
(PartName=40171945 CutLength=13.245 MarkLength=0.000 Weigth=2.6 Quantity=1)
G41
N10 M07
G261
G03 X4.12396 Y-43.98468 I-0.37500 J0.00000
G01 X1.44396 Y-43.98468
G02 X1.00396 Y-43.54468 I-0.00000 J0.44000
G01 X1.00396 Y-40.98468
G02 X1.44396 Y-40.54468 I0.44000 J0.00000
G01 X4.12396 Y-40.54468
G02 X4.56396 Y-40.98468 I0.00000 J-0.44000
G01 X4.56396 Y-43.54468
G02 X4.12396 Y-43.98468 I-0.44000 J0.00000
G03 X4.02396 Y-44.08468 I-0.00000 J-0.10000
G260
M08
G40
G00 X1.06500 Y-44.72357
(PartName=40171945 CutLength=13.245 MarkLength=0.000 Weigth=2.6 Quantity=1)
G41
N11 M07
G261
G03 X1.44000 Y-45.09857 I0.37500 J0.00000
G01 X4.12000 Y-45.09857
G02 X4.56000 Y-45.53857 I0.00000 J-0.44000
G01 X4.56000 Y-48.09857
G02 X4.12000 Y-48.53857 I-0.44000 J0.00000
G01 X1.44000 Y-48.53857
G02 X1.00000 Y-48.09857 I-0.00000 J0.44000
G01 X1.00000 Y-45.53857
G02 X1.44000 Y-45.09857 I0.44000 J0.00000
G03 X1.54000 Y-44.99857 I0.00000 J0.10000
G260
M08
G40
G00 X5.37896 Y-1.00409
(PartName=40171945 CutLength=13.245 MarkLength=0.000 Weigth=2.6 Quantity=1)
G41
N12 M07
G261
G03 X5.75396 Y-1.37909 I0.37500 J0.00000
G01 X8.43396 Y-1.37909
G02 X8.87396 Y-1.81909 I-0.00000 J-0.44000
G01 X8.87396 Y-4.37909
G02 X8.43396 Y-4.81909 I-0.44000 J-0.00000
G01 X5.75396 Y-4.81909
G02 X5.31396 Y-4.37909 I0.00000 J0.44000
G01 X5.31396 Y-1.81909
G02 X5.75396 Y-1.37909 I0.44000 J0.00000
G03 X5.85396 Y-1.27909 I0.00000 J0.10000
G260
M08
G40
G00 X8.81293 Y-9.38409
(PartName=40171945 CutLength=13.245 MarkLength=0.000 Weigth=2.6 Quantity=1)
G41
N13 M07
G261
G03 X8.43793 Y-9.00909 I-0.37500 J-0.00000
G01 X5.75793 Y-9.00909
G02 X5.31793 Y-8.56909 I0.00000 J0.44000
G01 X5.31793 Y-6.00909
G02 X5.75793 Y-5.56909 I0.44000 J0.00000
G01 X8.43793 Y-5.56909
G02 X8.87793 Y-6.00909 I0.00000 J-0.44000
G01 X8.87793 Y-8.56909
G02 X8.43793 Y-9.00909 I-0.44000 J0.00000
G03 X8.33793 Y-9.10909 I0.00000 J-0.10000
G260
M08
G40
G00 X5.37896 Y-9.74799
(PartName=40171945 CutLength=13.245 MarkLength=0.000 Weigth=2.6 Quantity=1)
G41
N14 M07
G261
G03 X5.75396 Y-10.12299 I0.37500 J0.00000
G01 X8.43396 Y-10.12299
G02 X8.87396 Y-10.56299 I0.00000 J-0.44000
G01 X8.87396 Y-13.12299
G02 X8.43396 Y-13.56299 I-0.44000 J0.00000
G01 X5.75396 Y-13.56299
G02 X5.31396 Y-13.12299 I0.00000 J0.44000
G01 X5.31396 Y-10.56299
G02 X5.75396 Y-10.12299 I0.44000 J0.00000
G03 X5.85396 Y-10.02299 I0.00000 J0.10000
G260
M08
G40
G00 X8.81293 Y-18.12799
(PartName=40171945 CutLength=13.245 MarkLength=0.000 Weigth=2.6 Quantity=1)
G41
N15 M07
G261
G03 X8.43793 Y-17.75299 I-0.37500 J0.00000
G01 X5.75793 Y-17.75299
G02 X5.31793 Y-17.31299 I-0.00000 J0.44000
G01 X5.31793 Y-14.75299
G02 X5.75793 Y-14.31299 I0.44000 J0.00000
G01 X8.43793 Y-14.31299
G02 X8.87793 Y-14.75299 I0.00000 J-0.44000
G01 X8.87793 Y-17.31299
G02 X8.43793 Y-17.75299 I-0.44000 J0.00000
G03 X8.33793 Y-17.85299 I0.00000 J-0.10000
G260
M08
G40
G00 X5.37896 Y-18.49189
(PartName=40171945 CutLength=13.245 MarkLength=0.000 Weigth=2.6 Quantity=1)
G41
N16 M07
G261
G03 X5.75396 Y-18.86689 I0.37500 J0.00000
G01 X8.43396 Y-18.86689
G02 X8.87396 Y-19.30689 I-0.00000 J-0.44000
G01 X8.87396 Y-21.86689
G02 X8.43396 Y-22.30689 I-0.44000 J-0.00000
G01 X5.75396 Y-22.30689
G02 X5.31396 Y-21.86689 I0.00000 J0.44000
G01 X5.31396 Y-19.30689
G02 X5.75396 Y-18.86689 I0.44000 J0.00000
G03 X5.85396 Y-18.76689 I-0.00000 J0.10000
G260
M08
G40
G00 X8.81293 Y-26.87189
(PartName=40171945 CutLength=13.245 MarkLength=0.000 Weigth=2.6 Quantity=1)
G41
N17 M07
G261
G03 X8.43793 Y-26.49689 I-0.37500 J0.00000
G01 X5.75793 Y-26.49689
G02 X5.31793 Y-26.05689 I0.00000 J0.44000
G01 X5.31793 Y-23.49689
G02 X5.75793 Y-23.05689 I0.44000 J0.00000
G01 X8.43793 Y-23.05689
G02 X8.87793 Y-23.49689 I0.00000 J-0.44000
G01 X8.87793 Y-26.05689
G02 X8.43793 Y-26.49689 I-0.44000 J0.00000
G03 X8.33793 Y-26.59689 I0.00000 J-0.10000
G260
M08
G40
G00 X5.37896 Y-27.23578
(PartName=40171945 CutLength=13.245 MarkLength=0.000 Weigth=2.6 Quantity=1)
G41
N18 M07
G261
G03 X5.75396 Y-27.61078 I0.37500 J0.00000
G01 X8.43396 Y-27.61078
G02 X8.87396 Y-28.05078 I-0.00000 J-0.44000
G01 X8.87396 Y-30.61078
G02 X8.43396 Y-31.05078 I-0.44000 J0.00000
G01 X5.75396 Y-31.05078
G02 X5.31396 Y-30.61078 I0.00000 J0.44000
G01 X5.31396 Y-28.05078
G02 X5.75396 Y-27.61078 I0.44000 J0.00000
G03 X5.85396 Y-27.51078 I-0.00000 J0.10000
G260
M08
G40
G00 X8.81293 Y-35.61578
(PartName=40171945 CutLength=13.245 MarkLength=0.000 Weigth=2.6 Quantity=1)
G41
N19 M07
G261
G03 X8.43793 Y-35.24078 I-0.37500 J0.00000
G01 X5.75793 Y-35.24078
G02 X5.31793 Y-34.80078 I0.00000 J0.44000
G01 X5.31793 Y-32.24078
G02 X5.75793 Y-31.80078 I0.44000 J0.00000
G01 X8.43793 Y-31.80078
G02 X8.87793 Y-32.24078 I-0.00000 J-0.44000
G01 X8.87793 Y-34.80078
G02 X8.43793 Y-35.24078 I-0.44000 J-0.00000
G03 X8.33793 Y-35.34078 I0.00000 J-0.10000
G260
M08
G40
G00 X5.37896 Y-35.97968
(PartName=40171945 CutLength=13.245 MarkLength=0.000 Weigth=2.6 Quantity=1)
G41
N20 M07
G261
G03 X5.75396 Y-36.35468 I0.37500 J0.00000
G01 X8.43396 Y-36.35468
G02 X8.87396 Y-36.79468 I-0.00000 J-0.44000
G01 X8.87396 Y-39.35468
G02 X8.43396 Y-39.79468 I-0.44000 J0.00000
G01 X5.75396 Y-39.79468
G02 X5.31396 Y-39.35468 I-0.00000 J0.44000
G01 X5.31396 Y-36.79468
G02 X5.75396 Y-36.35468 I0.44000 J0.00000
G03 X5.85396 Y-36.25468 I0.00000 J0.10000
G260
M08
G40
G00 X8.81293 Y-44.35968
(PartName=40171945 CutLength=13.245 MarkLength=0.000 Weigth=2.6 Quantity=1)
G41
N21 M07
G261
G03 X8.43793 Y-43.98468 I-0.37500 J0.00000
G01 X5.75793 Y-43.98468
G02 X5.31793 Y-43.54468 I-0.00000 J0.44000
G01 X5.31793 Y-40.98468
G02 X5.75793 Y-40.54468 I0.44000 J0.00000
G01 X8.43793 Y-40.54468
G02 X8.87793 Y-40.98468 I0.00000 J-0.44000
G01 X8.87793 Y-43.54468
G02 X8.43793 Y-43.98468 I-0.44000 J0.00000
G03 X8.33793 Y-44.08468 I-0.00000 J-0.10000
G260
M08
G40
G00 X5.37896 Y-44.72357
(PartName=40171945 CutLength=13.245 MarkLength=0.000 Weigth=2.6 Quantity=1)
G41
N22 M07
G261
G03 X5.75396 Y-45.09857 I0.37500 J0.00000
G01 X8.43396 Y-45.09857
G02 X8.87396 Y-45.53857 I0.00000 J-0.44000
G01 X8.87396 Y-48.09857
G02 X8.43396 Y-48.53857 I-0.44000 J0.00000
G01 X5.75396 Y-48.53857
G02 X5.31396 Y-48.09857 I-0.00000 J0.44000
G01 X5.31396 Y-45.53857
G02 X5.75396 Y-45.09857 I0.44000 J0.00000
G03 X5.85396 Y-44.99857 I0.00000 J0.10000
G260
M08
G40
G00 X9.69293 Y-1.00409
(PartName=40171945 CutLength=13.245 MarkLength=0.000 Weigth=2.6 Quantity=1)
G41
N23 M07
G261
G03 X10.06793 Y-1.37909 I0.37500 J0.00000
G01 X12.74793 Y-1.37909
G02 X13.18793 Y-1.81909 I0.00000 J-0.44000
G01 X13.18793 Y-4.37909
G02 X12.74793 Y-4.81909 I-0.44000 J-0.00000
G01 X10.06793 Y-4.81909
G02 X9.62793 Y-4.37909 I0.00000 J0.44000
G01 X9.62793 Y-1.81909
G02 X10.06793 Y-1.37909 I0.44000 J0.00000
G03 X10.16793 Y-1.27909 I0.00000 J0.10000
G260
M08
G40
G00 X13.12689 Y-9.38409
(PartName=40171945 CutLength=13.245 MarkLength=0.000 Weigth=2.6 Quantity=1)
G41
N24 M07
G261
G03 X12.75189 Y-9.00909 I-0.37500 J-0.00000
G01 X10.07189 Y-9.00909
G02 X9.63189 Y-8.56909 I0.00000 J0.44000
G01 X9.63189 Y-6.00909
G02 X10.07189 Y-5.56909 I0.44000 J0.00000
G01 X12.75189 Y-5.56909
G02 X13.19189 Y-6.00909 I0.00000 J-0.44000
G01 X13.19189 Y-8.56909
G02 X12.75189 Y-9.00909 I-0.44000 J0.00000
G03 X12.65189 Y-9.10909 I0.00000 J-0.10000
G260
M08
G40
G00 X9.69293 Y-9.74799
(PartName=40171945 CutLength=13.245 MarkLength=0.000 Weigth=2.6 Quantity=1)
G41
N25 M07
G261
G03 X10.06793 Y-10.12299 I0.37500 J0.00000
G01 X12.74793 Y-10.12299
G02 X13.18793 Y-10.56299 I0.00000 J-0.44000
G01 X13.18793 Y-13.12299
G02 X12.74793 Y-13.56299 I-0.44000 J0.00000
G01 X10.06793 Y-13.56299
G02 X9.62793 Y-13.12299 I0.00000 J0.44000
G01 X9.62793 Y-10.56299
G02 X10.06793 Y-10.12299 I0.44000 J0.00000
G03 X10.16793 Y-10.02299 I0.00000 J0.10000
G260
M08
G40
G00 X13.12689 Y-18.12799
(PartName=40171945 CutLength=13.245 MarkLength=0.000 Weigth=2.6 Quantity=1)
G41
N26 M07
G261
G03 X12.75189 Y-17.75299 I-0.37500 J0.00000
G01 X10.07189 Y-17.75299
G02 X9.63189 Y-17.31299 I-0.00000 J0.44000
G01 X9.63189 Y-14.75299
G02 X10.07189 Y-14.31299 I0.44000 J0.00000
G01 X12.75189 Y-14.31299
G02 X13.19189 Y-14.75299 I0.00000 J-0.44000
G01 X13.19189 Y-17.31299
G02 X12.75189 Y-17.75299 I-0.44000 J0.00000
G03 X12.65189 Y-17.85299 I0.00000 J-0.10000
G260
M08
G40
G00 X9.69293 Y-18.49189
(PartName=40171945 CutLength=13.245 MarkLength=0.000 Weigth=2.6 Quantity=1)
G41
N27 M07
G261
G03 X10.06793 Y-18.86689 I0.37500 J0.00000
G01 X12.74793 Y-18.86689
G02 X13.18793 Y-19.30689 I0.00000 J-0.44000
G01 X13.18793 Y-21.86689
G02 X12.74793 Y-22.30689 I-0.44000 J-0.00000
G01 X10.06793 Y-22.30689
G02 X9.62793 Y-21.86689 I0.00000 J0.44000
G01 X9.62793 Y-19.30689
G02 X10.06793 Y-18.86689 I0.44000 J0.00000
G03 X10.16793 Y-18.76689 I0.00000 J0.10000
G260
M08
G40
G00 X13.12689 Y-26.87189
(PartName=40171945 CutLength=13.245 MarkLength=0.000 Weigth=2.6 Quantity=1)
G41
N28 M07
G261
G03 X12.75189 Y-26.49689 I-0.37500 J0.00000
G01 X10.07189 Y-26.49689
G02 X9.63189 Y-26.05689 I0.00000 J0.44000
G01 X9.63189 Y-23.49689
G02 X10.07189 Y-23.05689 I0.44000 J0.00000
G01 X12.75189 Y-23.05689
G02 X13.19189 Y-23.49689 I-0.00000 J-0.44000
G01 X13.19189 Y-26.05689
G02 X12.75189 Y-26.49689 I-0.44000 J0.00000
G03 X12.65189 Y-26.59689 I-0.00000 J-0.10000
G260
M08
G40
G00 X9.69293 Y-27.23578
(PartName=40171945 CutLength=13.245 MarkLength=0.000 Weigth=2.6 Quantity=1)
G41
N29 M07
G261
G03 X10.06793 Y-27.61078 I0.37500 J0.00000
G01 X12.74793 Y-27.61078
G02 X13.18793 Y-28.05078 I0.00000 J-0.44000
G01 X13.18793 Y-30.61078
G02 X12.74793 Y-31.05078 I-0.44000 J0.00000
G01 X10.06793 Y-31.05078
G02 X9.62793 Y-30.61078 I0.00000 J0.44000
G01 X9.62793 Y-28.05078
G02 X10.06793 Y-27.61078 I0.44000 J0.00000
G03 X10.16793 Y-27.51078 I0.00000 J0.10000
G260
M08
G40
G00 X13.12689 Y-35.61578
(PartName=40171945 CutLength=13.245 MarkLength=0.000 Weigth=2.6 Quantity=1)
G41
N30 M07
G261
G03 X12.75189 Y-35.24078 I-0.37500 J0.00000
G01 X10.07189 Y-35.24078
G02 X9.63189 Y-34.80078 I0.00000 J0.44000
G01 X9.63189 Y-32.24078
G02 X10.07189 Y-31.80078 I0.44000 J0.00000
G01 X12.75189 Y-31.80078
G02 X13.19189 Y-32.24078 I-0.00000 J-0.44000
G01 X13.19189 Y-34.80078
G02 X12.75189 Y-35.24078 I-0.44000 J-0.00000
G03 X12.65189 Y-35.34078 I0.00000 J-0.10000
G260
M08
G40
G00 X9.69293 Y-35.97968
(PartName=40171945 CutLength=13.245 MarkLength=0.000 Weigth=2.6 Quantity=1)
G41
N31 M07
G261
G03 X10.06793 Y-36.35468 I0.37500 J0.00000
G01 X12.74793 Y-36.35468
G02 X13.18793 Y-36.79468 I-0.00000 J-0.44000
G01 X13.18793 Y-39.35468
G02 X12.74793 Y-39.79468 I-0.44000 J0.00000
G01 X10.06793 Y-39.79468
G02 X9.62793 Y-39.35468 I-0.00000 J0.44000
G01 X9.62793 Y-36.79468
G02 X10.06793 Y-36.35468 I0.44000 J0.00000
G03 X10.16793 Y-36.25468 I0.00000 J0.10000
G260
M08
G40
G00 X13.12689 Y-44.35968
(PartName=40171945 CutLength=13.245 MarkLength=0.000 Weigth=2.6 Quantity=1)
G41
N32 M07
G261
G03 X12.75189 Y-43.98468 I-0.37500 J0.00000
G01 X10.07189 Y-43.98468
G02 X9.63189 Y-43.54468 I-0.00000 J0.44000
G01 X9.63189 Y-40.98468
G02 X10.07189 Y-40.54468 I0.44000 J0.00000
G01 X12.75189 Y-40.54468
G02 X13.19189 Y-40.98468 I0.00000 J-0.44000
G01 X13.19189 Y-43.54468
G02 X12.75189 Y-43.98468 I-0.44000 J0.00000
G03 X12.65189 Y-44.08468 I-0.00000 J-0.10000
G260
M08
G40
G00 X9.69293 Y-44.72357
(PartName=40171945 CutLength=13.245 MarkLength=0.000 Weigth=2.6 Quantity=1)
G41
N33 M07
G261
G03 X10.06793 Y-45.09857 I0.37500 J0.00000
G01 X12.74793 Y-45.09857
G02 X13.18793 Y-45.53857 I0.00000 J-0.44000
G01 X13.18793 Y-48.09857
G02 X12.74793 Y-48.53857 I-0.44000 J0.00000
G01 X10.06793 Y-48.53857
G02 X9.62793 Y-48.09857 I-0.00000 J0.44000
G01 X9.62793 Y-45.53857
G02 X10.06793 Y-45.09857 I0.44000 J0.00000
G03 X10.16793 Y-44.99857 I0.00000 J0.10000
G260
M08
G40
G00 X14.00689 Y-1.00409
(PartName=40171945 CutLength=13.245 MarkLength=0.000 Weigth=2.6 Quantity=1)
G41
N34 M07
G261
G03 X14.38189 Y-1.37909 I0.37500 J0.00000
G01 X17.06189 Y-1.37909
G02 X17.50189 Y-1.81909 I0.00000 J-0.44000
G01 X17.50189 Y-4.37909
G02 X17.06189 Y-4.81909 I-0.44000 J-0.00000
G01 X14.38189 Y-4.81909
G02 X13.94189 Y-4.37909 I0.00000 J0.44000
G01 X13.94189 Y-1.81909
G02 X14.38189 Y-1.37909 I0.44000 J0.00000
G03 X14.48189 Y-1.27909 I0.00000 J0.10000
G260
M08
G40
G00 X17.44086 Y-9.38409
(PartName=40171945 CutLength=13.245 MarkLength=0.000 Weigth=2.6 Quantity=1)
G41
N35 M07
G261
G03 X17.06586 Y-9.00909 I-0.37500 J-0.00000
G01 X14.38586 Y-9.00909
G02 X13.94586 Y-8.56909 I0.00000 J0.44000
G01 X13.94586 Y-6.00909
G02 X14.38586 Y-5.56909 I0.44000 J0.00000
G01 X17.06586 Y-5.56909
G02 X17.50586 Y-6.00909 I0.00000 J-0.44000
G01 X17.50586 Y-8.56909
G02 X17.06586 Y-9.00909 I-0.44000 J-0.00000
G03 X16.96586 Y-9.10909 I0.00000 J-0.10000
G260
M08
G40
G00 X14.00689 Y-9.74799
(PartName=40171945 CutLength=13.245 MarkLength=0.000 Weigth=2.6 Quantity=1)
G41
N36 M07
G261
G03 X14.38189 Y-10.12299 I0.37500 J0.00000
G01 X17.06189 Y-10.12299
G02 X17.50189 Y-10.56299 I0.00000 J-0.44000
G01 X17.50189 Y-13.12299
G02 X17.06189 Y-13.56299 I-0.44000 J-0.00000
G01 X14.38189 Y-13.56299
G02 X13.94189 Y-13.12299 I0.00000 J0.44000
G01 X13.94189 Y-10.56299
G02 X14.38189 Y-10.12299 I0.44000 J0.00000
G03 X14.48189 Y-10.02299 I0.00000 J0.10000
G260
M08
G40
G00 X17.44086 Y-18.12799
(PartName=40171945 CutLength=13.245 MarkLength=0.000 Weigth=2.6 Quantity=1)
G41
N37 M07
G261
G03 X17.06586 Y-17.75299 I-0.37500 J0.00000
G01 X14.38586 Y-17.75299
G02 X13.94586 Y-17.31299 I0.00000 J0.44000
G01 X13.94586 Y-14.75299
G02 X14.38586 Y-14.31299 I0.44000 J0.00000
G01 X17.06586 Y-14.31299
G02 X17.50586 Y-14.75299 I0.00000 J-0.44000
G01 X17.50586 Y-17.31299
G02 X17.06586 Y-17.75299 I-0.44000 J0.00000
G03 X16.96586 Y-17.85299 I0.00000 J-0.10000
G260
M08
G40
G00 X14.00689 Y-18.49189
(PartName=40171945 CutLength=13.245 MarkLength=0.000 Weigth=2.6 Quantity=1)
G41
N38 M07
G261
G03 X14.38189 Y-18.86689 I0.37500 J0.00000
G01 X17.06189 Y-18.86689
G02 X17.50189 Y-19.30689 I0.00000 J-0.44000
G01 X17.50189 Y-21.86689
G02 X17.06189 Y-22.30689 I-0.44000 J-0.00000
G01 X14.38189 Y-22.30689
G02 X13.94189 Y-21.86689 I0.00000 J0.44000
G01 X13.94189 Y-19.30689
G02 X14.38189 Y-18.86689 I0.44000 J0.00000
G03 X14.48189 Y-18.76689 I0.00000 J0.10000
G260
M08
G40
G00 X17.44086 Y-26.87189
(PartName=40171945 CutLength=13.245 MarkLength=0.000 Weigth=2.6 Quantity=1)
G41
N39 M07
G261
G03 X17.06586 Y-26.49689 I-0.37500 J0.00000
G01 X14.38586 Y-26.49689
G02 X13.94586 Y-26.05689 I0.00000 J0.44000
G01 X13.94586 Y-23.49689
G02 X14.38586 Y-23.05689 I0.44000 J0.00000
G01 X17.06586 Y-23.05689
G02 X17.50586 Y-23.49689 I0.00000 J-0.44000
G01 X17.50586 Y-26.05689
G02 X17.06586 Y-26.49689 I-0.44000 J0.00000
G03 X16.96586 Y-26.59689 I0.00000 J-0.10000
G260
M08
G40
G00 X14.00689 Y-27.23578
(PartName=40171945 CutLength=13.245 MarkLength=0.000 Weigth=2.6 Quantity=1)
G41
N40 M07
G261
G03 X14.38189 Y-27.61078 I0.37500 J0.00000
G01 X17.06189 Y-27.61078
G02 X17.50189 Y-28.05078 I0.00000 J-0.44000
G01 X17.50189 Y-30.61078
G02 X17.06189 Y-31.05078 I-0.44000 J0.00000
G01 X14.38189 Y-31.05078
G02 X13.94189 Y-30.61078 I0.00000 J0.44000
G01 X13.94189 Y-28.05078
G02 X14.38189 Y-27.61078 I0.44000 J0.00000
G03 X14.48189 Y-27.51078 I0.00000 J0.10000
G260
M08
G40
G00 X17.44086 Y-35.61578
(PartName=40171945 CutLength=13.245 MarkLength=0.000 Weigth=2.6 Quantity=1)
G41
N41 M07
G261
G03 X17.06586 Y-35.24078 I-0.37500 J0.00000
G01 X14.38586 Y-35.24078
G02 X13.94586 Y-34.80078 I0.00000 J0.44000
G01 X13.94586 Y-32.24078
G02 X14.38586 Y-31.80078 I0.44000 J0.00000
G01 X17.06586 Y-31.80078
G02 X17.50586 Y-32.24078 I-0.00000 J-0.44000
G01 X17.50586 Y-34.80078
G02 X17.06586 Y-35.24078 I-0.44000 J-0.00000
G03 X16.96586 Y-35.34078 I0.00000 J-0.10000
G260
M08
G40
G00 X14.00689 Y-35.97968
(PartName=40171945 CutLength=13.245 MarkLength=0.000 Weigth=2.6 Quantity=1)
G41
N42 M07
G261
G03 X14.38189 Y-36.35468 I0.37500 J0.00000
G01 X17.06189 Y-36.35468
G02 X17.50189 Y-36.79468 I-0.00000 J-0.44000
G01 X17.50189 Y-39.35468
G02 X17.06189 Y-39.79468 I-0.44000 J0.00000
G01 X14.38189 Y-39.79468
G02 X13.94189 Y-39.35468 I0.00000 J0.44000
G01 X13.94189 Y-36.79468
G02 X14.38189 Y-36.35468 I0.44000 J0.00000
G03 X14.48189 Y-36.25468 I0.00000 J0.10000
G260
M08
G40
G00 X17.44086 Y-44.35968
(PartName=40171945 CutLength=13.245 MarkLength=0.000 Weigth=2.6 Quantity=1)
G41
N43 M07
G261
G03 X17.06586 Y-43.98468 I-0.37500 J0.00000
G01 X14.38586 Y-43.98468
G02 X13.94586 Y-43.54468 I0.00000 J0.44000
G01 X13.94586 Y-40.98468
G02 X14.38586 Y-40.54468 I0.44000 J0.00000
G01 X17.06586 Y-40.54468
G02 X17.50586 Y-40.98468 I0.00000 J-0.44000
G01 X17.50586 Y-43.54468
G02 X17.06586 Y-43.98468 I-0.44000 J0.00000
G03 X16.96586 Y-44.08468 I-0.00000 J-0.10000
G260
M08
G40
G00 X14.00689 Y-44.72357
(PartName=40171945 CutLength=13.245 MarkLength=0.000 Weigth=2.6 Quantity=1)
G41
N44 M07
G261
G03 X14.38189 Y-45.09857 I0.37500 J0.00000
G01 X17.06189 Y-45.09857
G02 X17.50189 Y-45.53857 I0.00000 J-0.44000
G01 X17.50189 Y-48.09857
G02 X17.06189 Y-48.53857 I-0.44000 J0.00000
G01 X14.38189 Y-48.53857
G02 X13.94189 Y-48.09857 I0.00000 J0.44000
G01 X13.94189 Y-45.53857
G02 X14.38189 Y-45.09857 I0.44000 J0.00000
G03 X14.48189 Y-44.99857 I0.00000 J0.10000
G260
M08
G40
G00 X18.32086 Y-1.00409
(PartName=40171945 CutLength=13.245 MarkLength=0.000 Weigth=2.6 Quantity=1)
G41
N45 M07
G261
G03 X18.69586 Y-1.37909 I0.37500 J0.00000
G01 X21.37586 Y-1.37909
G02 X21.81586 Y-1.81909 I0.00000 J-0.44000
G01 X21.81586 Y-4.37909
G02 X21.37586 Y-4.81909 I-0.44000 J0.00000
G01 X18.69586 Y-4.81909
G02 X18.25586 Y-4.37909 I0.00000 J0.44000
G01 X18.25586 Y-1.81909
G02 X18.69586 Y-1.37909 I0.44000 J0.00000
G03 X18.79586 Y-1.27909 I0.00000 J0.10000
G260
M08
G40
G00 X21.75482 Y-9.38409
(PartName=40171945 CutLength=13.245 MarkLength=0.000 Weigth=2.6 Quantity=1)
G41
N46 M07
G261
G03 X21.37982 Y-9.00909 I-0.37500 J-0.00000
G01 X18.69982 Y-9.00909
G02 X18.25982 Y-8.56909 I0.00000 J0.44000
G01 X18.25982 Y-6.00909
G02 X18.69982 Y-5.56909 I0.44000 J0.00000
G01 X21.37982 Y-5.56909
G02 X21.81982 Y-6.00909 I0.00000 J-0.44000
G01 X21.81982 Y-8.56909
G02 X21.37982 Y-9.00909 I-0.44000 J0.00000
G03 X21.27982 Y-9.10909 I0.00000 J-0.10000
G260
M08
G40
G00 X18.32086 Y-9.74799
(PartName=40171945 CutLength=13.245 MarkLength=0.000 Weigth=2.6 Quantity=1)
G41
N47 M07
G261
G03 X18.69586 Y-10.12299 I0.37500 J0.00000
G01 X21.37586 Y-10.12299
G02 X21.81586 Y-10.56299 I0.00000 J-0.44000
G01 X21.81586 Y-13.12299
G02 X21.37586 Y-13.56299 I-0.44000 J0.00000
G01 X18.69586 Y-13.56299
G02 X18.25586 Y-13.12299 I0.00000 J0.44000
G01 X18.25586 Y-10.56299
G02 X18.69586 Y-10.12299 I0.44000 J0.00000
G03 X18.79586 Y-10.02299 I0.00000 J0.10000
G260
M08
G40
G00 X21.75482 Y-18.12799
(PartName=40171945 CutLength=13.245 MarkLength=0.000 Weigth=2.6 Quantity=1)
G41
N48 M07
G261
G03 X21.37982 Y-17.75299 I-0.37500 J0.00000
G01 X18.69982 Y-17.75299
G02 X18.25982 Y-17.31299 I0.00000 J0.44000
G01 X18.25982 Y-14.75299
G02 X18.69982 Y-14.31299 I0.44000 J0.00000
G01 X21.37982 Y-14.31299
G02 X21.81982 Y-14.75299 I0.00000 J-0.44000
G01 X21.81982 Y-17.31299
G02 X21.37982 Y-17.75299 I-0.44000 J0.00000
G03 X21.27982 Y-17.85299 I0.00000 J-0.10000
G260
M08
G40
G00 X18.32086 Y-18.49189
(PartName=40171945 CutLength=13.245 MarkLength=0.000 Weigth=2.6 Quantity=1)
G41
N49 M07
G261
G03 X18.69586 Y-18.86689 I0.37500 J0.00000
G01 X21.37586 Y-18.86689
G02 X21.81586 Y-19.30689 I0.00000 J-0.44000
G01 X21.81586 Y-21.86689
G02 X21.37586 Y-22.30689 I-0.44000 J0.00000
G01 X18.69586 Y-22.30689
G02 X18.25586 Y-21.86689 I0.00000 J0.44000
G01 X18.25586 Y-19.30689
G02 X18.69586 Y-18.86689 I0.44000 J0.00000
G03 X18.79586 Y-18.76689 I0.00000 J0.10000
G260
M08
G40
G00 X21.75482 Y-26.87189
(PartName=40171945 CutLength=13.245 MarkLength=0.000 Weigth=2.6 Quantity=1)
G41
N50 M07
G261
G03 X21.37982 Y-26.49689 I-0.37500 J0.00000
G01 X18.69982 Y-26.49689
G02 X18.25982 Y-26.05689 I0.00000 J0.44000
G01 X18.25982 Y-23.49689
G02 X18.69982 Y-23.05689 I0.44000 J0.00000
G01 X21.37982 Y-23.05689
G02 X21.81982 Y-23.49689 I0.00000 J-0.44000
G01 X21.81982 Y-26.05689
G02 X21.37982 Y-26.49689 I-0.44000 J0.00000
G03 X21.27982 Y-26.59689 I0.00000 J-0.10000
G260
M08
G40
G00 X18.32086 Y-27.23578
(PartName=40171945 CutLength=13.245 MarkLength=0.000 Weigth=2.6 Quantity=1)
G41
N51 M07
G261
G03 X18.69586 Y-27.61078 I0.37500 J0.00000
G01 X21.37586 Y-27.61078
G02 X21.81586 Y-28.05078 I0.00000 J-0.44000
G01 X21.81586 Y-30.61078
G02 X21.37586 Y-31.05078 I-0.44000 J0.00000
G01 X18.69586 Y-31.05078
G02 X18.25586 Y-30.61078 I0.00000 J0.44000
G01 X18.25586 Y-28.05078
G02 X18.69586 Y-27.61078 I0.44000 J0.00000
G03 X18.79586 Y-27.51078 I0.00000 J0.10000
G260
M08
G40
G00 X21.75482 Y-35.61578
(PartName=40171945 CutLength=13.245 MarkLength=0.000 Weigth=2.6 Quantity=1)
G41
N52 M07
G261
G03 X21.37982 Y-35.24078 I-0.37500 J0.00000
G01 X18.69982 Y-35.24078
G02 X18.25982 Y-34.80078 I0.00000 J0.44000
G01 X18.25982 Y-32.24078
G02 X18.69982 Y-31.80078 I0.44000 J0.00000
G01 X21.37982 Y-31.80078
G02 X21.81982 Y-32.24078 I-0.00000 J-0.44000
G01 X21.81982 Y-34.80078
G02 X21.37982 Y-35.24078 I-0.44000 J-0.00000
G03 X21.27982 Y-35.34078 I0.00000 J-0.10000
G260
M08
G40
G00 X18.32086 Y-35.97968
(PartName=40171945 CutLength=13.245 MarkLength=0.000 Weigth=2.6 Quantity=1)
G41
N53 M07
G261
G03 X18.69586 Y-36.35468 I0.37500 J0.00000
G01 X21.37586 Y-36.35468
G02 X21.81586 Y-36.79468 I-0.00000 J-0.44000
G01 X21.81586 Y-39.35468
G02 X21.37586 Y-39.79468 I-0.44000 J0.00000
G01 X18.69586 Y-39.79468
G02 X18.25586 Y-39.35468 I0.00000 J0.44000
G01 X18.25586 Y-36.79468
G02 X18.69586 Y-36.35468 I0.44000 J0.00000
G03 X18.79586 Y-36.25468 I0.00000 J0.10000
G260
M08
G40
G00 X21.75482 Y-44.35968
(PartName=40171945 CutLength=13.245 MarkLength=0.000 Weigth=2.6 Quantity=1)
G41
N54 M07
G261
G03 X21.37982 Y-43.98468 I-0.37500 J0.00000
G01 X18.69982 Y-43.98468
G02 X18.25982 Y-43.54468 I0.00000 J0.44000
G01 X18.25982 Y-40.98468
G02 X18.69982 Y-40.54468 I0.44000 J0.00000
G01 X21.37982 Y-40.54468
G02 X21.81982 Y-40.98468 I0.00000 J-0.44000
G01 X21.81982 Y-43.54468
G02 X21.37982 Y-43.98468 I-0.44000 J0.00000
G03 X21.27982 Y-44.08468 I-0.00000 J-0.10000
G260
M08
G40
G00 X18.32086 Y-44.72357
(PartName=40171945 CutLength=13.245 MarkLength=0.000 Weigth=2.6 Quantity=1)
G41
N55 M07
G261
G03 X18.69586 Y-45.09857 I0.37500 J0.00000
G01 X21.37586 Y-45.09857
G02 X21.81586 Y-45.53857 I0.00000 J-0.44000
G01 X21.81586 Y-48.09857
G02 X21.37586 Y-48.53857 I-0.44000 J0.00000
G01 X18.69586 Y-48.53857
G02 X18.25586 Y-48.09857 I0.00000 J0.44000
G01 X18.25586 Y-45.53857
G02 X18.69586 Y-45.09857 I0.44000 J0.00000
G03 X18.79586 Y-44.99857 I0.00000 J0.10000
G260
M08
G40
G00 X22.63482 Y-1.00409
(PartName=40171945 CutLength=13.245 MarkLength=0.000 Weigth=2.6 Quantity=1)
G41
N56 M07
G261
G03 X23.00982 Y-1.37909 I0.37500 J0.00000
G01 X25.68982 Y-1.37909
G02 X26.12982 Y-1.81909 I0.00000 J-0.44000
G01 X26.12982 Y-4.37909
G02 X25.68982 Y-4.81909 I-0.44000 J0.00000
G01 X23.00982 Y-4.81909
G02 X22.56982 Y-4.37909 I0.00000 J0.44000
G01 X22.56982 Y-1.81909
G02 X23.00982 Y-1.37909 I0.44000 J-0.00000
G03 X23.10982 Y-1.27909 I-0.00000 J0.10000
G260
M08
G40
G00 X26.06879 Y-9.38409
(PartName=40171945 CutLength=13.245 MarkLength=0.000 Weigth=2.6 Quantity=1)
G41
N57 M07
G261
G03 X25.69379 Y-9.00909 I-0.37500 J-0.00000
G01 X23.01379 Y-9.00909
G02 X22.57379 Y-8.56909 I0.00000 J0.44000
G01 X22.57379 Y-6.00909
G02 X23.01379 Y-5.56909 I0.44000 J-0.00000
G01 X25.69379 Y-5.56909
G02 X26.13379 Y-6.00909 I0.00000 J-0.44000
G01 X26.13379 Y-8.56909
G02 X25.69379 Y-9.00909 I-0.44000 J0.00000
G03 X25.59379 Y-9.10909 I0.00000 J-0.10000
G260
M08
G40
G00 X22.63482 Y-9.74799
(PartName=40171945 CutLength=13.245 MarkLength=0.000 Weigth=2.6 Quantity=1)
G41
N58 M07
G261
G03 X23.00982 Y-10.12299 I0.37500 J0.00000
G01 X25.68982 Y-10.12299
G02 X26.12982 Y-10.56299 I0.00000 J-0.44000
G01 X26.12982 Y-13.12299
G02 X25.68982 Y-13.56299 I-0.44000 J0.00000
G01 X23.00982 Y-13.56299
G02 X22.56982 Y-13.12299 I0.00000 J0.44000
G01 X22.56982 Y-10.56299
G02 X23.00982 Y-10.12299 I0.44000 J-0.00000
G03 X23.10982 Y-10.02299 I-0.00000 J0.10000
G260
M08
G40
G00 X26.06879 Y-18.12799
(PartName=40171945 CutLength=13.245 MarkLength=0.000 Weigth=2.6 Quantity=1)
G41
N59 M07
G261
G03 X25.69379 Y-17.75299 I-0.37500 J0.00000
G01 X23.01379 Y-17.75299
G02 X22.57379 Y-17.31299 I0.00000 J0.44000
G01 X22.57379 Y-14.75299
G02 X23.01379 Y-14.31299 I0.44000 J0.00000
G01 X25.69379 Y-14.31299
G02 X26.13379 Y-14.75299 I0.00000 J-0.44000
G01 X26.13379 Y-17.31299
G02 X25.69379 Y-17.75299 I-0.44000 J0.00000
G03 X25.59379 Y-17.85299 I0.00000 J-0.10000
G260
M08
G40
G00 X22.63482 Y-18.49189
(PartName=40171945 CutLength=13.245 MarkLength=0.000 Weigth=2.6 Quantity=1)
G41
N60 M07
G261
G03 X23.00982 Y-18.86689 I0.37500 J0.00000
G01 X25.68982 Y-18.86689
G02 X26.12982 Y-19.30689 I-0.00000 J-0.44000
G01 X26.12982 Y-21.86689
G02 X25.68982 Y-22.30689 I-0.44000 J0.00000
G01 X23.00982 Y-22.30689
G02 X22.56982 Y-21.86689 I0.00000 J0.44000
G01 X22.56982 Y-19.30689
G02 X23.00982 Y-18.86689 I0.44000 J-0.00000
G03 X23.10982 Y-18.76689 I-0.00000 J0.10000
G260
M08
G40
G00 X26.06879 Y-26.87189
(PartName=40171945 CutLength=13.245 MarkLength=0.000 Weigth=2.6 Quantity=1)
G41
N61 M07
G261
G03 X25.69379 Y-26.49689 I-0.37500 J0.00000
G01 X23.01379 Y-26.49689
G02 X22.57379 Y-26.05689 I0.00000 J0.44000
G01 X22.57379 Y-23.49689
G02 X23.01379 Y-23.05689 I0.44000 J0.00000
G01 X25.69379 Y-23.05689
G02 X26.13379 Y-23.49689 I0.00000 J-0.44000
G01 X26.13379 Y-26.05689
G02 X25.69379 Y-26.49689 I-0.44000 J0.00000
G03 X25.59379 Y-26.59689 I0.00000 J-0.10000
G260
M08
G40
G00 X22.63482 Y-27.23578
(PartName=40171945 CutLength=13.245 MarkLength=0.000 Weigth=2.6 Quantity=1)
G41
N62 M07
G261
G03 X23.00982 Y-27.61078 I0.37500 J0.00000
G01 X25.68982 Y-27.61078
G02 X26.12982 Y-28.05078 I-0.00000 J-0.44000
G01 X26.12982 Y-30.61078
G02 X25.68982 Y-31.05078 I-0.44000 J0.00000
G01 X23.00982 Y-31.05078
G02 X22.56982 Y-30.61078 I0.00000 J0.44000
G01 X22.56982 Y-28.05078
G02 X23.00982 Y-27.61078 I0.44000 J0.00000
G03 X23.10982 Y-27.51078 I-0.00000 J0.10000
G260
M08
G40
G00 X26.06879 Y-35.61578
(PartName=40171945 CutLength=13.245 MarkLength=0.000 Weigth=2.6 Quantity=1)
G41
N63 M07
G261
G03 X25.69379 Y-35.24078 I-0.37500 J0.00000
G01 X23.01379 Y-35.24078
G02 X22.57379 Y-34.80078 I0.00000 J0.44000
G01 X22.57379 Y-32.24078
G02 X23.01379 Y-31.80078 I0.44000 J0.00000
G01 X25.69379 Y-31.80078
G02 X26.13379 Y-32.24078 I-0.00000 J-0.44000
G01 X26.13379 Y-34.80078
G02 X25.69379 Y-35.24078 I-0.44000 J-0.00000
G03 X25.59379 Y-35.34078 I0.00000 J-0.10000
G260
M08
G40
G00 X22.63482 Y-35.97968
(PartName=40171945 CutLength=13.245 MarkLength=0.000 Weigth=2.6 Quantity=1)
G41
N64 M07
G261
G03 X23.00982 Y-36.35468 I0.37500 J0.00000
G01 X25.68982 Y-36.35468
G02 X26.12982 Y-36.79468 I-0.00000 J-0.44000
G01 X26.12982 Y-39.35468
G02 X25.68982 Y-39.79468 I-0.44000 J0.00000
G01 X23.00982 Y-39.79468
G02 X22.56982 Y-39.35468 I0.00000 J0.44000
G01 X22.56982 Y-36.79468
G02 X23.00982 Y-36.35468 I0.44000 J0.00000
G03 X23.10982 Y-36.25468 I0.00000 J0.10000
G260
M08
G40
G00 X26.06879 Y-44.35968
(PartName=40171945 CutLength=13.245 MarkLength=0.000 Weigth=2.6 Quantity=1)
G41
N65 M07
G261
G03 X25.69379 Y-43.98468 I-0.37500 J0.00000
G01 X23.01379 Y-43.98468
G02 X22.57379 Y-43.54468 I0.00000 J0.44000
G01 X22.57379 Y-40.98468
G02 X23.01379 Y-40.54468 I0.44000 J0.00000
G01 X25.69379 Y-40.54468
G02 X26.13379 Y-40.98468 I0.00000 J-0.44000
G01 X26.13379 Y-43.54468
G02 X25.69379 Y-43.98468 I-0.44000 J0.00000
G03 X25.59379 Y-44.08468 I0.00000 J-0.10000
G260
M08
G40
G00 X22.63482 Y-44.72357
(PartName=40171945 CutLength=13.245 MarkLength=0.000 Weigth=2.6 Quantity=1)
G41
N66 M07
G261
G03 X23.00982 Y-45.09857 I0.37500 J0.00000
G01 X25.68982 Y-45.09857
G02 X26.12982 Y-45.53857 I0.00000 J-0.44000
G01 X26.12982 Y-48.09857
G02 X25.68982 Y-48.53857 I-0.44000 J0.00000
G01 X23.00982 Y-48.53857
G02 X22.56982 Y-48.09857 I0.00000 J0.44000
G01 X22.56982 Y-45.53857
G02 X23.00982 Y-45.09857 I0.44000 J0.00000
G03 X23.10982 Y-44.99857 I0.00000 J0.10000
G260
M08
G40
G00 X26.94879 Y-1.00409
(PartName=40171945 CutLength=13.245 MarkLength=0.000 Weigth=2.6 Quantity=1)
G41
N67 M07
G261
G03 X27.32379 Y-1.37909 I0.37500 J0.00000
G01 X30.00379 Y-1.37909
G02 X30.44379 Y-1.81909 I0.00000 J-0.44000
G01 X30.44379 Y-4.37909
G02 X30.00379 Y-4.81909 I-0.44000 J0.00000
G01 X27.32379 Y-4.81909
G02 X26.88379 Y-4.37909 I0.00000 J0.44000
G01 X26.88379 Y-1.81909
G02 X27.32379 Y-1.37909 I0.44000 J-0.00000
G03 X27.42379 Y-1.27909 I0.00000 J0.10000
G260
M08
G40
G00 X30.38275 Y-9.38409
(PartName=40171945 CutLength=13.245 MarkLength=0.000 Weigth=2.6 Quantity=1)
G41
N68 M07
G261
G03 X30.00775 Y-9.00909 I-0.37500 J0.00000
G01 X27.32775 Y-9.00909
G02 X26.88775 Y-8.56909 I-0.00000 J0.44000
G01 X26.88775 Y-6.00909
G02 X27.32775 Y-5.56909 I0.44000 J-0.00000
G01 X30.00775 Y-5.56909
G02 X30.44775 Y-6.00909 I0.00000 J-0.44000
G01 X30.44775 Y-8.56909
G02 X30.00775 Y-9.00909 I-0.44000 J0.00000
G03 X29.90775 Y-9.10909 I0.00000 J-0.10000
G260
M08
G40
G00 X26.94879 Y-9.74799
(PartName=40171945 CutLength=13.245 MarkLength=0.000 Weigth=2.6 Quantity=1)
G41
N69 M07
G261
G03 X27.32379 Y-10.12299 I0.37500 J0.00000
G01 X30.00379 Y-10.12299
G02 X30.44379 Y-10.56299 I0.00000 J-0.44000
G01 X30.44379 Y-13.12299
G02 X30.00379 Y-13.56299 I-0.44000 J0.00000
G01 X27.32379 Y-13.56299
G02 X26.88379 Y-13.12299 I0.00000 J0.44000
G01 X26.88379 Y-10.56299
G02 X27.32379 Y-10.12299 I0.44000 J-0.00000
G03 X27.42379 Y-10.02299 I0.00000 J0.10000
G260
M08
G40
G00 X30.38275 Y-18.12799
(PartName=40171945 CutLength=13.245 MarkLength=0.000 Weigth=2.6 Quantity=1)
G41
N70 M07
G261
G03 X30.00775 Y-17.75299 I-0.37500 J0.00000
G01 X27.32775 Y-17.75299
G02 X26.88775 Y-17.31299 I-0.00000 J0.44000
G01 X26.88775 Y-14.75299
G02 X27.32775 Y-14.31299 I0.44000 J0.00000
G01 X30.00775 Y-14.31299
G02 X30.44775 Y-14.75299 I0.00000 J-0.44000
G01 X30.44775 Y-17.31299
G02 X30.00775 Y-17.75299 I-0.44000 J0.00000
G03 X29.90775 Y-17.85299 I0.00000 J-0.10000
G260
M08
G40
G00 X26.94879 Y-18.49189
(PartName=40171945 CutLength=13.245 MarkLength=0.000 Weigth=2.6 Quantity=1)
G41
N71 M07
G261
G03 X27.32379 Y-18.86689 I0.37500 J0.00000
G01 X30.00379 Y-18.86689
G02 X30.44379 Y-19.30689 I0.00000 J-0.44000
G01 X30.44379 Y-21.86689
G02 X30.00379 Y-22.30689 I-0.44000 J0.00000
G01 X27.32379 Y-22.30689
G02 X26.88379 Y-21.86689 I0.00000 J0.44000
G01 X26.88379 Y-19.30689
G02 X27.32379 Y-18.86689 I0.44000 J-0.00000
G03 X27.42379 Y-18.76689 I0.00000 J0.10000
G260
M08
G40
G00 X30.38275 Y-26.87189
(PartName=40171945 CutLength=13.245 MarkLength=0.000 Weigth=2.6 Quantity=1)
G41
N72 M07
G261
G03 X30.00775 Y-26.49689 I-0.37500 J0.00000
G01 X27.32775 Y-26.49689
G02 X26.88775 Y-26.05689 I0.00000 J0.44000
G01 X26.88775 Y-23.49689
G02 X27.32775 Y-23.05689 I0.44000 J0.00000
G01 X30.00775 Y-23.05689
G02 X30.44775 Y-23.49689 I0.00000 J-0.44000
G01 X30.44775 Y-26.05689
G02 X30.00775 Y-26.49689 I-0.44000 J0.00000
G03 X29.90775 Y-26.59689 I0.00000 J-0.10000
G260
M08
G40
G00 X26.94879 Y-27.23578
(PartName=40171945 CutLength=13.245 MarkLength=0.000 Weigth=2.6 Quantity=1)
G41
N73 M07
G261
G03 X27.32379 Y-27.61078 I0.37500 J0.00000
G01 X30.00379 Y-27.61078
G02 X30.44379 Y-28.05078 I0.00000 J-0.44000
G01 X30.44379 Y-30.61078
G02 X30.00379 Y-31.05078 I-0.44000 J0.00000
G01 X27.32379 Y-31.05078
G02 X26.88379 Y-30.61078 I0.00000 J0.44000
G01 X26.88379 Y-28.05078
G02 X27.32379 Y-27.61078 I0.44000 J0.00000
G03 X27.42379 Y-27.51078 I0.00000 J0.10000
G260
M08
G40
G00 X30.38275 Y-35.61578
(PartName=40171945 CutLength=13.245 MarkLength=0.000 Weigth=2.6 Quantity=1)
G41
N74 M07
G261
G03 X30.00775 Y-35.24078 I-0.37500 J0.00000
G01 X27.32775 Y-35.24078
G02 X26.88775 Y-34.80078 I0.00000 J0.44000
G01 X26.88775 Y-32.24078
G02 X27.32775 Y-31.80078 I0.44000 J0.00000
G01 X30.00775 Y-31.80078
G02 X30.44775 Y-32.24078 I-0.00000 J-0.44000
G01 X30.44775 Y-34.80078
G02 X30.00775 Y-35.24078 I-0.44000 J-0.00000
G03 X29.90775 Y-35.34078 I0.00000 J-0.10000
G260
M08
G40
G00 X26.94879 Y-35.97968
(PartName=40171945 CutLength=13.245 MarkLength=0.000 Weigth=2.6 Quantity=1)
G41
N75 M07
G261
G03 X27.32379 Y-36.35468 I0.37500 J0.00000
G01 X30.00379 Y-36.35468
G02 X30.44379 Y-36.79468 I0.00000 J-0.44000
G01 X30.44379 Y-39.35468
G02 X30.00379 Y-39.79468 I-0.44000 J0.00000
G01 X27.32379 Y-39.79468
G02 X26.88379 Y-39.35468 I0.00000 J0.44000
G01 X26.88379 Y-36.79468
G02 X27.32379 Y-36.35468 I0.44000 J0.00000
G03 X27.42379 Y-36.25468 I0.00000 J0.10000
G260
M08
G40
G00 X30.38275 Y-44.35968
(PartName=40171945 CutLength=13.245 MarkLength=0.000 Weigth=2.6 Quantity=1)
G41
N76 M07
G261
G03 X30.00775 Y-43.98468 I-0.37500 J0.00000
G01 X27.32775 Y-43.98468
G02 X26.88775 Y-43.54468 I-0.00000 J0.44000
G01 X26.88775 Y-40.98468
G02 X27.32775 Y-40.54468 I0.44000 J0.00000
G01 X30.00775 Y-40.54468
G02 X30.44775 Y-40.98468 I0.00000 J-0.44000
G01 X30.44775 Y-43.54468
G02 X30.00775 Y-43.98468 I-0.44000 J0.00000
G03 X29.90775 Y-44.08468 I-0.00000 J-0.10000
G260
M08
G40
G00 X26.94879 Y-44.72357
(PartName=40171945 CutLength=13.245 MarkLength=0.000 Weigth=2.6 Quantity=1)
G41
N77 M07
G261
G03 X27.32379 Y-45.09857 I0.37500 J0.00000
G01 X30.00379 Y-45.09857
G02 X30.44379 Y-45.53857 I0.00000 J-0.44000
G01 X30.44379 Y-48.09857
G02 X30.00379 Y-48.53857 I-0.44000 J0.00000
G01 X27.32379 Y-48.53857
G02 X26.88379 Y-48.09857 I0.00000 J0.44000
G01 X26.88379 Y-45.53857
G02 X27.32379 Y-45.09857 I0.44000 J0.00000
G03 X27.42379 Y-44.99857 I0.00000 J0.10000
G260
M08
G40
G00 X31.26275 Y-1.00409
(PartName=40171945 CutLength=13.245 MarkLength=0.000 Weigth=2.6 Quantity=1)
G41
N78 M07
G261
G03 X31.63775 Y-1.37909 I0.37500 J0.00000
G01 X34.31775 Y-1.37909
G02 X34.75775 Y-1.81909 I0.00000 J-0.44000
G01 X34.75775 Y-4.37909
G02 X34.31775 Y-4.81909 I-0.44000 J0.00000
G01 X31.63775 Y-4.81909
G02 X31.19775 Y-4.37909 I0.00000 J0.44000
G01 X31.19775 Y-1.81909
G02 X31.63775 Y-1.37909 I0.44000 J-0.00000
G03 X31.73775 Y-1.27909 I-0.00000 J0.10000
G260
M08
G40
G00 X34.69672 Y-9.38409
(PartName=40171945 CutLength=13.245 MarkLength=0.000 Weigth=2.6 Quantity=1)
G41
N79 M07
G261
G03 X34.32172 Y-9.00909 I-0.37500 J-0.00000
G01 X31.64172 Y-9.00909
G02 X31.20172 Y-8.56909 I0.00000 J0.44000
G01 X31.20172 Y-6.00909
G02 X31.64172 Y-5.56909 I0.44000 J-0.00000
G01 X34.32172 Y-5.56909
G02 X34.76172 Y-6.00909 I0.00000 J-0.44000
G01 X34.76172 Y-8.56909
G02 X34.32172 Y-9.00909 I-0.44000 J0.00000
G03 X34.22172 Y-9.10909 I0.00000 J-0.10000
G260
M08
G40
G00 X31.26275 Y-9.74799
(PartName=40171945 CutLength=13.245 MarkLength=0.000 Weigth=2.6 Quantity=1)
G41
N80 M07
G261
G03 X31.63775 Y-10.12299 I0.37500 J0.00000
G01 X34.31775 Y-10.12299
G02 X34.75775 Y-10.56299 I0.00000 J-0.44000
G01 X34.75775 Y-13.12299
G02 X34.31775 Y-13.56299 I-0.44000 J0.00000
G01 X31.63775 Y-13.56299
G02 X31.19775 Y-13.12299 I0.00000 J0.44000
G01 X31.19775 Y-10.56299
G02 X31.63775 Y-10.12299 I0.44000 J-0.00000
G03 X31.73775 Y-10.02299 I-0.00000 J0.10000
G260
M08
G40
G00 X34.69672 Y-18.12799
(PartName=40171945 CutLength=13.245 MarkLength=0.000 Weigth=2.6 Quantity=1)
G41
N81 M07
G261
G03 X34.32172 Y-17.75299 I-0.37500 J0.00000
G01 X31.64172 Y-17.75299
G02 X31.20172 Y-17.31299 I0.00000 J0.44000
G01 X31.20172 Y-14.75299
G02 X31.64172 Y-14.31299 I0.44000 J0.00000
G01 X34.32172 Y-14.31299
G02 X34.76172 Y-14.75299 I0.00000 J-0.44000
G01 X34.76172 Y-17.31299
G02 X34.32172 Y-17.75299 I-0.44000 J0.00000
G03 X34.22172 Y-17.85299 I0.00000 J-0.10000
G260
M08
G40
G00 X31.26275 Y-18.49189
(PartName=40171945 CutLength=13.245 MarkLength=0.000 Weigth=2.6 Quantity=1)
G41
N82 M07
G261
G03 X31.63775 Y-18.86689 I0.37500 J0.00000
G01 X34.31775 Y-18.86689
G02 X34.75775 Y-19.30689 I0.00000 J-0.44000
G01 X34.75775 Y-21.86689
G02 X34.31775 Y-22.30689 I-0.44000 J0.00000
G01 X31.63775 Y-22.30689
G02 X31.19775 Y-21.86689 I0.00000 J0.44000
G01 X31.19775 Y-19.30689
G02 X31.63775 Y-18.86689 I0.44000 J-0.00000
G03 X31.73775 Y-18.76689 I-0.00000 J0.10000
G260
M08
G40
G00 X34.69672 Y-26.87189
(PartName=40171945 CutLength=13.245 MarkLength=0.000 Weigth=2.6 Quantity=1)
G41
N83 M07
G261
G03 X34.32172 Y-26.49689 I-0.37500 J0.00000
G01 X31.64172 Y-26.49689
G02 X31.20172 Y-26.05689 I0.00000 J0.44000
G01 X31.20172 Y-23.49689
G02 X31.64172 Y-23.05689 I0.44000 J0.00000
G01 X34.32172 Y-23.05689
G02 X34.76172 Y-23.49689 I0.00000 J-0.44000
G01 X34.76172 Y-26.05689
G02 X34.32172 Y-26.49689 I-0.44000 J0.00000
G03 X34.22172 Y-26.59689 I0.00000 J-0.10000
G260
M08
G40
G00 X31.26275 Y-27.23578
(PartName=40171945 CutLength=13.245 MarkLength=0.000 Weigth=2.6 Quantity=1)
G41
N84 M07
G261
G03 X31.63775 Y-27.61078 I0.37500 J0.00000
G01 X34.31775 Y-27.61078
G02 X34.75775 Y-28.05078 I0.00000 J-0.44000
G01 X34.75775 Y-30.61078
G02 X34.31775 Y-31.05078 I-0.44000 J0.00000
G01 X31.63775 Y-31.05078
G02 X31.19775 Y-30.61078 I0.00000 J0.44000
G01 X31.19775 Y-28.05078
G02 X31.63775 Y-27.61078 I0.44000 J0.00000
G03 X31.73775 Y-27.51078 I-0.00000 J0.10000
G260
M08
G40
G00 X34.69672 Y-35.61578
(PartName=40171945 CutLength=13.245 MarkLength=0.000 Weigth=2.6 Quantity=1)
G41
N85 M07
G261
G03 X34.32172 Y-35.24078 I-0.37500 J0.00000
G01 X31.64172 Y-35.24078
G02 X31.20172 Y-34.80078 I0.00000 J0.44000
G01 X31.20172 Y-32.24078
G02 X31.64172 Y-31.80078 I0.44000 J0.00000
G01 X34.32172 Y-31.80078
G02 X34.76172 Y-32.24078 I0.00000 J-0.44000
G01 X34.76172 Y-34.80078
G02 X34.32172 Y-35.24078 I-0.44000 J-0.00000
G03 X34.22172 Y-35.34078 I0.00000 J-0.10000
G260
M08
G40
G00 X31.26275 Y-35.97968
(PartName=40171945 CutLength=13.245 MarkLength=0.000 Weigth=2.6 Quantity=1)
G41
N86 M07
G261
G03 X31.63775 Y-36.35468 I0.37500 J0.00000
G01 X34.31775 Y-36.35468
G02 X34.75775 Y-36.79468 I0.00000 J-0.44000
G01 X34.75775 Y-39.35468
G02 X34.31775 Y-39.79468 I-0.44000 J0.00000
G01 X31.63775 Y-39.79468
G02 X31.19775 Y-39.35468 I0.00000 J0.44000
G01 X31.19775 Y-36.79468
G02 X31.63775 Y-36.35468 I0.44000 J0.00000
G03 X31.73775 Y-36.25468 I0.00000 J0.10000
G260
M08
G40
G00 X34.69672 Y-44.35968
(PartName=40171945 CutLength=13.245 MarkLength=0.000 Weigth=2.6 Quantity=1)
G41
N87 M07
G261
G03 X34.32172 Y-43.98468 I-0.37500 J0.00000
G01 X31.64172 Y-43.98468
G02 X31.20172 Y-43.54468 I0.00000 J0.44000
G01 X31.20172 Y-40.98468
G02 X31.64172 Y-40.54468 I0.44000 J0.00000
G01 X34.32172 Y-40.54468
G02 X34.76172 Y-40.98468 I0.00000 J-0.44000
G01 X34.76172 Y-43.54468
G02 X34.32172 Y-43.98468 I-0.44000 J0.00000
G03 X34.22172 Y-44.08468 I0.00000 J-0.10000
G260
M08
G40
G00 X31.26275 Y-44.72357
(PartName=40171945 CutLength=13.245 MarkLength=0.000 Weigth=2.6 Quantity=1)
G41
N88 M07
G261
G03 X31.63775 Y-45.09857 I0.37500 J0.00000
G01 X34.31775 Y-45.09857
G02 X34.75775 Y-45.53857 I0.00000 J-0.44000
G01 X34.75775 Y-48.09857
G02 X34.31775 Y-48.53857 I-0.44000 J0.00000
G01 X31.63775 Y-48.53857
G02 X31.19775 Y-48.09857 I0.00000 J0.44000
G01 X31.19775 Y-45.53857
G02 X31.63775 Y-45.09857 I0.44000 J0.00000
G03 X31.73775 Y-44.99857 I0.00000 J0.10000
G260
M08
G40
G00 X35.57672 Y-1.00409
(PartName=40171945 CutLength=13.245 MarkLength=0.000 Weigth=2.6 Quantity=1)
G41
N89 M07
G261
G03 X35.95172 Y-1.37909 I0.37500 J0.00000
G01 X38.63172 Y-1.37909
G02 X39.07172 Y-1.81909 I0.00000 J-0.44000
G01 X39.07172 Y-4.37909
G02 X38.63172 Y-4.81909 I-0.44000 J0.00000
G01 X35.95172 Y-4.81909
G02 X35.51172 Y-4.37909 I-0.00000 J0.44000
G01 X35.51172 Y-1.81909
G02 X35.95172 Y-1.37909 I0.44000 J-0.00000
G03 X36.05172 Y-1.27909 I0.00000 J0.10000
G260
M08
G40
G00 X39.01069 Y-9.38409
(PartName=40171945 CutLength=13.245 MarkLength=0.000 Weigth=2.6 Quantity=1)
G41
N90 M07
G261
G03 X38.63569 Y-9.00909 I-0.37500 J-0.00000
G01 X35.95569 Y-9.00909
G02 X35.51569 Y-8.56909 I0.00000 J0.44000
G01 X35.51569 Y-6.00909
G02 X35.95569 Y-5.56909 I0.44000 J-0.00000
G01 X38.63569 Y-5.56909
G02 X39.07569 Y-6.00909 I0.00000 J-0.44000
G01 X39.07569 Y-8.56909
G02 X38.63569 Y-9.00909 I-0.44000 J-0.00000
G03 X38.53569 Y-9.10909 I-0.00000 J-0.10000
G260
M08
G40
G00 X35.57672 Y-9.74799
(PartName=40171945 CutLength=13.245 MarkLength=0.000 Weigth=2.6 Quantity=1)
G41
N91 M07
G261
G03 X35.95172 Y-10.12299 I0.37500 J0.00000
G01 X38.63172 Y-10.12299
G02 X39.07172 Y-10.56299 I0.00000 J-0.44000
G01 X39.07172 Y-13.12299
G02 X38.63172 Y-13.56299 I-0.44000 J0.00000
G01 X35.95172 Y-13.56299
G02 X35.51172 Y-13.12299 I-0.00000 J0.44000
G01 X35.51172 Y-10.56299
G02 X35.95172 Y-10.12299 I0.44000 J-0.00000
G03 X36.05172 Y-10.02299 I0.00000 J0.10000
G260
M08
G40
G00 X39.01069 Y-18.12799
(PartName=40171945 CutLength=13.245 MarkLength=0.000 Weigth=2.6 Quantity=1)
G41
N92 M07
G261
G03 X38.63569 Y-17.75299 I-0.37500 J0.00000
G01 X35.95569 Y-17.75299
G02 X35.51569 Y-17.31299 I0.00000 J0.44000
G01 X35.51569 Y-14.75299
G02 X35.95569 Y-14.31299 I0.44000 J-0.00000
G01 X38.63569 Y-14.31299
G02 X39.07569 Y-14.75299 I0.00000 J-0.44000
G01 X39.07569 Y-17.31299
G02 X38.63569 Y-17.75299 I-0.44000 J0.00000
G03 X38.53569 Y-17.85299 I0.00000 J-0.10000
G260
M08
G40
G00 X35.57672 Y-18.49189
(PartName=40171945 CutLength=13.245 MarkLength=0.000 Weigth=2.6 Quantity=1)
G41
N93 M07
G261
G03 X35.95172 Y-18.86689 I0.37500 J0.00000
G01 X38.63172 Y-18.86689
G02 X39.07172 Y-19.30689 I0.00000 J-0.44000
G01 X39.07172 Y-21.86689
G02 X38.63172 Y-22.30689 I-0.44000 J0.00000
G01 X35.95172 Y-22.30689
G02 X35.51172 Y-21.86689 I-0.00000 J0.44000
G01 X35.51172 Y-19.30689
G02 X35.95172 Y-18.86689 I0.44000 J-0.00000
G03 X36.05172 Y-18.76689 I0.00000 J0.10000
G260
M08
G40
G00 X39.01069 Y-26.87189
(PartName=40171945 CutLength=13.245 MarkLength=0.000 Weigth=2.6 Quantity=1)
G41
N94 M07
G261
G03 X38.63569 Y-26.49689 I-0.37500 J0.00000
G01 X35.95569 Y-26.49689
G02 X35.51569 Y-26.05689 I0.00000 J0.44000
G01 X35.51569 Y-23.49689
G02 X35.95569 Y-23.05689 I0.44000 J0.00000
G01 X38.63569 Y-23.05689
G02 X39.07569 Y-23.49689 I0.00000 J-0.44000
G01 X39.07569 Y-26.05689
G02 X38.63569 Y-26.49689 I-0.44000 J0.00000
G03 X38.53569 Y-26.59689 I-0.00000 J-0.10000
G260
M08
G40
G00 X35.57672 Y-27.23578
(PartName=40171945 CutLength=13.245 MarkLength=0.000 Weigth=2.6 Quantity=1)
G41
N95 M07
G261
G03 X35.95172 Y-27.61078 I0.37500 J0.00000
G01 X38.63172 Y-27.61078
G02 X39.07172 Y-28.05078 I0.00000 J-0.44000
G01 X39.07172 Y-30.61078
G02 X38.63172 Y-31.05078 I-0.44000 J0.00000
G01 X35.95172 Y-31.05078
G02 X35.51172 Y-30.61078 I-0.00000 J0.44000
G01 X35.51172 Y-28.05078
G02 X35.95172 Y-27.61078 I0.44000 J-0.00000
G03 X36.05172 Y-27.51078 I0.00000 J0.10000
G260
M08
G40
G00 X39.01069 Y-35.61578
(PartName=40171945 CutLength=13.245 MarkLength=0.000 Weigth=2.6 Quantity=1)
G41
N96 M07
G261
G03 X38.63569 Y-35.24078 I-0.37500 J0.00000
G01 X35.95569 Y-35.24078
G02 X35.51569 Y-34.80078 I0.00000 J0.44000
G01 X35.51569 Y-32.24078
G02 X35.95569 Y-31.80078 I0.44000 J0.00000
G01 X38.63569 Y-31.80078
G02 X39.07569 Y-32.24078 I-0.00000 J-0.44000
G01 X39.07569 Y-34.80078
G02 X38.63569 Y-35.24078 I-0.44000 J-0.00000
G03 X38.53569 Y-35.34078 I0.00000 J-0.10000
G260
M08
G40
G00 X35.57672 Y-35.97968
(PartName=40171945 CutLength=13.245 MarkLength=0.000 Weigth=2.6 Quantity=1)
G41
N97 M07
G261
G03 X35.95172 Y-36.35468 I0.37500 J0.00000
G01 X38.63172 Y-36.35468
G02 X39.07172 Y-36.79468 I0.00000 J-0.44000
G01 X39.07172 Y-39.35468
G02 X38.63172 Y-39.79468 I-0.44000 J0.00000
G01 X35.95172 Y-39.79468
G02 X35.51172 Y-39.35468 I-0.00000 J0.44000
G01 X35.51172 Y-36.79468
G02 X35.95172 Y-36.35468 I0.44000 J0.00000
G03 X36.05172 Y-36.25468 I0.00000 J0.10000
G260
M08
G40
G00 X39.01069 Y-44.35968
(PartName=40171945 CutLength=13.245 MarkLength=0.000 Weigth=2.6 Quantity=1)
G41
N98 M07
G261
G03 X38.63569 Y-43.98468 I-0.37500 J0.00000
G01 X35.95569 Y-43.98468
G02 X35.51569 Y-43.54468 I0.00000 J0.44000
G01 X35.51569 Y-40.98468
G02 X35.95569 Y-40.54468 I0.44000 J-0.00000
G01 X38.63569 Y-40.54468
G02 X39.07569 Y-40.98468 I0.00000 J-0.44000
G01 X39.07569 Y-43.54468
G02 X38.63569 Y-43.98468 I-0.44000 J0.00000
G03 X38.53569 Y-44.08468 I-0.00000 J-0.10000
G260
M08
G40
G00 X35.57672 Y-44.72357
(PartName=40171945 CutLength=13.245 MarkLength=0.000 Weigth=2.6 Quantity=1)
G41
N99 M07
G261
G03 X35.95172 Y-45.09857 I0.37500 J0.00000
G01 X38.63172 Y-45.09857
G02 X39.07172 Y-45.53857 I0.00000 J-0.44000
G01 X39.07172 Y-48.09857
G02 X38.63172 Y-48.53857 I-0.44000 J0.00000
G01 X35.95172 Y-48.53857
G02 X35.51172 Y-48.09857 I-0.00000 J0.44000
G01 X35.51172 Y-45.53857
G02 X35.95172 Y-45.09857 I0.44000 J0.00000
G03 X36.05172 Y-44.99857 I0.00000 J0.10000
G260
M08
G40
G00 X39.89069 Y-1.00409
(PartName=40171945 CutLength=13.245 MarkLength=0.000 Weigth=2.6 Quantity=1)
G41
N100 M07
G261
G03 X40.26569 Y-1.37909 I0.37500 J0.00000
G01 X42.94569 Y-1.37909
G02 X43.38569 Y-1.81909 I0.00000 J-0.44000
G01 X43.38569 Y-4.37909
G02 X42.94569 Y-4.81909 I-0.44000 J-0.00000
G01 X40.26569 Y-4.81909
G02 X39.82569 Y-4.37909 I0.00000 J0.44000
G01 X39.82569 Y-1.81909
G02 X40.26569 Y-1.37909 I0.44000 J-0.00000
G03 X40.36569 Y-1.27909 I0.00000 J0.10000
G260
M08
G40
G00 X43.32465 Y-9.38409
(PartName=40171945 CutLength=13.245 MarkLength=0.000 Weigth=2.6 Quantity=1)
G41
N101 M07
G261
G03 X42.94965 Y-9.00909 I-0.37500 J-0.00000
G01 X40.26965 Y-9.00909
G02 X39.82965 Y-8.56909 I0.00000 J0.44000
G01 X39.82965 Y-6.00909
G02 X40.26965 Y-5.56909 I0.44000 J0.00000
G01 X42.94965 Y-5.56909
G02 X43.38965 Y-6.00909 I0.00000 J-0.44000
G01 X43.38965 Y-8.56909
G02 X42.94965 Y-9.00909 I-0.44000 J-0.00000
G03 X42.84965 Y-9.10909 I0.00000 J-0.10000
G260
M08
G40
G00 X39.89069 Y-9.74799
(PartName=40171945 CutLength=13.245 MarkLength=0.000 Weigth=2.6 Quantity=1)
G41
N102 M07
G261
G03 X40.26569 Y-10.12299 I0.37500 J0.00000
G01 X42.94569 Y-10.12299
G02 X43.38569 Y-10.56299 I0.00000 J-0.44000
G01 X43.38569 Y-13.12299
G02 X42.94569 Y-13.56299 I-0.44000 J-0.00000
G01 X40.26569 Y-13.56299
G02 X39.82569 Y-13.12299 I0.00000 J0.44000
G01 X39.82569 Y-10.56299
G02 X40.26569 Y-10.12299 I0.44000 J-0.00000
G03 X40.36569 Y-10.02299 I0.00000 J0.10000
G260
M08
G40
G00 X43.32465 Y-18.12799
(PartName=40171945 CutLength=13.245 MarkLength=0.000 Weigth=2.6 Quantity=1)
G41
N103 M07
G261
G03 X42.94965 Y-17.75299 I-0.37500 J-0.00000
G01 X40.26965 Y-17.75299
G02 X39.82965 Y-17.31299 I0.00000 J0.44000
G01 X39.82965 Y-14.75299
G02 X40.26965 Y-14.31299 I0.44000 J0.00000
G01 X42.94965 Y-14.31299
G02 X43.38965 Y-14.75299 I0.00000 J-0.44000
G01 X43.38965 Y-17.31299
G02 X42.94965 Y-17.75299 I-0.44000 J0.00000
G03 X42.84965 Y-17.85299 I0.00000 J-0.10000
G260
M08
G40
G00 X39.89069 Y-18.49189
(PartName=40171945 CutLength=13.245 MarkLength=0.000 Weigth=2.6 Quantity=1)
G41
N104 M07
G261
G03 X40.26569 Y-18.86689 I0.37500 J0.00000
G01 X42.94569 Y-18.86689
G02 X43.38569 Y-19.30689 I0.00000 J-0.44000
G01 X43.38569 Y-21.86689
G02 X42.94569 Y-22.30689 I-0.44000 J-0.00000
G01 X40.26569 Y-22.30689
G02 X39.82569 Y-21.86689 I0.00000 J0.44000
G01 X39.82569 Y-19.30689
G02 X40.26569 Y-18.86689 I0.44000 J-0.00000
G03 X40.36569 Y-18.76689 I0.00000 J0.10000
G260
M08
G40
G00 X43.32465 Y-26.87189
(PartName=40171945 CutLength=13.245 MarkLength=0.000 Weigth=2.6 Quantity=1)
G41
N105 M07
G261
G03 X42.94965 Y-26.49689 I-0.37500 J-0.00000
G01 X40.26965 Y-26.49689
G02 X39.82965 Y-26.05689 I0.00000 J0.44000
G01 X39.82965 Y-23.49689
G02 X40.26965 Y-23.05689 I0.44000 J0.00000
G01 X42.94965 Y-23.05689
G02 X43.38965 Y-23.49689 I0.00000 J-0.44000
G01 X43.38965 Y-26.05689
G02 X42.94965 Y-26.49689 I-0.44000 J0.00000
G03 X42.84965 Y-26.59689 I0.00000 J-0.10000
G260
M08
G40
G00 X39.89069 Y-27.23578
(PartName=40171945 CutLength=13.245 MarkLength=0.000 Weigth=2.6 Quantity=1)
G41
N106 M07
G261
G03 X40.26569 Y-27.61078 I0.37500 J0.00000
G01 X42.94569 Y-27.61078
G02 X43.38569 Y-28.05078 I0.00000 J-0.44000
G01 X43.38569 Y-30.61078
G02 X42.94569 Y-31.05078 I-0.44000 J0.00000
G01 X40.26569 Y-31.05078
G02 X39.82569 Y-30.61078 I0.00000 J0.44000
G01 X39.82569 Y-28.05078
G02 X40.26569 Y-27.61078 I0.44000 J-0.00000
G03 X40.36569 Y-27.51078 I0.00000 J0.10000
G260
M08
G40
G00 X43.32465 Y-35.61578
(PartName=40171945 CutLength=13.245 MarkLength=0.000 Weigth=2.6 Quantity=1)
G41
N107 M07
G261
G03 X42.94965 Y-35.24078 I-0.37500 J-0.00000
G01 X40.26965 Y-35.24078
G02 X39.82965 Y-34.80078 I0.00000 J0.44000
G01 X39.82965 Y-32.24078
G02 X40.26965 Y-31.80078 I0.44000 J0.00000
G01 X42.94965 Y-31.80078
G02 X43.38965 Y-32.24078 I-0.00000 J-0.44000
G01 X43.38965 Y-34.80078
G02 X42.94965 Y-35.24078 I-0.44000 J-0.00000
G03 X42.84965 Y-35.34078 I0.00000 J-0.10000
G260
M08
G40
G00 X39.89069 Y-35.97968
(PartName=40171945 CutLength=13.245 MarkLength=0.000 Weigth=2.6 Quantity=1)
G41
N108 M07
G261
G03 X40.26569 Y-36.35468 I0.37500 J0.00000
G01 X42.94569 Y-36.35468
G02 X43.38569 Y-36.79468 I-0.00000 J-0.44000
G01 X43.38569 Y-39.35468
G02 X42.94569 Y-39.79468 I-0.44000 J0.00000
G01 X40.26569 Y-39.79468
G02 X39.82569 Y-39.35468 I0.00000 J0.44000
G01 X39.82569 Y-36.79468
G02 X40.26569 Y-36.35468 I0.44000 J0.00000
G03 X40.36569 Y-36.25468 I0.00000 J0.10000
G260
M08
G40
G00 X43.32465 Y-44.35968
(PartName=40171945 CutLength=13.245 MarkLength=0.000 Weigth=2.6 Quantity=1)
G41
N109 M07
G261
G03 X42.94965 Y-43.98468 I-0.37500 J-0.00000
G01 X40.26965 Y-43.98468
G02 X39.82965 Y-43.54468 I0.00000 J0.44000
G01 X39.82965 Y-40.98468
G02 X40.26965 Y-40.54468 I0.44000 J0.00000
G01 X42.94965 Y-40.54468
G02 X43.38965 Y-40.98468 I0.00000 J-0.44000
G01 X43.38965 Y-43.54468
G02 X42.94965 Y-43.98468 I-0.44000 J0.00000
G03 X42.84965 Y-44.08468 I0.00000 J-0.10000
G260
M08
G40
G00 X39.89069 Y-44.72357
(PartName=40171945 CutLength=13.245 MarkLength=0.000 Weigth=2.6 Quantity=1)
G41
N110 M07
G261
G03 X40.26569 Y-45.09857 I0.37500 J0.00000
G01 X42.94569 Y-45.09857
G02 X43.38569 Y-45.53857 I0.00000 J-0.44000
G01 X43.38569 Y-48.09857
G02 X42.94569 Y-48.53857 I-0.44000 J0.00000
G01 X40.26569 Y-48.53857
G02 X39.82569 Y-48.09857 I0.00000 J0.44000
G01 X39.82569 Y-45.53857
G02 X40.26569 Y-45.09857 I0.44000 J0.00000
G03 X40.36569 Y-44.99857 I0.00000 J0.10000
G260
M08
G40
G00 X44.20465 Y-1.00409
(PartName=40171945 CutLength=13.245 MarkLength=0.000 Weigth=2.6 Quantity=1)
G41
N111 M07
G261
G03 X44.57965 Y-1.37909 I0.37500 J0.00000
G01 X47.25965 Y-1.37909
G02 X47.69965 Y-1.81909 I0.00000 J-0.44000
G01 X47.69965 Y-4.37909
G02 X47.25965 Y-4.81909 I-0.44000 J-0.00000
G01 X44.57965 Y-4.81909
G02 X44.13965 Y-4.37909 I0.00000 J0.44000
G01 X44.13965 Y-1.81909
G02 X44.57965 Y-1.37909 I0.44000 J0.00000
G03 X44.67965 Y-1.27909 I0.00000 J0.10000
G260
M08
G40
G00 X47.63861 Y-9.38409
(PartName=40171945 CutLength=13.245 MarkLength=0.000 Weigth=2.6 Quantity=1)
G41
N112 M07
G261
G03 X47.26361 Y-9.00909 I-0.37500 J-0.00000
G01 X44.58361 Y-9.00909
G02 X44.14361 Y-8.56909 I0.00000 J0.44000
G01 X44.14361 Y-6.00909
G02 X44.58361 Y-5.56909 I0.44000 J0.00000
G01 X47.26361 Y-5.56909
G02 X47.70361 Y-6.00909 I0.00000 J-0.44000
G01 X47.70361 Y-8.56909
G02 X47.26361 Y-9.00909 I-0.44000 J-0.00000
G03 X47.16361 Y-9.10909 I0.00000 J-0.10000
G260
M08
G40
G00 X44.20465 Y-9.74799
(PartName=40171945 CutLength=13.245 MarkLength=0.000 Weigth=2.6 Quantity=1)
G41
N113 M07
G261
G03 X44.57965 Y-10.12299 I0.37500 J0.00000
G01 X47.25965 Y-10.12299
G02 X47.69965 Y-10.56299 I0.00000 J-0.44000
G01 X47.69965 Y-13.12299
G02 X47.25965 Y-13.56299 I-0.44000 J-0.00000
G01 X44.57965 Y-13.56299
G02 X44.13965 Y-13.12299 I0.00000 J0.44000
G01 X44.13965 Y-10.56299
G02 X44.57965 Y-10.12299 I0.44000 J0.00000
G03 X44.67965 Y-10.02299 I0.00000 J0.10000
G260
M08
G40
G00 X47.63861 Y-18.12799
(PartName=40171945 CutLength=13.245 MarkLength=0.000 Weigth=2.6 Quantity=1)
G41
N114 M07
G261
G03 X47.26361 Y-17.75299 I-0.37500 J-0.00000
G01 X44.58361 Y-17.75299
G02 X44.14361 Y-17.31299 I0.00000 J0.44000
G01 X44.14361 Y-14.75299
G02 X44.58361 Y-14.31299 I0.44000 J0.00000
G01 X47.26361 Y-14.31299
G02 X47.70361 Y-14.75299 I0.00000 J-0.44000
G01 X47.70361 Y-17.31299
G02 X47.26361 Y-17.75299 I-0.44000 J0.00000
G03 X47.16361 Y-17.85299 I0.00000 J-0.10000
G260
M08
G40
G00 X44.20465 Y-18.49189
(PartName=40171945 CutLength=13.245 MarkLength=0.000 Weigth=2.6 Quantity=1)
G41
N115 M07
G261
G03 X44.57965 Y-18.86689 I0.37500 J0.00000
G01 X47.25965 Y-18.86689
G02 X47.69965 Y-19.30689 I0.00000 J-0.44000
G01 X47.69965 Y-21.86689
G02 X47.25965 Y-22.30689 I-0.44000 J-0.00000
G01 X44.57965 Y-22.30689
G02 X44.13965 Y-21.86689 I0.00000 J0.44000
G01 X44.13965 Y-19.30689
G02 X44.57965 Y-18.86689 I0.44000 J0.00000
G03 X44.67965 Y-18.76689 I-0.00000 J0.10000
G260
M08
G40
G00 X47.63861 Y-26.87189
(PartName=40171945 CutLength=13.245 MarkLength=0.000 Weigth=2.6 Quantity=1)
G41
N116 M07
G261
G03 X47.26361 Y-26.49689 I-0.37500 J-0.00000
G01 X44.58361 Y-26.49689
G02 X44.14361 Y-26.05689 I0.00000 J0.44000
G01 X44.14361 Y-23.49689
G02 X44.58361 Y-23.05689 I0.44000 J0.00000
G01 X47.26361 Y-23.05689
G02 X47.70361 Y-23.49689 I0.00000 J-0.44000
G01 X47.70361 Y-26.05689
G02 X47.26361 Y-26.49689 I-0.44000 J0.00000
G03 X47.16361 Y-26.59689 I0.00000 J-0.10000
G260
M08
G40
G00 X44.20465 Y-27.23578
(PartName=40171945 CutLength=13.245 MarkLength=0.000 Weigth=2.6 Quantity=1)
G41
N117 M07
G261
G03 X44.57965 Y-27.61078 I0.37500 J0.00000
G01 X47.25965 Y-27.61078
G02 X47.69965 Y-28.05078 I0.00000 J-0.44000
G01 X47.69965 Y-30.61078
G02 X47.25965 Y-31.05078 I-0.44000 J0.00000
G01 X44.57965 Y-31.05078
G02 X44.13965 Y-30.61078 I0.00000 J0.44000
G01 X44.13965 Y-28.05078
G02 X44.57965 Y-27.61078 I0.44000 J0.00000
G03 X44.67965 Y-27.51078 I-0.00000 J0.10000
G260
M08
G40
G00 X47.63861 Y-35.61578
(PartName=40171945 CutLength=13.245 MarkLength=0.000 Weigth=2.6 Quantity=1)
G41
N118 M07
G261
G03 X47.26361 Y-35.24078 I-0.37500 J-0.00000
G01 X44.58361 Y-35.24078
G02 X44.14361 Y-34.80078 I0.00000 J0.44000
G01 X44.14361 Y-32.24078
G02 X44.58361 Y-31.80078 I0.44000 J0.00000
G01 X47.26361 Y-31.80078
G02 X47.70361 Y-32.24078 I0.00000 J-0.44000
G01 X47.70361 Y-34.80078
G02 X47.26361 Y-35.24078 I-0.44000 J-0.00000
G03 X47.16361 Y-35.34078 I0.00000 J-0.10000
G260
M08
G40
G00 X44.20465 Y-35.97968
(PartName=40171945 CutLength=13.245 MarkLength=0.000 Weigth=2.6 Quantity=1)
G41
N119 M07
G261
G03 X44.57965 Y-36.35468 I0.37500 J0.00000
G01 X47.25965 Y-36.35468
G02 X47.69965 Y-36.79468 I-0.00000 J-0.44000
G01 X47.69965 Y-39.35468
G02 X47.25965 Y-39.79468 I-0.44000 J0.00000
G01 X44.57965 Y-39.79468
G02 X44.13965 Y-39.35468 I0.00000 J0.44000
G01 X44.13965 Y-36.79468
G02 X44.57965 Y-36.35468 I0.44000 J0.00000
G03 X44.67965 Y-36.25468 I0.00000 J0.10000
G260
M08
G40
G00 X47.63861 Y-44.35968
(PartName=40171945 CutLength=13.245 MarkLength=0.000 Weigth=2.6 Quantity=1)
G41
N120 M07
G261
G03 X47.26361 Y-43.98468 I-0.37500 J-0.00000
G01 X44.58361 Y-43.98468
G02 X44.14361 Y-43.54468 I0.00000 J0.44000
G01 X44.14361 Y-40.98468
G02 X44.58361 Y-40.54468 I0.44000 J0.00000
G01 X47.26361 Y-40.54468
G02 X47.70361 Y-40.98468 I0.00000 J-0.44000
G01 X47.70361 Y-43.54468
G02 X47.26361 Y-43.98468 I-0.44000 J0.00000
G03 X47.16361 Y-44.08468 I0.00000 J-0.10000
G260
M08
G40
G00 X44.20465 Y-44.72357
(PartName=40171945 CutLength=13.245 MarkLength=0.000 Weigth=2.6 Quantity=1)
G41
N121 M07
G261
G03 X44.57965 Y-45.09857 I0.37500 J0.00000
G01 X47.25965 Y-45.09857
G02 X47.69965 Y-45.53857 I0.00000 J-0.44000
G01 X47.69965 Y-48.09857
G02 X47.25965 Y-48.53857 I-0.44000 J0.00000
G01 X44.57965 Y-48.53857
G02 X44.13965 Y-48.09857 I0.00000 J0.44000
G01 X44.13965 Y-45.53857
G02 X44.57965 Y-45.09857 I0.44000 J0.00000
G03 X44.67965 Y-44.99857 I0.00000 J0.10000
G260
M08
G40
G00 X48.51861 Y-1.00409
(PartName=40171945 CutLength=13.245 MarkLength=0.000 Weigth=2.6 Quantity=1)
G41
N122 M07
G261
G03 X48.89361 Y-1.37909 I0.37500 J0.00000
G01 X51.57361 Y-1.37909
G02 X52.01361 Y-1.81909 I0.00000 J-0.44000
G01 X52.01361 Y-4.37909
G02 X51.57361 Y-4.81909 I-0.44000 J-0.00000
G01 X48.89361 Y-4.81909
G02 X48.45361 Y-4.37909 I0.00000 J0.44000
G01 X48.45361 Y-1.81909
G02 X48.89361 Y-1.37909 I0.44000 J0.00000
G03 X48.99361 Y-1.27909 I0.00000 J0.10000
G260
M08
G40
G00 X51.95258 Y-9.38409
(PartName=40171945 CutLength=13.245 MarkLength=0.000 Weigth=2.6 Quantity=1)
G41
N123 M07
G261
G03 X51.57758 Y-9.00909 I-0.37500 J-0.00000
G01 X48.89758 Y-9.00909
G02 X48.45758 Y-8.56909 I0.00000 J0.44000
G01 X48.45758 Y-6.00909
G02 X48.89758 Y-5.56909 I0.44000 J0.00000
G01 X51.57758 Y-5.56909
G02 X52.01758 Y-6.00909 I-0.00000 J-0.44000
G01 X52.01758 Y-8.56909
G02 X51.57758 Y-9.00909 I-0.44000 J-0.00000
G03 X51.47758 Y-9.10909 I-0.00000 J-0.10000
G260
M08
G40
G00 X48.51861 Y-9.74799
(PartName=40171945 CutLength=13.245 MarkLength=0.000 Weigth=2.6 Quantity=1)
G41
N124 M07
G261
G03 X48.89361 Y-10.12299 I0.37500 J0.00000
G01 X51.57361 Y-10.12299
G02 X52.01361 Y-10.56299 I0.00000 J-0.44000
G01 X52.01361 Y-13.12299
G02 X51.57361 Y-13.56299 I-0.44000 J-0.00000
G01 X48.89361 Y-13.56299
G02 X48.45361 Y-13.12299 I0.00000 J0.44000
G01 X48.45361 Y-10.56299
G02 X48.89361 Y-10.12299 I0.44000 J0.00000
G03 X48.99361 Y-10.02299 I0.00000 J0.10000
G260
M08
G40
G00 X51.95258 Y-18.12799
(PartName=40171945 CutLength=13.245 MarkLength=0.000 Weigth=2.6 Quantity=1)
G41
N125 M07
G261
G03 X51.57758 Y-17.75299 I-0.37500 J0.00000
G01 X48.89758 Y-17.75299
G02 X48.45758 Y-17.31299 I0.00000 J0.44000
G01 X48.45758 Y-14.75299
G02 X48.89758 Y-14.31299 I0.44000 J0.00000
G01 X51.57758 Y-14.31299
G02 X52.01758 Y-14.75299 I-0.00000 J-0.44000
G01 X52.01758 Y-17.31299
G02 X51.57758 Y-17.75299 I-0.44000 J0.00000
G03 X51.47758 Y-17.85299 I0.00000 J-0.10000
G260
M08
G40
G00 X48.51861 Y-18.49189
(PartName=40171945 CutLength=13.245 MarkLength=0.000 Weigth=2.6 Quantity=1)
G41
N126 M07
G261
G03 X48.89361 Y-18.86689 I0.37500 J0.00000
G01 X51.57361 Y-18.86689
G02 X52.01361 Y-19.30689 I0.00000 J-0.44000
G01 X52.01361 Y-21.86689
G02 X51.57361 Y-22.30689 I-0.44000 J-0.00000
G01 X48.89361 Y-22.30689
G02 X48.45361 Y-21.86689 I0.00000 J0.44000
G01 X48.45361 Y-19.30689
G02 X48.89361 Y-18.86689 I0.44000 J0.00000
G03 X48.99361 Y-18.76689 I-0.00000 J0.10000
G260
M08
G40
G00 X51.95258 Y-26.87189
(PartName=40171945 CutLength=13.245 MarkLength=0.000 Weigth=2.6 Quantity=1)
G41
N127 M07
G261
G03 X51.57758 Y-26.49689 I-0.37500 J0.00000
G01 X48.89758 Y-26.49689
G02 X48.45758 Y-26.05689 I0.00000 J0.44000
G01 X48.45758 Y-23.49689
G02 X48.89758 Y-23.05689 I0.44000 J0.00000
G01 X51.57758 Y-23.05689
G02 X52.01758 Y-23.49689 I-0.00000 J-0.44000
G01 X52.01758 Y-26.05689
G02 X51.57758 Y-26.49689 I-0.44000 J-0.00000
G03 X51.47758 Y-26.59689 I-0.00000 J-0.10000
G260
M08
G40
G00 X48.51861 Y-27.23578
(PartName=40171945 CutLength=13.245 MarkLength=0.000 Weigth=2.6 Quantity=1)
G41
N128 M07
G261
G03 X48.89361 Y-27.61078 I0.37500 J0.00000
G01 X51.57361 Y-27.61078
G02 X52.01361 Y-28.05078 I0.00000 J-0.44000
G01 X52.01361 Y-30.61078
G02 X51.57361 Y-31.05078 I-0.44000 J0.00000
G01 X48.89361 Y-31.05078
G02 X48.45361 Y-30.61078 I0.00000 J0.44000
G01 X48.45361 Y-28.05078
G02 X48.89361 Y-27.61078 I0.44000 J0.00000
G03 X48.99361 Y-27.51078 I-0.00000 J0.10000
G260
M08
G40
G00 X51.95258 Y-35.61578
(PartName=40171945 CutLength=13.245 MarkLength=0.000 Weigth=2.6 Quantity=1)
G41
N129 M07
G261
G03 X51.57758 Y-35.24078 I-0.37500 J0.00000
G01 X48.89758 Y-35.24078
G02 X48.45758 Y-34.80078 I0.00000 J0.44000
G01 X48.45758 Y-32.24078
G02 X48.89758 Y-31.80078 I0.44000 J0.00000
G01 X51.57758 Y-31.80078
G02 X52.01758 Y-32.24078 I-0.00000 J-0.44000
G01 X52.01758 Y-34.80078
G02 X51.57758 Y-35.24078 I-0.44000 J-0.00000
G03 X51.47758 Y-35.34078 I0.00000 J-0.10000
G260
M08
G40
G00 X48.51861 Y-35.97968
(PartName=40171945 CutLength=13.245 MarkLength=0.000 Weigth=2.6 Quantity=1)
G41
N130 M07
G261
G03 X48.89361 Y-36.35468 I0.37500 J0.00000
G01 X51.57361 Y-36.35468
G02 X52.01361 Y-36.79468 I0.00000 J-0.44000
G01 X52.01361 Y-39.35468
G02 X51.57361 Y-39.79468 I-0.44000 J0.00000
G01 X48.89361 Y-39.79468
G02 X48.45361 Y-39.35468 I0.00000 J0.44000
G01 X48.45361 Y-36.79468
G02 X48.89361 Y-36.35468 I0.44000 J0.00000
G03 X48.99361 Y-36.25468 I0.00000 J0.10000
G260
M08
G40
G00 X51.95258 Y-44.35968
(PartName=40171945 CutLength=13.245 MarkLength=0.000 Weigth=2.6 Quantity=1)
G41
N131 M07
G261
G03 X51.57758 Y-43.98468 I-0.37500 J0.00000
G01 X48.89758 Y-43.98468
G02 X48.45758 Y-43.54468 I0.00000 J0.44000
G01 X48.45758 Y-40.98468
G02 X48.89758 Y-40.54468 I0.44000 J0.00000
G01 X51.57758 Y-40.54468
G02 X52.01758 Y-40.98468 I-0.00000 J-0.44000
G01 X52.01758 Y-43.54468
G02 X51.57758 Y-43.98468 I-0.44000 J0.00000
G03 X51.47758 Y-44.08468 I-0.00000 J-0.10000
G260
M08
G40
G00 X48.51861 Y-44.72357
(PartName=40171945 CutLength=13.245 MarkLength=0.000 Weigth=2.6 Quantity=1)
G41
N132 M07
G261
G03 X48.89361 Y-45.09857 I0.37500 J0.00000
G01 X51.57361 Y-45.09857
G02 X52.01361 Y-45.53857 I0.00000 J-0.44000
G01 X52.01361 Y-48.09857
G02 X51.57361 Y-48.53857 I-0.44000 J0.00000
G01 X48.89361 Y-48.53857
G02 X48.45361 Y-48.09857 I0.00000 J0.44000
G01 X48.45361 Y-45.53857
G02 X48.89361 Y-45.09857 I0.44000 J0.00000
G03 X48.99361 Y-44.99857 I0.00000 J0.10000
G260
M08
G40
G00 X52.83258 Y-1.00409
(PartName=40171945 CutLength=13.245 MarkLength=0.000 Weigth=2.6 Quantity=1)
G41
N133 M07
G261
G03 X53.20758 Y-1.37909 I0.37500 J0.00000
G01 X55.88758 Y-1.37909
G02 X56.32758 Y-1.81909 I0.00000 J-0.44000
G01 X56.32758 Y-4.37909
G02 X55.88758 Y-4.81909 I-0.44000 J-0.00000
G01 X53.20758 Y-4.81909
G02 X52.76758 Y-4.37909 I-0.00000 J0.44000
G01 X52.76758 Y-1.81909
G02 X53.20758 Y-1.37909 I0.44000 J0.00000
G03 X53.30758 Y-1.27909 I0.00000 J0.10000
G260
M08
G40
G00 X56.26654 Y-9.38409
(PartName=40171945 CutLength=13.245 MarkLength=0.000 Weigth=2.6 Quantity=1)
G41
N134 M07
G261
G03 X55.89154 Y-9.00909 I-0.37500 J-0.00000
G01 X53.21154 Y-9.00909
G02 X52.77154 Y-8.56909 I0.00000 J0.44000
G01 X52.77154 Y-6.00909
G02 X53.21154 Y-5.56909 I0.44000 J0.00000
G01 X55.89154 Y-5.56909
G02 X56.33154 Y-6.00909 I0.00000 J-0.44000
G01 X56.33154 Y-8.56909
G02 X55.89154 Y-9.00909 I-0.44000 J-0.00000
G03 X55.79154 Y-9.10909 I0.00000 J-0.10000
G260
M08
G40
G00 X52.83258 Y-9.74799
(PartName=40171945 CutLength=13.245 MarkLength=0.000 Weigth=2.6 Quantity=1)
G41
N135 M07
G261
G03 X53.20758 Y-10.12299 I0.37500 J0.00000
G01 X55.88758 Y-10.12299
G02 X56.32758 Y-10.56299 I0.00000 J-0.44000
G01 X56.32758 Y-13.12299
G02 X55.88758 Y-13.56299 I-0.44000 J-0.00000
G01 X53.20758 Y-13.56299
G02 X52.76758 Y-13.12299 I-0.00000 J0.44000
G01 X52.76758 Y-10.56299
G02 X53.20758 Y-10.12299 I0.44000 J0.00000
G03 X53.30758 Y-10.02299 I0.00000 J0.10000
G260
M08
G40
G00 X56.26654 Y-18.12799
(PartName=40171945 CutLength=13.245 MarkLength=0.000 Weigth=2.6 Quantity=1)
G41
N136 M07
G261
G03 X55.89154 Y-17.75299 I-0.37500 J-0.00000
G01 X53.21154 Y-17.75299
G02 X52.77154 Y-17.31299 I0.00000 J0.44000
G01 X52.77154 Y-14.75299
G02 X53.21154 Y-14.31299 I0.44000 J0.00000
G01 X55.89154 Y-14.31299
G02 X56.33154 Y-14.75299 I0.00000 J-0.44000
G01 X56.33154 Y-17.31299
G02 X55.89154 Y-17.75299 I-0.44000 J0.00000
G03 X55.79154 Y-17.85299 I0.00000 J-0.10000
G260
M08
G40
G00 X52.83258 Y-18.49189
(PartName=40171945 CutLength=13.245 MarkLength=0.000 Weigth=2.6 Quantity=1)
G41
N137 M07
G261
G03 X53.20758 Y-18.86689 I0.37500 J0.00000
G01 X55.88758 Y-18.86689
G02 X56.32758 Y-19.30689 I0.00000 J-0.44000
G01 X56.32758 Y-21.86689
G02 X55.88758 Y-22.30689 I-0.44000 J-0.00000
G01 X53.20758 Y-22.30689
G02 X52.76758 Y-21.86689 I-0.00000 J0.44000
G01 X52.76758 Y-19.30689
G02 X53.20758 Y-18.86689 I0.44000 J0.00000
G03 X53.30758 Y-18.76689 I0.00000 J0.10000
G260
M08
G40
G00 X56.26654 Y-26.87189
(PartName=40171945 CutLength=13.245 MarkLength=0.000 Weigth=2.6 Quantity=1)
G41
N138 M07
G261
G03 X55.89154 Y-26.49689 I-0.37500 J-0.00000
G01 X53.21154 Y-26.49689
G02 X52.77154 Y-26.05689 I0.00000 J0.44000
G01 X52.77154 Y-23.49689
G02 X53.21154 Y-23.05689 I0.44000 J0.00000
G01 X55.89154 Y-23.05689
G02 X56.33154 Y-23.49689 I0.00000 J-0.44000
G01 X56.33154 Y-26.05689
G02 X55.89154 Y-26.49689 I-0.44000 J0.00000
G03 X55.79154 Y-26.59689 I0.00000 J-0.10000
G260
M08
G40
G00 X52.83258 Y-27.23578
(PartName=40171945 CutLength=13.245 MarkLength=0.000 Weigth=2.6 Quantity=1)
G41
N139 M07
G261
G03 X53.20758 Y-27.61078 I0.37500 J0.00000
G01 X55.88758 Y-27.61078
G02 X56.32758 Y-28.05078 I0.00000 J-0.44000
G01 X56.32758 Y-30.61078
G02 X55.88758 Y-31.05078 I-0.44000 J0.00000
G01 X53.20758 Y-31.05078
G02 X52.76758 Y-30.61078 I-0.00000 J0.44000
G01 X52.76758 Y-28.05078
G02 X53.20758 Y-27.61078 I0.44000 J0.00000
G03 X53.30758 Y-27.51078 I0.00000 J0.10000
G260
M08
G40
G00 X56.26654 Y-35.61578
(PartName=40171945 CutLength=13.245 MarkLength=0.000 Weigth=2.6 Quantity=1)
G41
N140 M07
G261
G03 X55.89154 Y-35.24078 I-0.37500 J-0.00000
G01 X53.21154 Y-35.24078
G02 X52.77154 Y-34.80078 I0.00000 J0.44000
G01 X52.77154 Y-32.24078
G02 X53.21154 Y-31.80078 I0.44000 J0.00000
G01 X55.89154 Y-31.80078
G02 X56.33154 Y-32.24078 I0.00000 J-0.44000
G01 X56.33154 Y-34.80078
G02 X55.89154 Y-35.24078 I-0.44000 J-0.00000
G03 X55.79154 Y-35.34078 I0.00000 J-0.10000
G260
M08
G40
G00 X52.83258 Y-35.97968
(PartName=40171945 CutLength=13.245 MarkLength=0.000 Weigth=2.6 Quantity=1)
G41
N141 M07
G261
G03 X53.20758 Y-36.35468 I0.37500 J0.00000
G01 X55.88758 Y-36.35468
G02 X56.32758 Y-36.79468 I0.00000 J-0.44000
G01 X56.32758 Y-39.35468
G02 X55.88758 Y-39.79468 I-0.44000 J0.00000
G01 X53.20758 Y-39.79468
G02 X52.76758 Y-39.35468 I-0.00000 J0.44000
G01 X52.76758 Y-36.79468
G02 X53.20758 Y-36.35468 I0.44000 J0.00000
G03 X53.30758 Y-36.25468 I0.00000 J0.10000
G260
M08
G40
G00 X56.26654 Y-44.35968
(PartName=40171945 CutLength=13.245 MarkLength=0.000 Weigth=2.6 Quantity=1)
G41
N142 M07
G261
G03 X55.89154 Y-43.98468 I-0.37500 J-0.00000
G01 X53.21154 Y-43.98468
G02 X52.77154 Y-43.54468 I0.00000 J0.44000
G01 X52.77154 Y-40.98468
G02 X53.21154 Y-40.54468 I0.44000 J0.00000
G01 X55.89154 Y-40.54468
G02 X56.33154 Y-40.98468 I0.00000 J-0.44000
G01 X56.33154 Y-43.54468
G02 X55.89154 Y-43.98468 I-0.44000 J0.00000
G03 X55.79154 Y-44.08468 I0.00000 J-0.10000
G260
M08
G40
G00 X52.83258 Y-44.72357
(PartName=40171945 CutLength=13.245 MarkLength=0.000 Weigth=2.6 Quantity=1)
G41
N143 M07
G261
G03 X53.20758 Y-45.09857 I0.37500 J0.00000
G01 X55.88758 Y-45.09857
G02 X56.32758 Y-45.53857 I0.00000 J-0.44000
G01 X56.32758 Y-48.09857
G02 X55.88758 Y-48.53857 I-0.44000 J0.00000
G01 X53.20758 Y-48.53857
G02 X52.76758 Y-48.09857 I-0.00000 J0.44000
G01 X52.76758 Y-45.53857
G02 X53.20758 Y-45.09857 I0.44000 J0.00000
G03 X53.30758 Y-44.99857 I0.00000 J0.10000
G260
M08
G40
G00 X4.49896 Y-54.81988
(PartName=40171945 CutLength=13.245 MarkLength=0.000 Weigth=2.6 Quantity=1)
G41
N144 M07
G261
G03 X4.12396 Y-54.44488 I-0.37500 J0.00000
G01 X1.44396 Y-54.44488
G02 X1.00396 Y-54.00488 I-0.00000 J0.44000
G01 X1.00396 Y-51.44488
G02 X1.44396 Y-51.00488 I0.44000 J0.00000
G01 X4.12396 Y-51.00488
G02 X4.56396 Y-51.44488 I0.00000 J-0.44000
G01 X4.56396 Y-54.00488
G02 X4.12396 Y-54.44488 I-0.44000 J-0.00000
G03 X4.02396 Y-54.54488 I-0.00000 J-0.10000
G260
M08
G40
G00 X8.81293 Y-54.81988
(PartName=40171945 CutLength=13.245 MarkLength=0.000 Weigth=2.6 Quantity=1)
G41
N145 M07
G261
G03 X8.43793 Y-54.44488 I-0.37500 J0.00000
G01 X5.75793 Y-54.44488
G02 X5.31793 Y-54.00488 I-0.00000 J0.44000
G01 X5.31793 Y-51.44488
G02 X5.75793 Y-51.00488 I0.44000 J0.00000
G01 X8.43793 Y-51.00488
G02 X8.87793 Y-51.44488 I0.00000 J-0.44000
G01 X8.87793 Y-54.00488
G02 X8.43793 Y-54.44488 I-0.44000 J-0.00000
G03 X8.33793 Y-54.54488 I-0.00000 J-0.10000
G260
M08
G40
G00 X13.12689 Y-54.81988
(PartName=40171945 CutLength=13.245 MarkLength=0.000 Weigth=2.6 Quantity=1)
G41
N146 M07
G261
G03 X12.75189 Y-54.44488 I-0.37500 J0.00000
G01 X10.07189 Y-54.44488
G02 X9.63189 Y-54.00488 I-0.00000 J0.44000
G01 X9.63189 Y-51.44488
G02 X10.07189 Y-51.00488 I0.44000 J0.00000
G01 X12.75189 Y-51.00488
G02 X13.19189 Y-51.44488 I0.00000 J-0.44000
G01 X13.19189 Y-54.00488
G02 X12.75189 Y-54.44488 I-0.44000 J-0.00000
G03 X12.65189 Y-54.54488 I-0.00000 J-0.10000
G260
M08
G40
G00 X17.44086 Y-54.81988
(PartName=40171945 CutLength=13.245 MarkLength=0.000 Weigth=2.6 Quantity=1)
G41
N147 M07
G261
G03 X17.06586 Y-54.44488 I-0.37500 J0.00000
G01 X14.38586 Y-54.44488
G02 X13.94586 Y-54.00488 I0.00000 J0.44000
G01 X13.94586 Y-51.44488
G02 X14.38586 Y-51.00488 I0.44000 J0.00000
G01 X17.06586 Y-51.00488
G02 X17.50586 Y-51.44488 I0.00000 J-0.44000
G01 X17.50586 Y-54.00488
G02 X17.06586 Y-54.44488 I-0.44000 J-0.00000
G03 X16.96586 Y-54.54488 I-0.00000 J-0.10000
G260
M08
G40
G00 X21.75482 Y-54.81988
(PartName=40171945 CutLength=13.245 MarkLength=0.000 Weigth=2.6 Quantity=1)
G41
N148 M07
G261
G03 X21.37982 Y-54.44488 I-0.37500 J0.00000
G01 X18.69982 Y-54.44488
G02 X18.25982 Y-54.00488 I0.00000 J0.44000
G01 X18.25982 Y-51.44488
G02 X18.69982 Y-51.00488 I0.44000 J0.00000
G01 X21.37982 Y-51.00488
G02 X21.81982 Y-51.44488 I0.00000 J-0.44000
G01 X21.81982 Y-54.00488
G02 X21.37982 Y-54.44488 I-0.44000 J-0.00000
G03 X21.27982 Y-54.54488 I-0.00000 J-0.10000
G260
M08
G40
G00 X26.06879 Y-54.81988
(PartName=40171945 CutLength=13.245 MarkLength=0.000 Weigth=2.6 Quantity=1)
G41
N149 M07
G261
G03 X25.69379 Y-54.44488 I-0.37500 J0.00000
G01 X23.01379 Y-54.44488
G02 X22.57379 Y-54.00488 I0.00000 J0.44000
G01 X22.57379 Y-51.44488
G02 X23.01379 Y-51.00488 I0.44000 J0.00000
G01 X25.69379 Y-51.00488
G02 X26.13379 Y-51.44488 I0.00000 J-0.44000
G01 X26.13379 Y-54.00488
G02 X25.69379 Y-54.44488 I-0.44000 J0.00000
G03 X25.59379 Y-54.54488 I0.00000 J-0.10000
G260
M08
G40
G00 X30.38275 Y-54.81988
(PartName=40171945 CutLength=13.245 MarkLength=0.000 Weigth=2.6 Quantity=1)
G41
N150 M07
G261
G03 X30.00775 Y-54.44488 I-0.37500 J0.00000
G01 X27.32775 Y-54.44488
G02 X26.88775 Y-54.00488 I-0.00000 J0.44000
G01 X26.88775 Y-51.44488
G02 X27.32775 Y-51.00488 I0.44000 J0.00000
G01 X30.00775 Y-51.00488
G02 X30.44775 Y-51.44488 I0.00000 J-0.44000
G01 X30.44775 Y-54.00488
G02 X30.00775 Y-54.44488 I-0.44000 J-0.00000
G03 X29.90775 Y-54.54488 I-0.00000 J-0.10000
G260
M08
G40
G00 X34.69672 Y-54.81988
(PartName=40171945 CutLength=13.245 MarkLength=0.000 Weigth=2.6 Quantity=1)
G41
N151 M07
G261
G03 X34.32172 Y-54.44488 I-0.37500 J0.00000
G01 X31.64172 Y-54.44488
G02 X31.20172 Y-54.00488 I0.00000 J0.44000
G01 X31.20172 Y-51.44488
G02 X31.64172 Y-51.00488 I0.44000 J0.00000
G01 X34.32172 Y-51.00488
G02 X34.76172 Y-51.44488 I0.00000 J-0.44000
G01 X34.76172 Y-54.00488
G02 X34.32172 Y-54.44488 I-0.44000 J0.00000
G03 X34.22172 Y-54.54488 I0.00000 J-0.10000
G260
M08
G40
G00 X39.01069 Y-54.81988
(PartName=40171945 CutLength=13.245 MarkLength=0.000 Weigth=2.6 Quantity=1)
G41
N152 M07
G261
G03 X38.63569 Y-54.44488 I-0.37500 J0.00000
G01 X35.95569 Y-54.44488
G02 X35.51569 Y-54.00488 I0.00000 J0.44000
G01 X35.51569 Y-51.44488
G02 X35.95569 Y-51.00488 I0.44000 J0.00000
G01 X38.63569 Y-51.00488
G02 X39.07569 Y-51.44488 I0.00000 J-0.44000
G01 X39.07569 Y-54.00488
G02 X38.63569 Y-54.44488 I-0.44000 J-0.00000
G03 X38.53569 Y-54.54488 I-0.00000 J-0.10000
G260
M08
G40
G00 X43.32465 Y-54.81988
(PartName=40171945 CutLength=13.245 MarkLength=0.000 Weigth=2.6 Quantity=1)
G41
N153 M07
G261
G03 X42.94965 Y-54.44488 I-0.37500 J-0.00000
G01 X40.26965 Y-54.44488
G02 X39.82965 Y-54.00488 I0.00000 J0.44000
G01 X39.82965 Y-51.44488
G02 X40.26965 Y-51.00488 I0.44000 J0.00000
G01 X42.94965 Y-51.00488
G02 X43.38965 Y-51.44488 I0.00000 J-0.44000
G01 X43.38965 Y-54.00488
G02 X42.94965 Y-54.44488 I-0.44000 J-0.00000
G03 X42.84965 Y-54.54488 I0.00000 J-0.10000
G260
M08
G40
G00 X47.63861 Y-54.81988
(PartName=40171945 CutLength=13.245 MarkLength=0.000 Weigth=2.6 Quantity=1)
G41
N154 M07
G261
G03 X47.26361 Y-54.44488 I-0.37500 J-0.00000
G01 X44.58361 Y-54.44488
G02 X44.14361 Y-54.00488 I0.00000 J0.44000
G01 X44.14361 Y-51.44488
G02 X44.58361 Y-51.00488 I0.44000 J0.00000
G01 X47.26361 Y-51.00488
G02 X47.70361 Y-51.44488 I0.00000 J-0.44000
G01 X47.70361 Y-54.00488
G02 X47.26361 Y-54.44488 I-0.44000 J-0.00000
G03 X47.16361 Y-54.54488 I0.00000 J-0.10000
G260
M08
G40
G00 X51.95258 Y-54.81988
(PartName=40171945 CutLength=13.245 MarkLength=0.000 Weigth=2.6 Quantity=1)
G41
N155 M07
G261
G03 X51.57758 Y-54.44488 I-0.37500 J0.00000
G01 X48.89758 Y-54.44488
G02 X48.45758 Y-54.00488 I0.00000 J0.44000
G01 X48.45758 Y-51.44488
G02 X48.89758 Y-51.00488 I0.44000 J0.00000
G01 X51.57758 Y-51.00488
G02 X52.01758 Y-51.44488 I-0.00000 J-0.44000
G01 X52.01758 Y-54.00488
G02 X51.57758 Y-54.44488 I-0.44000 J-0.00000
G03 X51.47758 Y-54.54488 I-0.00000 J-0.10000
G260
M08
G40
G00 X56.26654 Y-54.81988
(PartName=40171945 CutLength=13.245 MarkLength=0.000 Weigth=2.6 Quantity=1)
G41
N156 M07
G261
G03 X55.89154 Y-54.44488 I-0.37500 J-0.00000
G01 X53.21154 Y-54.44488
G02 X52.77154 Y-54.00488 I0.00000 J0.44000
G01 X52.77154 Y-51.44488
G02 X53.21154 Y-51.00488 I0.44000 J0.00000
G01 X55.89154 Y-51.00488
G02 X56.33154 Y-51.44488 I0.00000 J-0.44000
G01 X56.33154 Y-54.00488
G02 X55.89154 Y-54.44488 I-0.44000 J-0.00000
G03 X55.79154 Y-54.54488 I0.00000 J-0.10000
G260
M08
G40
G00 X57.14654 Y-1.00409
(PartName=40171945 CutLength=13.245 MarkLength=0.000 Weigth=2.6 Quantity=1)
G41
N157 M07
G261
G03 X57.52154 Y-1.37909 I0.37500 J0.00000
G01 X60.20154 Y-1.37909
G02 X60.64154 Y-1.81909 I0.00000 J-0.44000
G01 X60.64154 Y-4.37909
G02 X60.20154 Y-4.81909 I-0.44000 J-0.00000
G01 X57.52154 Y-4.81909
G02 X57.08154 Y-4.37909 I0.00000 J0.44000
G01 X57.08154 Y-1.81909
G02 X57.52154 Y-1.37909 I0.44000 J0.00000
G03 X57.62154 Y-1.27909 I0.00000 J0.10000
G260
M08
G40
G00 X60.58051 Y-9.38409
(PartName=40171945 CutLength=13.245 MarkLength=0.000 Weigth=2.6 Quantity=1)
G41
N158 M07
G261
G03 X60.20551 Y-9.00909 I-0.37500 J-0.00000
G01 X57.52551 Y-9.00909
G02 X57.08551 Y-8.56909 I0.00000 J0.44000
G01 X57.08551 Y-6.00909
G02 X57.52551 Y-5.56909 I0.44000 J0.00000
G01 X60.20551 Y-5.56909
G02 X60.64551 Y-6.00909 I0.00000 J-0.44000
G01 X60.64551 Y-8.56909
G02 X60.20551 Y-9.00909 I-0.44000 J-0.00000
G03 X60.10551 Y-9.10909 I0.00000 J-0.10000
G260
M08
G40
G00 X57.14654 Y-9.74799
(PartName=40171945 CutLength=13.245 MarkLength=0.000 Weigth=2.6 Quantity=1)
G41
N159 M07
G261
G03 X57.52154 Y-10.12299 I0.37500 J0.00000
G01 X60.20154 Y-10.12299
G02 X60.64154 Y-10.56299 I0.00000 J-0.44000
G01 X60.64154 Y-13.12299
G02 X60.20154 Y-13.56299 I-0.44000 J-0.00000
G01 X57.52154 Y-13.56299
G02 X57.08154 Y-13.12299 I0.00000 J0.44000
G01 X57.08154 Y-10.56299
G02 X57.52154 Y-10.12299 I0.44000 J0.00000
G03 X57.62154 Y-10.02299 I0.00000 J0.10000
G260
M08
G40
G00 X60.58051 Y-18.12799
(PartName=40171945 CutLength=13.245 MarkLength=0.000 Weigth=2.6 Quantity=1)
G41
N160 M07
G261
G03 X60.20551 Y-17.75299 I-0.37500 J0.00000
G01 X57.52551 Y-17.75299
G02 X57.08551 Y-17.31299 I0.00000 J0.44000
G01 X57.08551 Y-14.75299
G02 X57.52551 Y-14.31299 I0.44000 J0.00000
G01 X60.20551 Y-14.31299
G02 X60.64551 Y-14.75299 I0.00000 J-0.44000
G01 X60.64551 Y-17.31299
G02 X60.20551 Y-17.75299 I-0.44000 J0.00000
G03 X60.10551 Y-17.85299 I0.00000 J-0.10000
G260
M08
G40
G00 X57.14654 Y-18.49189
(PartName=40171945 CutLength=13.245 MarkLength=0.000 Weigth=2.6 Quantity=1)
G41
N161 M07
G261
G03 X57.52154 Y-18.86689 I0.37500 J0.00000
G01 X60.20154 Y-18.86689
G02 X60.64154 Y-19.30689 I0.00000 J-0.44000
G01 X60.64154 Y-21.86689
G02 X60.20154 Y-22.30689 I-0.44000 J-0.00000
G01 X57.52154 Y-22.30689
G02 X57.08154 Y-21.86689 I0.00000 J0.44000
G01 X57.08154 Y-19.30689
G02 X57.52154 Y-18.86689 I0.44000 J0.00000
G03 X57.62154 Y-18.76689 I0.00000 J0.10000
G260
M08
G40
G00 X60.58051 Y-26.87189
(PartName=40171945 CutLength=13.245 MarkLength=0.000 Weigth=2.6 Quantity=1)
G41
N162 M07
G261
G03 X60.20551 Y-26.49689 I-0.37500 J0.00000
G01 X57.52551 Y-26.49689
G02 X57.08551 Y-26.05689 I0.00000 J0.44000
G01 X57.08551 Y-23.49689
G02 X57.52551 Y-23.05689 I0.44000 J0.00000
G01 X60.20551 Y-23.05689
G02 X60.64551 Y-23.49689 I0.00000 J-0.44000
G01 X60.64551 Y-26.05689
G02 X60.20551 Y-26.49689 I-0.44000 J0.00000
G03 X60.10551 Y-26.59689 I0.00000 J-0.10000
G260
M08
G40
G00 X57.14654 Y-27.23578
(PartName=40171945 CutLength=13.245 MarkLength=0.000 Weigth=2.6 Quantity=1)
G41
N163 M07
G261
G03 X57.52154 Y-27.61078 I0.37500 J0.00000
G01 X60.20154 Y-27.61078
G02 X60.64154 Y-28.05078 I0.00000 J-0.44000
G01 X60.64154 Y-30.61078
G02 X60.20154 Y-31.05078 I-0.44000 J0.00000
G01 X57.52154 Y-31.05078
G02 X57.08154 Y-30.61078 I0.00000 J0.44000
G01 X57.08154 Y-28.05078
G02 X57.52154 Y-27.61078 I0.44000 J0.00000
G03 X57.62154 Y-27.51078 I0.00000 J0.10000
G260
M08
G40
G00 X60.58051 Y-35.61578
(PartName=40171945 CutLength=13.245 MarkLength=0.000 Weigth=2.6 Quantity=1)
G41
N164 M07
G261
G03 X60.20551 Y-35.24078 I-0.37500 J0.00000
G01 X57.52551 Y-35.24078
G02 X57.08551 Y-34.80078 I0.00000 J0.44000
G01 X57.08551 Y-32.24078
G02 X57.52551 Y-31.80078 I0.44000 J0.00000
G01 X60.20551 Y-31.80078
G02 X60.64551 Y-32.24078 I0.00000 J-0.44000
G01 X60.64551 Y-34.80078
G02 X60.20551 Y-35.24078 I-0.44000 J-0.00000
G03 X60.10551 Y-35.34078 I0.00000 J-0.10000
G260
M08
G40
G00 X57.14654 Y-35.97968
(PartName=40171945 CutLength=13.245 MarkLength=0.000 Weigth=2.6 Quantity=1)
G41
N165 M07
G261
G03 X57.52154 Y-36.35468 I0.37500 J0.00000
G01 X60.20154 Y-36.35468
G02 X60.64154 Y-36.79468 I-0.00000 J-0.44000
G01 X60.64154 Y-39.35468
G02 X60.20154 Y-39.79468 I-0.44000 J0.00000
G01 X57.52154 Y-39.79468
G02 X57.08154 Y-39.35468 I0.00000 J0.44000
G01 X57.08154 Y-36.79468
G02 X57.52154 Y-36.35468 I0.44000 J0.00000
G03 X57.62154 Y-36.25468 I0.00000 J0.10000
G260
M08
G40
G00 X60.58051 Y-44.35968
(PartName=40171945 CutLength=13.245 MarkLength=0.000 Weigth=2.6 Quantity=1)
G41
N166 M07
G261
G03 X60.20551 Y-43.98468 I-0.37500 J0.00000
G01 X57.52551 Y-43.98468
G02 X57.08551 Y-43.54468 I0.00000 J0.44000
G01 X57.08551 Y-40.98468
G02 X57.52551 Y-40.54468 I0.44000 J0.00000
G01 X60.20551 Y-40.54468
G02 X60.64551 Y-40.98468 I0.00000 J-0.44000
G01 X60.64551 Y-43.54468
G02 X60.20551 Y-43.98468 I-0.44000 J0.00000
G03 X60.10551 Y-44.08468 I0.00000 J-0.10000
G260
M08
G40
G00 X57.14654 Y-44.72357
(PartName=40171945 CutLength=13.245 MarkLength=0.000 Weigth=2.6 Quantity=1)
G41
N167 M07
G261
G03 X57.52154 Y-45.09857 I0.37500 J0.00000
G01 X60.20154 Y-45.09857
G02 X60.64154 Y-45.53857 I0.00000 J-0.44000
G01 X60.64154 Y-48.09857
G02 X60.20154 Y-48.53857 I-0.44000 J0.00000
G01 X57.52154 Y-48.53857
G02 X57.08154 Y-48.09857 I0.00000 J0.44000
G01 X57.08154 Y-45.53857
G02 X57.52154 Y-45.09857 I0.44000 J0.00000
G03 X57.62154 Y-44.99857 I0.00000 J0.10000
G260
M08
G40
G00 X60.58051 Y-54.81988
(PartName=40171945 CutLength=13.245 MarkLength=0.000 Weigth=2.6 Quantity=1)
G41
N168 M07
G261
G03 X60.20551 Y-54.44488 I-0.37500 J0.00000
G01 X57.52551 Y-54.44488
G02 X57.08551 Y-54.00488 I0.00000 J0.44000
G01 X57.08551 Y-51.44488
G02 X57.52551 Y-51.00488 I0.44000 J0.00000
G01 X60.20551 Y-51.00488
G02 X60.64551 Y-51.44488 I0.00000 J-0.44000
G01 X60.64551 Y-54.00488
G02 X60.20551 Y-54.44488 I-0.44000 J-0.00000
G03 X60.10551 Y-54.54488 I0.00000 J-0.10000
G260
M08
G40
G00 X1.06500 Y-55.18378
(PartName=40171945 CutLength=13.245 MarkLength=0.000 Weigth=2.6 Quantity=1)
G41
N169 M07
G261
G03 X1.44000 Y-55.55878 I0.37500 J-0.00000
G01 X4.12000 Y-55.55878
G02 X4.56000 Y-55.99878 I0.00000 J-0.44000
G01 X4.56000 Y-58.55878
G02 X4.12000 Y-58.99878 I-0.44000 J0.00000
G01 X1.44000 Y-58.99878
G02 X1.00000 Y-58.55878 I-0.00000 J0.44000
G01 X1.00000 Y-55.99878
G02 X1.44000 Y-55.55878 I0.44000 J0.00000
G03 X1.54000 Y-55.45878 I-0.00000 J0.10000
G260
M08
G40
G00 X5.37896 Y-55.18378
(PartName=40171945 CutLength=13.245 MarkLength=0.000 Weigth=2.6 Quantity=1)
G41
N170 M07
G261
G03 X5.75396 Y-55.55878 I0.37500 J-0.00000
G01 X8.43396 Y-55.55878
G02 X8.87396 Y-55.99878 I0.00000 J-0.44000
G01 X8.87396 Y-58.55878
G02 X8.43396 Y-58.99878 I-0.44000 J0.00000
G01 X5.75396 Y-58.99878
G02 X5.31396 Y-58.55878 I-0.00000 J0.44000
G01 X5.31396 Y-55.99878
G02 X5.75396 Y-55.55878 I0.44000 J0.00000
G03 X5.85396 Y-55.45878 I-0.00000 J0.10000
G260
M08
G40
G00 X9.69293 Y-55.18378
(PartName=40171945 CutLength=13.245 MarkLength=0.000 Weigth=2.6 Quantity=1)
G41
N171 M07
G261
G03 X10.06793 Y-55.55878 I0.37500 J-0.00000
G01 X12.74793 Y-55.55878
G02 X13.18793 Y-55.99878 I0.00000 J-0.44000
G01 X13.18793 Y-58.55878
G02 X12.74793 Y-58.99878 I-0.44000 J0.00000
G01 X10.06793 Y-58.99878
G02 X9.62793 Y-58.55878 I-0.00000 J0.44000
G01 X9.62793 Y-55.99878
G02 X10.06793 Y-55.55878 I0.44000 J0.00000
G03 X10.16793 Y-55.45878 I0.00000 J0.10000
G260
M08
G40
G00 X14.00689 Y-55.18378
(PartName=40171945 CutLength=13.245 MarkLength=0.000 Weigth=2.6 Quantity=1)
G41
N172 M07
G261
G03 X14.38189 Y-55.55878 I0.37500 J-0.00000
G01 X17.06189 Y-55.55878
G02 X17.50189 Y-55.99878 I0.00000 J-0.44000
G01 X17.50189 Y-58.55878
G02 X17.06189 Y-58.99878 I-0.44000 J0.00000
G01 X14.38189 Y-58.99878
G02 X13.94189 Y-58.55878 I0.00000 J0.44000
G01 X13.94189 Y-55.99878
G02 X14.38189 Y-55.55878 I0.44000 J0.00000
G03 X14.48189 Y-55.45878 I0.00000 J0.10000
G260
M08
G40
G00 X18.32086 Y-55.18378
(PartName=40171945 CutLength=13.245 MarkLength=0.000 Weigth=2.6 Quantity=1)
G41
N173 M07
G261
G03 X18.69586 Y-55.55878 I0.37500 J-0.00000
G01 X21.37586 Y-55.55878
G02 X21.81586 Y-55.99878 I0.00000 J-0.44000
G01 X21.81586 Y-58.55878
G02 X21.37586 Y-58.99878 I-0.44000 J0.00000
G01 X18.69586 Y-58.99878
G02 X18.25586 Y-58.55878 I0.00000 J0.44000
G01 X18.25586 Y-55.99878
G02 X18.69586 Y-55.55878 I0.44000 J0.00000
G03 X18.79586 Y-55.45878 I0.00000 J0.10000
G260
M08
G40
G00 X22.63482 Y-55.18378
(PartName=40171945 CutLength=13.245 MarkLength=0.000 Weigth=2.6 Quantity=1)
G41
N174 M07
G261
G03 X23.00982 Y-55.55878 I0.37500 J-0.00000
G01 X25.68982 Y-55.55878
G02 X26.12982 Y-55.99878 I0.00000 J-0.44000
G01 X26.12982 Y-58.55878
G02 X25.68982 Y-58.99878 I-0.44000 J0.00000
G01 X23.00982 Y-58.99878
G02 X22.56982 Y-58.55878 I0.00000 J0.44000
G01 X22.56982 Y-55.99878
G02 X23.00982 Y-55.55878 I0.44000 J0.00000
G03 X23.10982 Y-55.45878 I-0.00000 J0.10000
G260
M08
G40
G00 X26.94879 Y-55.18378
(PartName=40171945 CutLength=13.245 MarkLength=0.000 Weigth=2.6 Quantity=1)
G41
N175 M07
G261
G03 X27.32379 Y-55.55878 I0.37500 J-0.00000
G01 X30.00379 Y-55.55878
G02 X30.44379 Y-55.99878 I0.00000 J-0.44000
G01 X30.44379 Y-58.55878
G02 X30.00379 Y-58.99878 I-0.44000 J0.00000
G01 X27.32379 Y-58.99878
G02 X26.88379 Y-58.55878 I0.00000 J0.44000
G01 X26.88379 Y-55.99878
G02 X27.32379 Y-55.55878 I0.44000 J0.00000
G03 X27.42379 Y-55.45878 I0.00000 J0.10000
G260
M08
G40
G00 X31.26275 Y-55.18378
(PartName=40171945 CutLength=13.245 MarkLength=0.000 Weigth=2.6 Quantity=1)
G41
N176 M07
G261
G03 X31.63775 Y-55.55878 I0.37500 J-0.00000
G01 X34.31775 Y-55.55878
G02 X34.75775 Y-55.99878 I0.00000 J-0.44000
G01 X34.75775 Y-58.55878
G02 X34.31775 Y-58.99878 I-0.44000 J0.00000
G01 X31.63775 Y-58.99878
G02 X31.19775 Y-58.55878 I0.00000 J0.44000
G01 X31.19775 Y-55.99878
G02 X31.63775 Y-55.55878 I0.44000 J0.00000
G03 X31.73775 Y-55.45878 I-0.00000 J0.10000
G260
M08
G40
G00 X35.57672 Y-55.18378
(PartName=40171945 CutLength=13.245 MarkLength=0.000 Weigth=2.6 Quantity=1)
G41
N177 M07
G261
G03 X35.95172 Y-55.55878 I0.37500 J-0.00000
G01 X38.63172 Y-55.55878
G02 X39.07172 Y-55.99878 I0.00000 J-0.44000
G01 X39.07172 Y-58.55878
G02 X38.63172 Y-58.99878 I-0.44000 J0.00000
G01 X35.95172 Y-58.99878
G02 X35.51172 Y-58.55878 I-0.00000 J0.44000
G01 X35.51172 Y-55.99878
G02 X35.95172 Y-55.55878 I0.44000 J0.00000
G03 X36.05172 Y-55.45878 I0.00000 J0.10000
G260
M08
G40
G00 X39.89069 Y-55.18378
(PartName=40171945 CutLength=13.245 MarkLength=0.000 Weigth=2.6 Quantity=1)
G41
N178 M07
G261
G03 X40.26569 Y-55.55878 I0.37500 J-0.00000
G01 X42.94569 Y-55.55878
G02 X43.38569 Y-55.99878 I0.00000 J-0.44000
G01 X43.38569 Y-58.55878
G02 X42.94569 Y-58.99878 I-0.44000 J0.00000
G01 X40.26569 Y-58.99878
G02 X39.82569 Y-58.55878 I0.00000 J0.44000
G01 X39.82569 Y-55.99878
G02 X40.26569 Y-55.55878 I0.44000 J0.00000
G03 X40.36569 Y-55.45878 I0.00000 J0.10000
G260
M08
G40
G00 X44.20465 Y-55.18378
(PartName=40171945 CutLength=13.245 MarkLength=0.000 Weigth=2.6 Quantity=1)
G41
N179 M07
G261
G03 X44.57965 Y-55.55878 I0.37500 J-0.00000
G01 X47.25965 Y-55.55878
G02 X47.69965 Y-55.99878 I0.00000 J-0.44000
G01 X47.69965 Y-58.55878
G02 X47.25965 Y-58.99878 I-0.44000 J0.00000
G01 X44.57965 Y-58.99878
G02 X44.13965 Y-58.55878 I0.00000 J0.44000
G01 X44.13965 Y-55.99878
G02 X44.57965 Y-55.55878 I0.44000 J0.00000
G03 X44.67965 Y-55.45878 I-0.00000 J0.10000
G260
M08
G40
G00 X48.51861 Y-55.18378
(PartName=40171945 CutLength=13.245 MarkLength=0.000 Weigth=2.6 Quantity=1)
G41
N180 M07
G261
G03 X48.89361 Y-55.55878 I0.37500 J-0.00000
G01 X51.57361 Y-55.55878
G02 X52.01361 Y-55.99878 I0.00000 J-0.44000
G01 X52.01361 Y-58.55878
G02 X51.57361 Y-58.99878 I-0.44000 J0.00000
G01 X48.89361 Y-58.99878
G02 X48.45361 Y-58.55878 I0.00000 J0.44000
G01 X48.45361 Y-55.99878
G02 X48.89361 Y-55.55878 I0.44000 J0.00000
G03 X48.99361 Y-55.45878 I-0.00000 J0.10000
G260
M08
G40
G00 X52.83258 Y-55.18378
(PartName=40171945 CutLength=13.245 MarkLength=0.000 Weigth=2.6 Quantity=1)
G41
N181 M07
G261
G03 X53.20758 Y-55.55878 I0.37500 J-0.00000
G01 X55.88758 Y-55.55878
G02 X56.32758 Y-55.99878 I0.00000 J-0.44000
G01 X56.32758 Y-58.55878
G02 X55.88758 Y-58.99878 I-0.44000 J0.00000
G01 X53.20758 Y-58.99878
G02 X52.76758 Y-58.55878 I-0.00000 J0.44000
G01 X52.76758 Y-55.99878
G02 X53.20758 Y-55.55878 I0.44000 J0.00000
G03 X53.30758 Y-55.45878 I0.00000 J0.10000
G260
M08
G40
G00 X57.14654 Y-55.18378
(PartName=40171945 CutLength=13.245 MarkLength=0.000 Weigth=2.6 Quantity=1)
G41
N182 M07
G261
G03 X57.52154 Y-55.55878 I0.37500 J-0.00000
G01 X60.20154 Y-55.55878
G02 X60.64154 Y-55.99878 I0.00000 J-0.44000
G01 X60.64154 Y-58.55878
G02 X60.20154 Y-58.99878 I-0.44000 J0.00000
G01 X57.52154 Y-58.99878
G02 X57.08154 Y-58.55878 I0.00000 J0.44000
G01 X57.08154 Y-55.99878
G02 X57.52154 Y-55.55878 I0.44000 J0.00000
G03 X57.62154 Y-55.45878 I0.00000 J0.10000
G260
M08
G40
G00 X61.46051 Y-1.00409
(PartName=40171945 CutLength=13.245 MarkLength=0.000 Weigth=2.6 Quantity=1)
G41
N183 M07
G261
G03 X61.83551 Y-1.37909 I0.37500 J0.00000
G01 X64.51551 Y-1.37909
G02 X64.95551 Y-1.81909 I0.00000 J-0.44000
G01 X64.95551 Y-4.37909
G02 X64.51551 Y-4.81909 I-0.44000 J-0.00000
G01 X61.83551 Y-4.81909
G02 X61.39551 Y-4.37909 I-0.00000 J0.44000
G01 X61.39551 Y-1.81909
G02 X61.83551 Y-1.37909 I0.44000 J0.00000
G03 X61.93551 Y-1.27909 I0.00000 J0.10000
G260
M08
G40
G00 X64.89447 Y-9.38409
(PartName=40171945 CutLength=13.245 MarkLength=0.000 Weigth=2.6 Quantity=1)
G41
N184 M07
G261
G03 X64.51947 Y-9.00909 I-0.37500 J-0.00000
G01 X61.83947 Y-9.00909
G02 X61.39947 Y-8.56909 I-0.00000 J0.44000
G01 X61.39947 Y-6.00909
G02 X61.83947 Y-5.56909 I0.44000 J0.00000
G01 X64.51947 Y-5.56909
G02 X64.95947 Y-6.00909 I0.00000 J-0.44000
G01 X64.95947 Y-8.56909
G02 X64.51947 Y-9.00909 I-0.44000 J-0.00000
G03 X64.41947 Y-9.10909 I0.00000 J-0.10000
G260
M08
G40
G00 X61.46051 Y-9.74799
(PartName=40171945 CutLength=13.245 MarkLength=0.000 Weigth=2.6 Quantity=1)
G41
N185 M07
G261
G03 X61.83551 Y-10.12299 I0.37500 J0.00000
G01 X64.51551 Y-10.12299
G02 X64.95551 Y-10.56299 I0.00000 J-0.44000
G01 X64.95551 Y-13.12299
G02 X64.51551 Y-13.56299 I-0.44000 J-0.00000
G01 X61.83551 Y-13.56299
G02 X61.39551 Y-13.12299 I-0.00000 J0.44000
G01 X61.39551 Y-10.56299
G02 X61.83551 Y-10.12299 I0.44000 J0.00000
G03 X61.93551 Y-10.02299 I0.00000 J0.10000
G260
M08
G40
G00 X64.89447 Y-18.12799
(PartName=40171945 CutLength=13.245 MarkLength=0.000 Weigth=2.6 Quantity=1)
G41
N186 M07
G261
G03 X64.51947 Y-17.75299 I-0.37500 J0.00000
G01 X61.83947 Y-17.75299
G02 X61.39947 Y-17.31299 I-0.00000 J0.44000
G01 X61.39947 Y-14.75299
G02 X61.83947 Y-14.31299 I0.44000 J0.00000
G01 X64.51947 Y-14.31299
G02 X64.95947 Y-14.75299 I0.00000 J-0.44000
G01 X64.95947 Y-17.31299
G02 X64.51947 Y-17.75299 I-0.44000 J0.00000
G03 X64.41947 Y-17.85299 I0.00000 J-0.10000
G260
M08
G40
G00 X61.46051 Y-18.49189
(PartName=40171945 CutLength=13.245 MarkLength=0.000 Weigth=2.6 Quantity=1)
G41
N187 M07
G261
G03 X61.83551 Y-18.86689 I0.37500 J0.00000
G01 X64.51551 Y-18.86689
G02 X64.95551 Y-19.30689 I0.00000 J-0.44000
G01 X64.95551 Y-21.86689
G02 X64.51551 Y-22.30689 I-0.44000 J-0.00000
G01 X61.83551 Y-22.30689
G02 X61.39551 Y-21.86689 I-0.00000 J0.44000
G01 X61.39551 Y-19.30689
G02 X61.83551 Y-18.86689 I0.44000 J0.00000
G03 X61.93551 Y-18.76689 I-0.00000 J0.10000
G260
M08
G40
G00 X64.89447 Y-26.87189
(PartName=40171945 CutLength=13.245 MarkLength=0.000 Weigth=2.6 Quantity=1)
G41
N188 M07
G261
G03 X64.51947 Y-26.49689 I-0.37500 J0.00000
G01 X61.83947 Y-26.49689
G02 X61.39947 Y-26.05689 I-0.00000 J0.44000
G01 X61.39947 Y-23.49689
G02 X61.83947 Y-23.05689 I0.44000 J0.00000
G01 X64.51947 Y-23.05689
G02 X64.95947 Y-23.49689 I0.00000 J-0.44000
G01 X64.95947 Y-26.05689
G02 X64.51947 Y-26.49689 I-0.44000 J0.00000
G03 X64.41947 Y-26.59689 I0.00000 J-0.10000
G260
M08
G40
G00 X61.46051 Y-27.23578
(PartName=40171945 CutLength=13.245 MarkLength=0.000 Weigth=2.6 Quantity=1)
G41
N189 M07
G261
G03 X61.83551 Y-27.61078 I0.37500 J0.00000
G01 X64.51551 Y-27.61078
G02 X64.95551 Y-28.05078 I0.00000 J-0.44000
G01 X64.95551 Y-30.61078
G02 X64.51551 Y-31.05078 I-0.44000 J-0.00000
G01 X61.83551 Y-31.05078
G02 X61.39551 Y-30.61078 I-0.00000 J0.44000
G01 X61.39551 Y-28.05078
G02 X61.83551 Y-27.61078 I0.44000 J0.00000
G03 X61.93551 Y-27.51078 I-0.00000 J0.10000
G260
M08
G40
G00 X64.89447 Y-35.61578
(PartName=40171945 CutLength=13.245 MarkLength=0.000 Weigth=2.6 Quantity=1)
G41
N190 M07
G261
G03 X64.51947 Y-35.24078 I-0.37500 J0.00000
G01 X61.83947 Y-35.24078
G02 X61.39947 Y-34.80078 I0.00000 J0.44000
G01 X61.39947 Y-32.24078
G02 X61.83947 Y-31.80078 I0.44000 J0.00000
G01 X64.51947 Y-31.80078
G02 X64.95947 Y-32.24078 I0.00000 J-0.44000
G01 X64.95947 Y-34.80078
G02 X64.51947 Y-35.24078 I-0.44000 J-0.00000
G03 X64.41947 Y-35.34078 I0.00000 J-0.10000
G260
M08
G40
G00 X61.46051 Y-35.97968
(PartName=40171945 CutLength=13.245 MarkLength=0.000 Weigth=2.6 Quantity=1)
G41
N191 M07
G261
G03 X61.83551 Y-36.35468 I0.37500 J0.00000
G01 X64.51551 Y-36.35468
G02 X64.95551 Y-36.79468 I0.00000 J-0.44000
G01 X64.95551 Y-39.35468
G02 X64.51551 Y-39.79468 I-0.44000 J-0.00000
G01 X61.83551 Y-39.79468
G02 X61.39551 Y-39.35468 I-0.00000 J0.44000
G01 X61.39551 Y-36.79468
G02 X61.83551 Y-36.35468 I0.44000 J0.00000
G03 X61.93551 Y-36.25468 I0.00000 J0.10000
G260
M08
G40
G00 X64.89447 Y-44.35968
(PartName=40171945 CutLength=13.245 MarkLength=0.000 Weigth=2.6 Quantity=1)
G41
N192 M07
G261
G03 X64.51947 Y-43.98468 I-0.37500 J0.00000
G01 X61.83947 Y-43.98468
G02 X61.39947 Y-43.54468 I-0.00000 J0.44000
G01 X61.39947 Y-40.98468
G02 X61.83947 Y-40.54468 I0.44000 J0.00000
G01 X64.51947 Y-40.54468
G02 X64.95947 Y-40.98468 I0.00000 J-0.44000
G01 X64.95947 Y-43.54468
G02 X64.51947 Y-43.98468 I-0.44000 J0.00000
G03 X64.41947 Y-44.08468 I0.00000 J-0.10000
G260
M08
G40
G00 X61.46051 Y-44.72357
(PartName=40171945 CutLength=13.245 MarkLength=0.000 Weigth=2.6 Quantity=1)
G41
N193 M07
G261
G03 X61.83551 Y-45.09857 I0.37500 J0.00000
G01 X64.51551 Y-45.09857
G02 X64.95551 Y-45.53857 I0.00000 J-0.44000
G01 X64.95551 Y-48.09857
G02 X64.51551 Y-48.53857 I-0.44000 J-0.00000
G01 X61.83551 Y-48.53857
G02 X61.39551 Y-48.09857 I-0.00000 J0.44000
G01 X61.39551 Y-45.53857
G02 X61.83551 Y-45.09857 I0.44000 J0.00000
G03 X61.93551 Y-44.99857 I0.00000 J0.10000
G260
M08
G40
G00 X65.77447 Y-1.00409
(PartName=40171945 CutLength=13.245 MarkLength=0.000 Weigth=2.6 Quantity=1)
G41
N194 M07
G261
G03 X66.14947 Y-1.37909 I0.37500 J0.00000
G01 X68.82947 Y-1.37909
G02 X69.26947 Y-1.81909 I0.00000 J-0.44000
G01 X69.26947 Y-4.37909
G02 X68.82947 Y-4.81909 I-0.44000 J-0.00000
G01 X66.14947 Y-4.81909
G02 X65.70947 Y-4.37909 I0.00000 J0.44000
G01 X65.70947 Y-1.81909
G02 X66.14947 Y-1.37909 I0.44000 J0.00000
G03 X66.24947 Y-1.27909 I0.00000 J0.10000
G260
M08
G40
G00 X69.20844 Y-9.38409
(PartName=40171945 CutLength=13.245 MarkLength=0.000 Weigth=2.6 Quantity=1)
G41
N195 M07
G261
G03 X68.83344 Y-9.00909 I-0.37500 J-0.00000
G01 X66.15344 Y-9.00909
G02 X65.71344 Y-8.56909 I0.00000 J0.44000
G01 X65.71344 Y-6.00909
G02 X66.15344 Y-5.56909 I0.44000 J0.00000
G01 X68.83344 Y-5.56909
G02 X69.27344 Y-6.00909 I0.00000 J-0.44000
G01 X69.27344 Y-8.56909
G02 X68.83344 Y-9.00909 I-0.44000 J-0.00000
G03 X68.73344 Y-9.10909 I0.00000 J-0.10000
G260
M08
G40
G00 X65.77447 Y-9.74799
(PartName=40171945 CutLength=13.245 MarkLength=0.000 Weigth=2.6 Quantity=1)
G41
N196 M07
G261
G03 X66.14947 Y-10.12299 I0.37500 J0.00000
G01 X68.82947 Y-10.12299
G02 X69.26947 Y-10.56299 I0.00000 J-0.44000
G01 X69.26947 Y-13.12299
G02 X68.82947 Y-13.56299 I-0.44000 J-0.00000
G01 X66.14947 Y-13.56299
G02 X65.70947 Y-13.12299 I0.00000 J0.44000
G01 X65.70947 Y-10.56299
